FelixThomas97/robotervermessung-matlab-methods-applier/03_Daten/06.28_steuerung_vicon_synchronisiert/squares_isodiagonalA&B_120Hz_v1500.csv
timestamp,sec,nanosec,pv_x,pv_y,pv_z,ov_x,ov_y,ov_z,ov_w,tcp_speedv_x,tcp_speedv_y,tcp_speedv_z,tcp_speedv,tcp_angularv_x,tcp_angularv_y,tcp_angularv_z,tcp_angularv,tcp_accelv__x,tcp_accelv__y,tcp_accelv__z,tcp_accelv,tcp_accelv_angular_x,tcp_accelv_angular_y,tcp_accelv_angular_z,tcp_accelv_angular,ps_x,ps_y,ps_z,os_x,os_y,os_z,os_w,tcp_speeds,joint_1,joint_2,joint_3,joint_4,joint_5,joint_6
1719568252403414667,,,,,,,,,,,,,,,,,,,,,,,,,,371.949,-506.499,1729.24,,,,,,,,,,,
1719568252403420483,,,,,,,,,,,,,,,,,,,,,,,,,,,,,,,,,0.0,,,,,,
1719568252403426847,,,,,,,,,,,,,,,,,,,,,,,,,,371.949,-506.499,1729.24,,,,,,,,,,,
1719568252405061961,,,,,,,,,,,,,,,,,,,,,,,,,,371.949,-506.499,1729.24,,,,,,,,,,,
1719568252405104357,,,,,,,,,,,,,,,,,,,,,,,,,,,,,0.0642123,0.607571,0.386588,0.690858,,,,,,,
1719568252405135840,,,,,,,,,,,,,,,,,,,,,,,,,,,,,,,,,0.0,,,,,,
1719568252405326556,,,,,,,,,,,,,,,,,,,,,,,,,,,,,,,,,,-66.5446,-28.7339,-8.20395,88.4149,93.9667,60.3021
1719568252408079631,1719568252.0,408020239.0,,,,,,,,0.0004978699898833,0.0007044158158775,-0.0001452036145987,0.0008747343929315,-0.0005589331435156,-0.0004742703352307,-0.0020412568831953,0.0021688864131144,,,,,,,,,,,,,,,,,,,,,,
1719568252408096406,1719568252.0,408009925.0,-0.0450197974630896,-0.6355889809334063,1.7787041446059924,9.218411004288962e-05,0.0002042278279097,-3.269126275443012e-05,0.9999999743621824,,,,,,,,,,,,,,,,,,,,,,,,,,,,,,
1719568252408109356,1719568252.0,408022952.0,,,,,,,,,,,,,,,,0.0342258787394356,-0.017881200539449,-0.0302753159054702,0.0490687564688016,-0.0011512762664165,-0.00046774106073,-0.0003277097102789,0.0012851507287933,,,,,,,,,,,,,,
1719568252408113945,1719568252.0,408027170.0,,,,,,,,0.0001366491726656,-1.71151806194203e-05,0.0002509748069101,0.0002862765786812,0.0012194996598557,0.0026475156602569,0.001641614826791,0.0033453576537096,,,,,,,,,,,,,,,,,,,,,,
1719568252408114991,1719568252.0,408026139.0,-0.045018658719984,-0.6355891235599115,1.7787062360627166,9.726360092764448e-05,0.0002152599395152,-2.5851180328161952e-05,0.999999971767333,,,,,,,,,,,,,,,,,,,,,,,,,,,,,,
1719568252408116054,1719568252.0,408028141.0,,,,,,,,,,,,,,,,-0.0433464980661213,-0.0865837195796359,0.0475414105810756,0.1078695745374,0.0017784520770661,0.003121779446484,0.0036828679540399,0.0051450864977962,,,,,,,,,,,,,,
1719568252408247024,,,,,,,,,,,,,,,,,,,,,,,,,,371.949,-506.498,1729.24,,,,,,,,,,,
1719568252408345100,,,,,,,,,,,,,,,,,,,,,,,,,,,,,0.0642164,0.60757,0.386589,0.690857,,,,,,,
1719568252408379339,,,,,,,,,,,,,,,,,,,,,,,,,,,,,,,,,0.0,,,,,,
1719568252410035526,,,,,,,,,,,,,,,,,,,,,,,,,,,,,,,,,,-66.5446,-28.7339,-8.20408,88.4149,93.9664,60.3018
1719568252411007483,,,,,,,,,,,,,,,,,,,,,,,,,,371.951,-506.503,1729.24,,,,,,,,,,,
1719568252411013245,,,,,,,,,,,,,,,,,,,,,,,,,,,,,0.0642182,0.60757,0.386588,0.690858,,,,,,,
1719568252411018955,,,,,,,,,,,,,,,,,,,,,,,,,,,,,,,,,0.0,,,,,,
1719568252411165506,,,,,,,,,,,,,,,,,,,,,,,,,,,,,,,,,,-66.5446,-28.7337,-8.20375,88.4149,93.9663,60.3013
1719568252412215189,,,,,,,,,,,,,,,,,,,,,,,,,,371.951,-506.503,1729.24,,,,,,,,,,,
1719568252412222059,,,,,,,,,,,,,,,,,,,,,,,,,,,,,0.0642182,0.60757,0.386588,0.690858,,,,,,,
1719568252412228241,,,,,,,,,,,,,,,,,,,,,,,,,,,,,,,,,0.0,,,,,,
1719568252412383041,,,,,,,,,,,,,,,,,,,,,,,,,,,,,,,,,,-66.5446,-28.7337,-8.20375,88.4149,93.9663,60.3013
1719568252415741169,,,,,,,,,,,,,,,,,,,,,,,,,,371.951,-506.5,1729.24,,,,,,,,,,,
1719568252415888555,,,,,,,,,,,,,,,,,,,,,,,,,,,,,0.0642126,0.60757,0.386589,0.690858,,,,,,,
1719568252415960761,,,,,,,,,,,,,,,,,,,,,,,,,,,,,,,,,0.0,,,,,,
1719568252416111360,,,,,,,,,,,,,,,,,,,,,,,,,,,,,,,,,,-66.5445,-28.7337,-8.20395,88.4149,93.9667,60.3019
1719568252418102433,1719568252.0,418009754.0,,,,,,,,-0.0002096864954803,0.0003538148589177,0.0001371321747623,0.0004335419404542,0.0002689213643276,-0.0005909118446522,-0.0016422424597534,0.0017659150050212,,,,,,,,,,,,,,,,,,,,,,
1719568252418107553,1719568252.0,418001667.0,-0.0450204061074464,-0.6355861751027538,1.7787073788308396,9.83856431813203e-05,0.0002127971703158,-3.2693376373975755e-05,0.999999971984386,,,,,,,,,,,,,,,,,,,,,,,,,,,,,,
1719568252418110101,1719568252.0,418012161.0,,,,,,,,,,,,,,,,-0.0415602801775216,0.0445116047444571,-0.0136611158577437,0.062411264462752,-0.0009505923697658,-0.0032384173208159,-0.0032838632556095,0.0047090052536347,,,,,,,,,,,,,,
1719568252420163881,,,,,,,,,,,,,,,,,,,,,,,,,,371.951,-506.499,1729.24,,,,,,,,,,,
1719568252420170269,,,,,,,,,,,,,,,,,,,,,,,,,,,,,0.0642137,0.607571,0.386591,0.690856,,,,,,,
1719568252420182716,,,,,,,,,,,,,,,,,,,,,,,,,,,,,,,,,0.0,,,,,,
1719568252420314093,,,,,,,,,,,,,,,,,,,,,,,,,,,,,,,,,,-66.5445,-28.7337,-8.20395,88.4146,93.9667,60.3017
1719568252421830786,,,,,,,,,,,,,,,,,,,,,,,,,,371.951,-506.501,1729.24,,,,,,,,,,,
1719568252421952069,,,,,,,,,,,,,,,,,,,,,,,,,,,,,0.0642147,0.607571,0.38659,0.690856,,,,,,,
1719568252422020375,,,,,,,,,,,,,,,,,,,,,,,,,,,,,,,,,0.0,,,,,,
1719568252422204615,,,,,,,,,,,,,,,,,,,,,,,,,,,,,,,,,,-66.5446,-28.7337,-8.20387,88.4146,93.9666,60.3017
1719568252423180956,,,,,,,,,,,,,,,,,,,,,,,,,,371.951,-506.501,1729.24,,,,,,,,,,,
1719568252423187631,,,,,,,,,,,,,,,,,,,,,,,,,,,,,0.0642147,0.607571,0.38659,0.690856,,,,,,,
1719568252423212444,,,,,,,,,,,,,,,,,,,,,,,,,,,,,,,,,0.0,,,,,,
1719568252423378574,,,,,,,,,,,,,,,,,,,,,,,,,,,,,,,,,,-66.5446,-28.7337,-8.20387,88.4146,93.9666,60.3017
1719568252425746113,,,,,,,,,,,,,,,,,,,,,,,,,,371.95,-506.498,1729.24,,,,,,,,,,,
1719568252427016576,,,,,,,,,,,,,,,,,,,,,,,,,,,,,,,,,0.0,,,,,,
1719568252427023954,,,,,,,,,,,,,,,,,,,,,,,,,,,,,0.0642121,0.60757,0.386589,0.690858,,,,,,,
1719568252427203596,,,,,,,,,,,,,,,,,,,,,,,,,,,,,,,,,,-66.5445,-28.7339,-8.20387,88.4149,93.9667,60.3019
1719568252428118085,1719568252.0,428001457.0,,,,,,,,-5.450607520496309e-05,-0.0007160933257965,8.490390806414894e-05,0.0007231661199815,-0.0001256495916811,0.0013398082194496,-0.0005945137814274,0.0014711629825079,,,,,,,,,,,,,,,,,,,,,,
1719568252428127297,1719568252.0,427990710.0,-0.0450208603247397,-0.6355921425471355,1.7787080863634068,9.786244784545448e-05,0.0002183794435717,-3.5171177708941e-05,0.9999999707481736,,,,,,,,,,,,,,,,,,,,,,,,,,,,,,
1719568252428132579,1719568252.0,428005726.0,,,,,,,,,,,,,,,,0.0186216504330483,-0.1283889821657169,-0.0062673920037781,0.1298837049399517,-0.0003945603243562,0.0019307215900043,0.0010477298702119,0.0022318381636219,,,,,,,,,,,,,,
1719568252431125063,,,,,,,,,,,,,,,,,,,,,,,,,,371.951,-506.499,1729.24,,,,,,,,,,,
1719568252431200480,,,,,,,,,,,,,,,,,,,,,,,,,,,,,0.0642107,0.607568,0.386589,0.690859,,,,,,,
1719568252431371941,,,,,,,,,,,,,,,,,,,,,,,,,,,,,,,,,,-66.5445,-28.7337,-8.20387,88.4151,93.9668,60.302
1719568252434170511,,,,,,,,,,,,,,,,,,,,,,,,,,371.95,-506.5,1729.24,,,,,,,,,,,
1719568252434196124,,,,,,,,,,,,,,,,,,,,,,,,,,,,,0.0642141,0.607571,0.38659,0.690856,,,,,,,
1719568252434394661,,,,,,,,,,,,,,,,,,,,,,,,,,,,,,,,,,-66.5446,-28.7337,-8.20408,88.4146,93.9667,60.3019
1719568252435289236,,,,,,,,,,,,,,,,,,,,,,,,,,371.95,-506.5,1729.24,,,,,,,,,,,
1719568252435310149,,,,,,,,,,,,,,,,,,,,,,,,,,,,,0.0642141,0.607571,0.38659,0.690856,,,,,,,
1719568252435350606,,,,,,,,,,,,,,,,,,,,,,,,,,,,,,,,,0.0,,,,,,
1719568252435545497,,,,,,,,,,,,,,,,,,,,,,,,,,,,,,,,,,-66.5446,-28.7337,-8.20408,88.4146,93.9667,60.3019
1719568252437772777,,,,,,,,,,,,,,,,,,,,,,,,,,371.951,-506.503,1729.24,,,,,,,,,,,
1719568252437778441,,,,,,,,,,,,,,,,,,,,,,,,,,,,,0.0642144,0.60757,0.386589,0.690858,,,,,,,
1719568252438175175,1719568252.0,438057807.0,,,,,,,,0.0003060201536,-0.0024398933363301,-0.0004604620366865,0.0025017500103541,-0.0027551037712471,-0.0006140546502115,-0.0023348535374,0.003663222753928,,,,,,,,,,,,,,,,,,,,,,
1719568252438180882,1719568252.0,438018812.0,-0.0450183101567931,-0.6356124749916049,1.7787042491797678,8.638506362777625e-05,0.0002158195267673,-4.49019903471272e-05,0.9999999719716816,,,,,,,,,,,,,,,,,,,,,,,,,,,,,,
1719568252438184644,1719568252.0,438064960.0,,,,,,,,,,,,,,,,0.0432631474566069,-0.2068560012640219,-0.065443913370089,0.2212329337688782,-0.002629468735027,-0.0019538572671484,-0.0017403240540369,0.0037095002172709,,,,,,,,,,,,,,
1719568252438951019,,,,,,,,,,,,,,,,,,,,,,,,,,,,,,,,,0.0,,,,,,
1719568252439050631,,,,,,,,,,,,,,,,,,,,,,,,,,,,,,,,,,-66.5446,-28.7337,-8.20408,88.4146,93.9667,60.3019
1719568252441918193,,,,,,,,,,,,,,,,,,,,,,,,,,371.949,-506.501,1729.24,,,,,,,,,,,
1719568252443011945,,,,,,,,,,,,,,,,,,,,,,,,,,,,,,,,,0.0,,,,,,
1719568252443019725,,,,,,,,,,,,,,,,,,,,,,,,,,,,,0.0642151,0.60757,0.386589,0.690857,,,,,,,
1719568252443205231,,,,,,,,,,,,,,,,,,,,,,,,,,,,,,,,,,-66.5447,-28.7337,-8.20387,88.4149,93.9666,60.3017
1719568252446112308,,,,,,,,,,,,,,,,,,,,,,,,,,371.949,-506.5,1729.24,,,,,,,,,,,
1719568252446174861,,,,,,,,,,,,,,,,,,,,,,,,,,,,,0.0642164,0.60757,0.386588,0.690857,,,,,,,
1719568252446248195,,,,,,,,,,,,,,,,,,,,,,,,,,,,,,,,,0.0,,,,,,
1719568252446490555,,,,,,,,,,,,,,,,,,,,,,,,,,,,,,,,,,-66.5447,-28.7339,-8.20387,88.4149,93.9665,60.3016
1719568252447450512,,,,,,,,,,,,,,,,,,,,,,,,,,371.949,-506.5,1729.24,,,,,,,,,,,
1719568252448095443,1719568252.0,448006154.0,,,,,,,,-3.536083868715956e-05,0.0002127538467666,2.1436651866935108e-05,0.0002167351339075,0.0018884989470587,-0.0002404185888948,0.0001107518397058,0.0019069597114061,,,,,,,,,,,,,,,,,,,,,,
1719568252448103594,1719568252.0,447991623.0,-0.0450186048304488,-0.6356107020428818,1.778704427818533,9.425375440409492e-05,0.0002148181758543,-4.443873959519057e-05,0.9999999714972894,,,,,,,,,,,,,,,,,,,,,,,,,,,,,,
1719568252448109958,1719568252.0,448011582.0,,,,,,,,,,,,,,,,-0.0409657190744705,0.3183176619716121,0.0578278426264233,0.3261109986571878,0.0046436000959529,0.000373618960352,0.0024456129688721,0.0052615240921413,,,,,,,,,,,,,,
1719568252450519055,,,,,,,,,,,,,,,,,,,,,,,,,,371.949,-506.5,1729.24,,,,,,,,,,,
1719568252450564302,,,,,,,,,,,,,,,,,,,,,,,,,,,,,0.0642164,0.60757,0.386588,0.690857,,,,,,,
1719568252450611394,,,,,,,,,,,,,,,,,,,,,,,,,,,,,,,,,0.0,,,,,,
1719568252452104564,,,,,,,,,,,,,,,,,,,,,,,,,,,,,,,,,,-66.5447,-28.7339,-8.20387,88.4149,93.9665,60.3016
1719568252454416859,,,,,,,,,,,,,,,,,,,,,,,,,,371.95,-506.501,1729.24,,,,,,,,,,,
1719568252454436140,,,,,,,,,,,,,,,,,,,,,,,,,,,,,0.0642158,0.607569,0.38659,0.690857,,,,,,,
1719568252456005416,,,,,,,,,,,,,,,,,,,,,,,,,,,,,,,,,0.0,,,,,,
1719568252456098712,,,,,,,,,,,,,,,,,,,,,,,,,,,,,,,,,,-66.5446,-28.7337,-8.20395,88.4146,93.9666,60.3018
1719568252458182865,1719568252.0,458079766.0,,,,,,,,0.0003863949257679,0.0012427069956677,0.000629440147124,0.0014456198029054,0.0004220446660442,-0.0003643103379925,-0.0018030500673161,0.0018872819788662,,,,,,,,,,,,,,,,,,,,,,
1719568252458191207,1719568252.0,458033141.0,-0.0450153848727341,-0.6356003461512513,1.7787096731530927,9.601395511546872e-05,0.0002132995861947,-5.195092715808063e-05,0.9999999712928538,,,,,,,,,,,,,,,,,,,,,,,,,,,,,,
1719568252458196890,1719568252.0,458088579.0,,,,,,,,,,,,,,,,0.0506106917346094,0.1235943778681303,0.0729604194308564,0.152184871659414,-0.001466452306667,-0.0001238773665929,-0.0019138043508587,0.0024142234907002,,,,,,,,,,,,,,
1719568252458216002,1719568252.0,458108152.0,,,,,,,,-0.0002553180083411,0.0007204101235558,-0.0004659411831831,0.0008951420097901,-0.0011266818588616,-0.0006881985497539,0.0037796591332532,0.0040036049278813,,,,,,,,,,,,,,,,,,,,,,
1719568252458220126,1719568252.0,458103003.0,-0.0450175125228036,-0.635594342733555,1.7787057903098995,9.131623729526806e-05,0.0002104333604896,-3.6203073898914175e-05,0.9999999730342412,,,,,,,,,,,,,,,,,,,,,,,,,,,,,,
1719568252458224374,1719568252.0,458111761.0,,,,,,,,,,,,,,,,-0.0770055520930901,-0.0626756246534299,-0.1314457596368612,0.1647303150770092,-0.0015487374325121,-0.0003238863939658,0.0055827062800834,0.0058025941992133,,,,,,,,,,,,,,
1719568252458851432,,,,,,,,,,,,,,,,,,,,,,,,,,371.95,-506.499,1729.24,,,,,,,,,,,
1719568252458902938,,,,,,,,,,,,,,,,,,,,,,,,,,,,,0.0642086,0.607572,0.38659,0.690856,,,,,,,
1719568252459126230,,,,,,,,,,,,,,,,,,,,,,,,,,,,,,,,,,-66.5445,-28.7337,-8.20395,88.4146,93.967,60.3022
1719568252459973896,,,,,,,,,,,,,,,,,,,,,,,,,,371.95,-506.499,1729.24,,,,,,,,,,,
1719568252460045519,,,,,,,,,,,,,,,,,,,,,,,,,,,,,0.0642086,0.607572,0.38659,0.690856,,,,,,,
1719568252460329034,,,,,,,,,,,,,,,,,,,,,,,,,,,,,,,,,,-66.5445,-28.7337,-8.20395,88.4146,93.967,60.3022
1719568252463205611,,,,,,,,,,,,,,,,,,,,,,,,,,371.95,-506.499,1729.24,,,,,,,,,,,
1719568252463283428,,,,,,,,,,,,,,,,,,,,,,,,,,,,,0.0642086,0.607572,0.38659,0.690856,,,,,,,
1719568252463551009,,,,,,,,,,,,,,,,,,,,,,,,,,,,,,,,,,-66.5445,-28.7337,-8.20395,88.4146,93.967,60.3022
1719568252466450757,,,,,,,,,,,,,,,,,,,,,,,,,,371.949,-506.502,1729.24,,,,,,,,,,,
1719568252466509942,,,,,,,,,,,,,,,,,,,,,,,,,,,,,0.0642143,0.607571,0.386588,0.690858,,,,,,,
1719568252466567100,,,,,,,,,,,,,,,,,,,,,,,,,,,,,,,,,0.0,,,,,,
1719568252468131516,1719568252.0,468036785.0,,,,,,,,-9.345792561760158e-05,0.0003943855263432,0.0004172946382574,0.0005817294408642,0.0011231959952883,3.344054828931431e-05,0.0004034325613653,0.0011939201588345,,,,,,,,,,,,,,,,,,,,,,
1719568252468137991,1719568252.0,468006114.0,-0.0450182913388504,-0.6355910561875021,1.7787092677652183,9.59958617052868e-05,0.0002105730190306,-3.4521132837101206e-05,0.9999999726260445,,,,,,,,,,,,,,,,,,,,,,,,,,,,,,
1719568252468143103,1719568252.0,468044484.0,,,,,,,,,,,,,,,,0.0194232099268276,-0.0391229516655045,0.1059882985728677,0.1146358838464395,0.0022498761705519,0.0007216586806925,-0.0033762235081186,0.0041208760247075,,,,,,,,,,,,,,
1719568252468148508,,,,,,,,,,,,,,,,,,,,,,,,,,,,,,,,,,-66.5447,-28.7337,-8.20375,88.4149,93.9666,60.3017
1719568252470887289,,,,,,,,,,,,,,,,,,,,,,,,,,371.951,-506.501,1729.24,,,,,,,,,,,
1719568252470933921,,,,,,,,,,,,,,,,,,,,,,,,,,,,,0.0642147,0.607571,0.386591,0.690856,,,,,,,
1719568252471014662,,,,,,,,,,,,,,,,,,,,,,,,,,,,,,,,,0.0,,,,,,
1719568252471215269,,,,,,,,,,,,,,,,,,,,,,,,,,,,,,,,,,-66.5445,-28.7337,-8.20395,88.4146,93.9666,60.3017
1719568252472048856,,,,,,,,,,,,,,,,,,,,,,,,,,371.951,-506.501,1729.24,,,,,,,,,,,
1719568252472139095,,,,,,,,,,,,,,,,,,,,,,,,,,,,,0.0642147,0.607571,0.386591,0.690856,,,,,,,
1719568252472237728,,,,,,,,,,,,,,,,,,,,,,,,,,,,,,,,,0.0,,,,,,
1719568252473493689,,,,,,,,,,,,,,,,,,,,,,,,,,371.951,-506.501,1729.24,,,,,,,,,,,
1719568252474056249,,,,,,,,,,,,,,,,,,,,,,,,,,,,,,,,,0.0,,,,,,
1719568252474064330,,,,,,,,,,,,,,,,,,,,,,,,,,,,,0.0642147,0.607571,0.386591,0.690856,,,,,,,
1719568252474325141,,,,,,,,,,,,,,,,,,,,,,,,,,,,,,,,,,-66.5445,-28.7337,-8.20395,88.4146,93.9666,60.3017
1719568252478129035,1719568252.0,478024644.0,,,,,,,,-0.0006671749433184,-0.000679273329931,-0.0005509263390557,0.0011000247691815,-0.0015738031300857,-0.0009198088328673,0.0007806045940944,0.0019829896907472,,,,,,,,,,,,,,,,,,,,,,
1719568252478135588,1719568252.0,478009611.0,-0.0450238511300447,-0.6355967167985849,1.7787046767123929,8.943779625030264e-05,0.0002067405681804,-3.126962671057956e-05,0.999999974140714,,,,,,,,,,,,,,,,,,,,,,,,,,,,,,
1719568252478140039,1719568252.0,478030243.0,,,,,,,,,,,,,,,,-0.0688460421241043,-0.1288390627529168,-0.1161865172775833,0.1866509801857417,-0.0026969974704226,-0.0009532556798872,0.0003771679473318,0.0028852638366703,,,,,,,,,,,,,,
1719568252478258727,,,,,,,,,,,,,,,,,,,,,,,,,,371.949,-506.498,1729.24,,,,,,,,,,,
1719568252478353633,,,,,,,,,,,,,,,,,,,,,,,,,,,,,0.0642121,0.60757,0.38659,0.690858,,,,,,,
1719568252478416416,,,,,,,,,,,,,,,,,,,,,,,,,,,,,,,,,0.0,,,,,,
1719568252478633342,,,,,,,,,,,,,,,,,,,,,,,,,,,,,,,,,,-66.5446,-28.7339,-8.20387,88.4149,93.9669,60.3018
1719568252481809308,,,,,,,,,,,,,,,,,,,,,,,,,,371.951,-506.502,1729.24,,,,,,,,,,,
1719568252481841886,,,,,,,,,,,,,,,,,,,,,,,,,,,,,0.0642146,0.607571,0.386588,0.690858,,,,,,,
1719568252481901499,,,,,,,,,,,,,,,,,,,,,,,,,,,,,,,,,0.0,,,,,,
1719568252482137214,,,,,,,,,,,,,,,,,,,,,,,,,,,,,,,,,,-66.5446,-28.7337,-8.20387,88.4149,93.9665,60.3018
1719568252483124844,,,,,,,,,,,,,,,,,,,,,,,,,,371.95,-506.499,1729.24,,,,,,,,,,,
1719568252483169124,,,,,,,,,,,,,,,,,,,,,,,,,,,,,0.0642119,0.607574,0.386588,0.690855,,,,,,,
1719568252483356832,,,,,,,,,,,,,,,,,,,,,,,,,,,,,,,,,,-66.5446,-28.7339,-8.20387,88.4144,93.9666,60.302
1719568252484200259,,,,,,,,,,,,,,,,,,,,,,,,,,371.95,-506.499,1729.24,,,,,,,,,,,
1719568252486031357,,,,,,,,,,,,,,,,,,,,,,,,,,,,,0.0642119,0.607574,0.386588,0.690855,,,,,,,
1719568252486084784,,,,,,,,,,,,,,,,,,,,,,,,,,,,,,,,,0.0,,,,,,
1719568252486300525,,,,,,,,,,,,,,,,,,,,,,,,,,,,,,,,,,-66.5446,-28.7339,-8.20387,88.4144,93.9666,60.302
1719568252488116276,1719568252.0,488027918.0,,,,,,,,-0.0004010572154294,-0.0015418332479555,-5.773441327683315e-05,0.0015941862868013,0.0001437951754008,0.0004040513394412,0.0005174020227696,0.0006720412119348,,,,,,,,,,,,,,,,,,,,,,
1719568252488123385,1719568252.0,488008708.0,-0.0450271932735066,-0.6356095654089845,1.7787041955922822,9.00364444547833e-05,0.0002084243269325,-2.911381170952276e-05,0.999999973802562,,,,,,,,,,,,,,,,,,,,,,,,,,,,,,
1719568252488128097,1719568252.0,488033641.0,,,,,,,,,,,,,,,,0.0319341273466777,-0.1035071901629436,0.0591830310934682,0.1234348333098564,0.0017175950083341,0.0013238640328655,-0.0002632046698064,0.0021844965755013,,,,,,,,,,,,,,
1719568252490045828,,,,,,,,,,,,,,,,,,,,,,,,,,371.951,-506.5,1729.24,,,,,,,,,,,
1719568252490123131,,,,,,,,,,,,,,,,,,,,,,,,,,,,,0.0642147,0.607571,0.386592,0.690855,,,,,,,
1719568252490209759,,,,,,,,,,,,,,,,,,,,,,,,,,,,,,,,,0.0,,,,,,
1719568252494257829,,,,,,,,,,,,,,,,,,,,,,,,,,371.95,-506.5,1729.24,,,,,,,,,,,
1719568252494339383,,,,,,,,,,,,,,,,,,,,,,,,,,,,,0.064215,0.607572,0.386589,0.690856,,,,,,,
1719568252494638041,,,,,,,,,,,,,,,,,,,,,,,,,,,,,,,,,,-66.5446,-28.7337,-8.20408,88.4146,93.9664,60.302
1719568252495759329,,,,,,,,,,,,,,,,,,,,,,,,,,371.951,-506.501,1729.24,,,,,,,,,,,
1719568252496579710,,,,,,,,,,,,,,,,,,,,,,,,,,371.951,-506.501,1729.24,,,,,,,,,,,
1719568252496636257,,,,,,,,,,,,,,,,,,,,,,,,,,,,,0.0642162,0.60757,0.386589,0.690857,,,,,,,
1719568252498012514,,,,,,,,,,,,,,,,,,,,,,,,,,,,,,,,,0.0,,,,,,
1719568252498074179,1719568252.0,498021751.0,,,,,,,,-0.0003527463150235,0.000286719343987,-0.0004656333631736,0.0006507321829135,0.000834014171049,-0.0007459990414472,0.0012933616618983,0.0017102276444436,,,,,,,,,,,,,,,,,,,,,,
1719568252498080233,1719568252.0,497999666.0,-0.0450301328261318,-0.6356071760811179,1.7787003153142558,9.3510470702642e-05,0.0002053165840486,-2.3723800775666215e-05,0.9999999742690364,,,,,,,,,,,,,,,,,,,,,,,,,,,,,,
1719568252498085476,1719568252.0,498028548.0,,,,,,,,,,,,,,,,0.0057973080487161,0.2194263110331107,-0.0489478739876148,0.2248942176271292,0.0006902227813378,-0.001150049357787,0.0007759577880668,0.0015495584861778,,,,,,,,,,,,,,
1719568252498305494,,,,,,,,,,,,,,,,,,,,,,,,,,,,,,,,,,-66.5446,-28.7337,-8.20395,88.4149,93.9665,60.3016
1719568252500720677,,,,,,,,,,,,,,,,,,,,,,,,,,371.95,-506.498,1729.24,,,,,,,,,,,
1719568252502064053,,,,,,,,,,,,,,,,,,,,,,,,,,,,,0.0642161,0.607567,0.38659,0.690859,,,,,,,
1719568252502106115,,,,,,,,,,,,,,,,,,,,,,,,,,,,,,,,,0.0,,,,,,
1719568252502296564,,,,,,,,,,,,,,,,,,,,,,,,,,,,,,,,,,-66.5445,-28.7339,-8.20387,88.4151,93.9665,60.3015
1719568252506046939,,,,,,,,,,,,,,,,,,,,,,,,,,371.951,-506.501,1729.24,,,,,,,,,,,
1719568252506065623,,,,,,,,,,,,,,,,,,,,,,,,,,,,,0.0642124,0.607569,0.386588,0.690859,,,,,,,
1719568252506116572,,,,,,,,,,,,,,,,,,,,,,,,,,,,,,,,,0.0,,,,,,
1719568252506312121,,,,,,,,,,,,,,,,,,,,,,,,,,,,,,,,,,-66.5446,-28.7337,-8.20387,88.4151,93.9667,60.3019
1719568252507319881,,,,,,,,,,,,,,,,,,,,,,,,,,371.949,-506.497,1729.24,,,,,,,,,,,
1719568252507350906,,,,,,,,,,,,,,,,,,,,,,,,,,,,,0.0642126,0.60757,0.386588,0.690858,,,,,,,
1719568252507404647,,,,,,,,,,,,,,,,,,,,,,,,,,,,,,,,,0.0,,,,,,
1719568252507608222,,,,,,,,,,,,,,,,,,,,,,,,,,,,,,,,,,-66.5446,-28.734,-8.20387,88.4149,93.9667,60.3019
1719568252508115571,1719568252.0,508037055.0,,,,,,,,0.0005287882529181,4.689738736018967e-05,-0.0002731997809579,0.0005970381073942,-0.0039147096314157,0.0002732554301152,0.0016135286191664,0.0042430053774719,,,,,,,,,,,,,,,,,,,,,,
1719568252508129829,1719568252.0,508012145.0,-0.0450257262573575,-0.6356067852695566,1.7786980386494144,7.719777361584386e-05,0.0002064553899877,-1.70042204781595e-05,0.999999975563766,,,,,,,,,,,,,,,,,,,,,,,,,,,,,,
1719568252508134582,1719568252.0,508043005.0,,,,,,,,,,,,,,,,0.1057841481529986,-0.0287786347952234,0.0230920298658787,0.1120345378196342,-0.0047487302903033,0.0010192277679837,0.00032015573875,0.0048674186495645,,,,,,,,,,,,,,
1719568252508160352,1719568252.0,508054043.0,,,,,,,,0.0001996157532152,0.0010399067559063,0.0006111276290887,0.0012225913008634,0.0020984721158658,0.0012308877296962,0.0006642579642155,0.0025218858949617,,,,,,,,,,,,,,,,,,,,,,
1719568252508164743,1719568252.0,508051094.0,-0.0450240627927474,-0.635598119379924,1.7787031313796569,8.594074858918666e-05,0.0002115844510668,-1.4235069781145382e-05,0.9999999738217852,,,,,,,,,,,,,,,,,,,,,,,,,,,,,,
1719568252508168021,1719568252.0,508056936.0,,,,,,,,,,,,,,,,-0.0395006999643454,0.1191611242255419,0.1061192892056084,0.1643806021581373,0.0060131742281537,0.0009576572425083,-0.0009492931216104,0.0061625099694035,,,,,,,,,,,,,,
1719568252508424638,,,,,,,,,,,,,,,,,,,,,,,,,,371.949,-506.497,1729.24,,,,,,,,,,,
1719568252508477283,,,,,,,,,,,,,,,,,,,,,,,,,,,,,0.0642126,0.60757,0.386588,0.690858,,,,,,,
1719568252508531481,,,,,,,,,,,,,,,,,,,,,,,,,,,,,,,,,0.0,,,,,,
1719568252510187742,,,,,,,,,,,,,,,,,,,,,,,,,,,,,,,,,,-66.5446,-28.734,-8.20387,88.4149,93.9667,60.3019
1719568252511581587,,,,,,,,,,,,,,,,,,,,,,,,,,371.95,-506.5,1729.24,,,,,,,,,,,
1719568252511606266,,,,,,,,,,,,,,,,,,,,,,,,,,,,,0.0642138,0.60757,0.386589,0.690858,,,,,,,
1719568252512961426,,,,,,,,,,,,,,,,,,,,,,,,,,,,,,,,,0.0,,,,,,
1719568252513125785,,,,,,,,,,,,,,,,,,,,,,,,,,,,,,,,,,-66.5446,-28.7337,-8.20395,88.4149,93.9666,60.3019
1719568252515745753,,,,,,,,,,,,,,,,,,,,,,,,,,371.95,-506.499,1729.24,,,,,,,,,,,
1719568252517040463,,,,,,,,,,,,,,,,,,,,,,,,,,,,,0.0642112,0.60757,0.386589,0.690858,,,,,,,
1719568252517070027,,,,,,,,,,,,,,,,,,,,,,,,,,,,,,,,,0.0,,,,,,
1719568252518178187,1719568252.0,518097774.0,,,,,,,,0.000279819858181,0.0004522244488081,0.0006465374733988,0.0008371480213446,-0.0003130372828103,6.22550233543999e-05,-0.0038584881802503,0.0038716661872498,,,,,,,,,,,,,,,,,,,,,,
1719568252518186923,1719568252.0,518031632.0,-0.0450217309605959,-0.6355943508428507,1.7787085191919352,8.46398245584077e-05,0.0002118424467237,-3.0312401709041696e-05,0.999999973520018,,,,,,,,,,,,,,,,,,,,,,,,,,,,,,
1719568252518191390,1719568252.0,518107955.0,,,,,,,,,,,,,,,,0.0096244925958943,-0.0705218768517923,0.0042491813172063,0.071302324746773,-0.0024115293598563,-0.0011685998354571,-0.0045227439945394,0.0052570250778384,,,,,,,,,,,,,,
1719568252518313652,,,,,,,,,,,,,,,,,,,,,,,,,,371.949,-506.498,1729.24,,,,,,,,,,,
1719568252518370730,,,,,,,,,,,,,,,,,,,,,,,,,,,,,0.0642136,0.607569,0.386591,0.690857,,,,,,,
1719568252518451221,,,,,,,,,,,,,,,,,,,,,,,,,,,,,,,,,0.0,,,,,,
1719568252518778994,,,,,,,,,,,,,,,,,,,,,,,,,,,,,,,,,,-66.5446,-28.7337,-8.20395,88.4149,93.9669,60.302
1719568252519602993,,,,,,,,,,,,,,,,,,,,,,,,,,371.949,-506.498,1729.24,,,,,,,,,,,
1719568252519663265,,,,,,,,,,,,,,,,,,,,,,,,,,,,,0.0642136,0.607569,0.386591,0.690857,,,,,,,
1719568252519712260,,,,,,,,,,,,,,,,,,,,,,,,,,,,,,,,,0.0,,,,,,
1719568252519881774,,,,,,,,,,,,,,,,,,,,,,,,,,,,,,,,,,-66.5446,-28.7339,-8.20387,88.4149,93.9668,60.3016
1719568252522427646,,,,,,,,,,,,,,,,,,,,,,,,,,371.949,-506.498,1729.24,,,,,,,,,,,
1719568252522448655,,,,,,,,,,,,,,,,,,,,,,,,,,,,,0.0642136,0.607569,0.386591,0.690857,,,,,,,
1719568252524116624,,,,,,,,,,,,,,,,,,,,,,,,,,,,,,,,,,-66.5446,-28.7339,-8.20387,88.4149,93.9668,60.3016
1719568252526872324,,,,,,,,,,,,,,,,,,,,,,,,,,371.95,-506.501,1729.24,,,,,,,,,,,
1719568252526923740,,,,,,,,,,,,,,,,,,,,,,,,,,,,,0.0642149,0.60757,0.38659,0.690857,,,,,,,
1719568252528119158,1719568252.0,528028078.0,,,,,,,,-0.000207823628269,-0.0007312706969297,-0.0004278873544549,0.0008723732462413,-0.0016675281626017,-0.001072028341709,-0.0002819652180373,0.0020023484518634,,,,,,,,,,,,,,,,,,,,,,
1719568252528130425,1719568252.0,528006947.0,-0.0450234628241648,-0.6356004447653251,1.7787049534639814,7.769217501183333e-05,0.0002073753520264,-3.148835057266507e-05,0.9999999749839362,,,,,,,,,,,,,,,,,,,,,,,,,,,,,,
1719568252528137740,1719568252.0,528035207.0,,,,,,,,,,,,,,,,-0.0585172183740101,-0.142019417488548,-0.1289309793424564,0.2005417094377701,-0.0013545081878186,-0.0011342569238251,0.0035765247929362,0.0039890801940548,,,,,,,,,,,,,,
1719568252529029966,,,,,,,,,,,,,,,,,,,,,,,,,,,,,,,,,0.0,,,,,,
1719568252529258537,,,,,,,,,,,,,,,,,,,,,,,,,,,,,,,,,,-66.5446,-28.7337,-8.20395,88.4149,93.9666,60.3017
1719568252530563200,,,,,,,,,,,,,,,,,,,,,,,,,,371.95,-506.501,1729.24,,,,,,,,,,,
1719568252530575739,,,,,,,,,,,,,,,,,,,,,,,,,,,,,0.0642148,0.607569,0.38659,0.690857,,,,,,,
1719568252530877755,,,,,,,,,,,,,,,,,,,,,,,,,,,,,,,,,,-66.5446,-28.7337,-8.20395,88.4149,93.9666,60.3017
1719568252532081224,,,,,,,,,,,,,,,,,,,,,,,,,,371.949,-506.499,1729.24,,,,,,,,,,,
1719568252536176163,,,,,,,,,,,,,,,,,,,,,,,,,,371.949,-506.499,1729.24,,,,,,,,,,,
1719568252536245909,,,,,,,,,,,,,,,,,,,,,,,,,,,,,0.0642148,0.607569,0.38659,0.690857,,,,,,,
1719568252536645717,,,,,,,,,,,,,,,,,,,,,,,,,,,,,,,,,,-66.5446,-28.7339,-8.20387,88.4149,93.9667,60.3015
1719568252538080905,1719568252.0,538009536.0,,,,,,,,-0.0001312178614049,-0.0001485784687682,0.0007824092640973,0.0008071294475352,0.0025709444750139,-0.0004569536452357,-0.0010909808234038,0.0028299825590512,,,,,,,,,,,,,,,,,,,,,,
1719568252538090118,1719568252.0,537998720.0,-0.0450245563063431,-0.6356016829192315,1.7787114735411822,8.840544601430026e-05,0.00020547136268,-3.6031734503177695e-05,0.9999999743338548,,,,,,,,,,,,,,,,,,,,,,,,,,,,,,
1719568252538095414,1719568252.0,538014177.0,,,,,,,,,,,,,,,,0.0091926920236962,0.0699230673793849,0.1452355942262784,0.1614531472862784,0.0042384769738865,0.0006150640957875,-0.0008090009465855,0.0043586091166414,,,,,,,,,,,,,,
1719568252539560458,,,,,,,,,,,,,,,,,,,,,,,,,,371.95,-506.498,1729.24,,,,,,,,,,,
1719568252539615044,,,,,,,,,,,,,,,,,,,,,,,,,,,,,0.0642129,0.607571,0.386588,0.690858,,,,,,,
1719568252540153081,,,,,,,,,,,,,,,,,,,,,,,,,,,,,,,,,,-66.5445,-28.7339,-8.20387,88.4151,93.9668,60.3018
1719568252541059084,,,,,,,,,,,,,,,,,,,,,,,,,,371.949,-506.499,1729.24,,,,,,,,,,,
1719568252541146862,,,,,,,,,,,,,,,,,,,,,,,,,,,,,,,,,0.0,,,,,,
1719568252542328316,,,,,,,,,,,,,,,,,,,,,,,,,,371.949,-506.499,1729.24,,,,,,,,,,,
1719568252542392177,,,,,,,,,,,,,,,,,,,,,,,,,,,,,0.0642129,0.607571,0.386588,0.690858,,,,,,,
1719568252542460088,,,,,,,,,,,,,,,,,,,,,,,,,,,,,,,,,0.0,,,,,,
1719568252542790085,,,,,,,,,,,,,,,,,,,,,,,,,,,,,,,,,,-66.5446,-28.7339,-8.20387,88.4149,93.9667,60.3019
1719568252546103672,,,,,,,,,,,,,,,,,,,,,,,,,,371.951,-506.501,1729.24,,,,,,,,,,,
1719568252546212043,,,,,,,,,,,,,,,,,,,,,,,,,,,,,0.0642149,0.607569,0.386588,0.690859,,,,,,,
1719568252546492870,,,,,,,,,,,,,,,,,,,,,,,,,,,,,,,,,,-66.5445,-28.7337,-8.20395,88.4151,93.9664,60.3018
1719568252548123603,1719568252.0,548023899.0,,,,,,,,-3.155239094165818e-06,3.1715862043313336e-05,-0.0001725032488053,0.0001754229810694,-0.0013180061594881,0.0001279819893127,-0.0018246578644848,0.002254527877065,,,,,,,,,,,,,,,,,,,,,,
1719568252548132242,1719568252.0,548004497.0,-0.0450245826000023,-0.6356014186203811,1.7787100360141088,8.291529675158361e-05,0.0002060037509471,-4.363565093680676e-05,0.9999999743917188,,,,,,,,,,,,,,,,,,,,,,,,,,,,,,
1719568252548137952,1719568252.0,548030031.0,,,,,,,,,,,,,,,,0.0153675146772891,0.0216353196973884,-0.1145895015483233,0.1176222828840611,-0.0038889465785233,0.0005849611720902,-0.000733678179506,0.0040005460545461,,,,,,,,,,,,,,
1719568252550405167,,,,,,,,,,,,,,,,,,,,,,,,,,371.949,-506.498,1729.24,,,,,,,,,,,
1719568252550514005,,,,,,,,,,,,,,,,,,,,,,,,,,,,,0.0642139,0.60757,0.38659,0.690857,,,,,,,
1719568252552169735,,,,,,,,,,,,,,,,,,,,,,,,,,,,,,,,,,-66.5446,-28.7339,-8.20408,88.4149,93.9667,60.3019
1719568252553211171,,,,,,,,,,,,,,,,,,,,,,,,,,371.95,-506.502,1729.24,,,,,,,,,,,
1719568252554461178,,,,,,,,,,,,,,,,,,,,,,,,,,371.95,-506.502,1729.24,,,,,,,,,,,
1719568252554553445,,,,,,,,,,,,,,,,,,,,,,,,,,,,,0.0642149,0.607572,0.38659,0.690856,,,,,,,
1719568252554625477,,,,,,,,,,,,,,,,,,,,,,,,,,,,,,,,,0.0,,,,,,
1719568252554898253,,,,,,,,,,,,,,,,,,,,,,,,,,,,,,,,,,-66.5446,-28.7337,-8.20387,88.4146,93.9666,60.3017
1719568252557900181,,,,,,,,,,,,,,,,,,,,,,,,,,371.951,-506.501,1729.24,,,,,,,,,,,
1719568252558418308,1719568252.0,558265410.0,,,,,,,,0.0004344128970154,0.0008728257422419,0.0001182857473835,0.0009821053199365,0.0021354309090158,0.0003529013866788,0.0018648956134957,0.0028569984608214,,,,,,,,,,,,,,,,,,,,,,
1719568252558448635,1719568252.0,558158273.0,-0.0450209624925271,-0.6355941450725291,1.7787110217286703,9.181126041115674e-05,0.0002074752058781,-3.5863541718928e-05,0.9999999736192688,,,,,,,,,,,,,,,,,,,,,,,,,,,,,,
1719568252558468819,1719568252.0,558298343.0,,,,,,,,,,,,,,,,0.0525081763331547,0.1009331856238304,0.0348946795426741,0.1190052738427764,0.0034534407459912,0.0002249134036744,0.0036895504012092,0.0050586185059053,,,,,,,,,,,,,,
1719568252558525632,1719568252.0,558359140.0,,,,,,,,0.0003688668599524,0.0009380506720457,0.0005061066155498,0.0011278943789203,0.0014350182318744,0.0009529084092466,-0.0011096022422634,0.0020490312096844,,,,,,,,,,,,,,,,,,,,,,
1719568252558543855,1719568252.0,558334604.0,-0.0450178886020275,-0.6355863279835954,1.7787152392838,9.779131971732445e-05,0.0002114454474328,-4.048600825927448e-05,0.9999999720442816,,,,,,,,,,,,,,,,,,,,,,,,,,,,,,
1719568252558561256,1719568252.0,558382754.0,,,,,,,,,,,,,,,,-0.0078655244475589,0.007826991576465,0.0465385041799493,0.0478430835469492,-0.0007004217132139,0.0006000280460189,-0.0029744914870962,0.0031141971419868,,,,,,,,,,,,,,
1719568252559248082,,,,,,,,,,,,,,,,,,,,,,,,,,,,,0.0642155,0.607569,0.38659,0.690857,,,,,,,
1719568252559341629,,,,,,,,,,,,,,,,,,,,,,,,,,,,,,,,,0.0,,,,,,
1719568252563260964,,,,,,,,,,,,,,,,,,,,,,,,,,371.949,-506.498,1729.24,,,,,,,,,,,
1719568252563306019,,,,,,,,,,,,,,,,,,,,,,,,,,,,,0.0642144,0.607571,0.38659,0.690856,,,,,,,
1719568252563377991,,,,,,,,,,,,,,,,,,,,,,,,,,,,,,,,,0.0,,,,,,
1719568252563615081,,,,,,,,,,,,,,,,,,,,,,,,,,,,,,,,,,-66.5446,-28.7339,-8.20408,88.4146,93.9667,60.3019
1719568252565950078,,,,,,,,,,,,,,,,,,,,,,,,,,371.949,-506.499,1729.24,,,,,,,,,,,
1719568252566247832,,,,,,,,,,,,,,,,,,,,,,,,,,,,,0.0642116,0.60757,0.386587,0.690859,,,,,,,
1719568252566321246,,,,,,,,,,,,,,,,,,,,,,,,,,,,,,,,,0.0,,,,,,
1719568252566715684,,,,,,,,,,,,,,,,,,,,,,,,,,,,,,,,,,-66.5446,-28.7339,-8.20387,88.4151,93.9667,60.3021
1719568252567593384,,,,,,,,,,,,,,,,,,,,,,,,,,371.95,-506.502,1729.24,,,,,,,,,,,
1719568252567634593,,,,,,,,,,,,,,,,,,,,,,,,,,,,,0.064217,0.60757,0.38659,0.690857,,,,,,,
1719568252567765540,,,,,,,,,,,,,,,,,,,,,,,,,,,,,,,,,,-66.5446,-28.7337,-8.20387,88.4149,93.9665,60.3014
1719568252568229652,1719568252.0,568117325.0,,,,,,,,-0.000151839833852,0.0002714494898059,-0.0005155636717013,0.0006021179786705,0.0005233060652221,-0.0012098125112798,0.001836376622749,0.0022604810662614,,,,,,,,,,,,,,,,,,,,,,
1719568252568257660,1719568252.0,568040898.0,-0.0450191539339763,-0.6355840659045137,1.778710942919869,9.997034778626872e-05,0.0002064053986352,-3.2833485210679295e-05,0.9999999731623516,,,,,,,,,,,,,,,,,,,,,,,,,,,,,,
1719568252568274321,1719568252.0,568141473.0,,,,,,,,,,,,,,,,-0.0624848032565461,-0.0799921418687787,-0.1226004344701436,0.1591664535353857,-0.0009117104687685,-0.002162734320064,0.0029459695534526,0.0037666128455039,,,,,,,,,,,,,,
1719568252568704128,,,,,,,,,,,,,,,,,,,,,,,,,,371.95,-506.502,1729.24,,,,,,,,,,,
1719568252568770861,,,,,,,,,,,,,,,,,,,,,,,,,,,,,0.064217,0.60757,0.38659,0.690857,,,,,,,
1719568252568874726,,,,,,,,,,,,,,,,,,,,,,,,,,,,,,,,,0.0,,,,,,
1719568252569162502,,,,,,,,,,,,,,,,,,,,,,,,,,,,,,,,,,-66.5446,-28.7337,-8.20387,88.4149,93.9665,60.3014
1719568252570471195,,,,,,,,,,,,,,,,,,,,,,,,,,371.95,-506.502,1729.24,,,,,,,,,,,
1719568252570655492,,,,,,,,,,,,,,,,,,,,,,,,,,,,,,,,,0.0,,,,,,
1719568252570678011,,,,,,,,,,,,,,,,,,,,,,,,,,,,,0.064217,0.60757,0.38659,0.690857,,,,,,,
1719568252570852218,,,,,,,,,,,,,,,,,,,,,,,,,,,,,,,,,,-66.5446,-28.7337,-8.20387,88.4149,93.9665,60.3014
1719568252572215310,,,,,,,,,,,,,,,,,,,,,,,,,,371.949,-506.498,1729.24,,,,,,,,,,,
1719568252572302374,,,,,,,,,,,,,,,,,,,,,,,,,,,,,0.0642114,0.60757,0.386589,0.690858,,,,,,,
1719568252572465772,,,,,,,,,,,,,,,,,,,,,,,,,,,,,,,,,,-66.5446,-28.7339,-8.20387,88.4149,93.9668,60.302
1719568252573480738,,,,,,,,,,,,,,,,,,,,,,,,,,371.949,-506.498,1729.24,,,,,,,,,,,
1719568252573544356,,,,,,,,,,,,,,,,,,,,,,,,,,,,,0.0642114,0.60757,0.386589,0.690858,,,,,,,
1719568252573583918,,,,,,,,,,,,,,,,,,,,,,,,,,,,,,,,,0.0,,,,,,
1719568252573897001,,,,,,,,,,,,,,,,,,,,,,,,,,,,,,,,,,-66.5446,-28.7339,-8.20387,88.4149,93.9668,60.302
1719568252575854046,,,,,,,,,,,,,,,,,,,,,,,,,,371.949,-506.501,1729.24,,,,,,,,,,,
1719568252575908118,,,,,,,,,,,,,,,,,,,,,,,,,,,,,0.0642141,0.607571,0.386588,0.690858,,,,,,,
1719568252575959683,,,,,,,,,,,,,,,,,,,,,,,,,,,,,,,,,0.0,,,,,,
1719568252576277831,,,,,,,,,,,,,,,,,,,,,,,,,,,,,,,,,,-66.5447,-28.7337,-8.20387,88.4149,93.9666,60.3019
1719568252577265996,,,,,,,,,,,,,,,,,,,,,,,,,,371.949,-506.501,1729.24,,,,,,,,,,,
1719568252578185906,1719568252.0,578107501.0,,,,,,,,0.0001858574220783,-0.0019036196938104,-0.0006455625093693,0.0020186782491293,-0.0004760883526745,0.0010718272523763,-0.0016173894307147,0.0019978544364083,,,,,,,,,,,,,,,,,,,,,,
1719568252578210042,1719568252.0,578046428.0,-0.0450176051221256,-0.6355999294019621,1.778705563232291,9.798789072527992e-05,0.0002108706065488,-3.95734635655356e-05,0.9999999721829504,,,,,,,,,,,,,,,,,,,,,,,,,,,,,,
1719568252578260757,1719568252.0,578133433.0,,,,,,,,,,,,,,,,0.0405236707116563,-0.2610083020339715,-0.0155998605201546,0.2645956486166239,-0.0009993944659822,0.0022816396474568,-0.0034537661163135,0.0042583059032529,,,,,,,,,,,,,,
1719568252579065130,,,,,,,,,,,,,,,,,,,,,,,,,,,,,0.0642141,0.607571,0.386588,0.690858,,,,,,,
1719568252579122560,,,,,,,,,,,,,,,,,,,,,,,,,,,,,,,,,0.0,,,,,,
1719568252579433216,,,,,,,,,,,,,,,,,,,,,,,,,,,,,,,,,,-66.5447,-28.7337,-8.20387,88.4149,93.9666,60.3019
1719568252583218836,,,,,,,,,,,,,,,,,,,,,,,,,,371.95,-506.502,1729.24,,,,,,,,,,,
1719568252583288363,,,,,,,,,,,,,,,,,,,,,,,,,,,,,,,,,0.0,,,,,,
1719568252584242865,,,,,,,,,,,,,,,,,,,,,,,,,,371.95,-506.5,1729.24,,,,,,,,,,,
1719568252584318401,,,,,,,,,,,,,,,,,,,,,,,,,,,,,0.0642155,0.607569,0.38659,0.690857,,,,,,,
1719568252584404968,,,,,,,,,,,,,,,,,,,,,,,,,,,,,,,,,0.0,,,,,,
1719568252584651057,,,,,,,,,,,,,,,,,,,,,,,,,,,,,,,,,,-66.5446,-28.7337,-8.20387,88.4149,93.9666,60.3015
1719568252585573224,,,,,,,,,,,,,,,,,,,,,,,,,,371.95,-506.5,1729.24,,,,,,,,,,,
1719568252587218003,,,,,,,,,,,,,,,,,,,,,,,,,,,,,,,,,,-66.5446,-28.7337,-8.20387,88.4149,93.9666,60.3015
1719568252588171136,1719568252.0,588097695.0,,,,,,,,-8.850897104728528e-05,-0.0004685931157899,3.723455828996691e-05,0.0004783301772339,0.0014918263198801,0.0004063919724962,-0.0009311838733023,0.0018049386720592,,,,,,,,,,,,,,,,,,,,,,
1719568252588198237,1719568252.0,588041527.0,-0.0450183426968844,-0.6356038343445937,1.7787058735202768,0.000104204584703,0.0002125637721811,-4.345225142509149e-05,0.9999999710349744,,,,,,,,,,,,,,,,,,,,,,,,,,,,,,
1719568252588214627,1719568252.0,588113156.0,,,,,,,,,,,,,,,,-0.0329239671750802,0.1722031893624631,0.0819356481191135,0.1935235811828866,0.0019679132526049,-0.0006654471806557,0.000686198088821,0.002187777488028,,,,,,,,,,,,,,
1719568252589640057,,,,,,,,,,,,,,,,,,,,,,,,,,371.949,-506.499,1729.24,,,,,,,,,,,
1719568252589730074,,,,,,,,,,,,,,,,,,,,,,,,,,,,,0.064212,0.607573,0.38659,0.690855,,,,,,,
1719568252591011576,,,,,,,,,,,,,,,,,,,,,,,,,,,,,,,,,0.0,,,,,,
1719568252591173699,,,,,,,,,,,,,,,,,,,,,,,,,,,,,,,,,,-66.5446,-28.7339,-8.20387,88.4144,93.9668,60.3019
1719568252593820169,,,,,,,,,,,,,,,,,,,,,,,,,,371.95,-506.501,1729.24,,,,,,,,,,,
1719568252595054741,,,,,,,,,,,,,,,,,,,,,,,,,,,,,0.064215,0.607569,0.386587,0.690859,,,,,,,
1719568252595102726,,,,,,,,,,,,,,,,,,,,,,,,,,,,,,,,,0.0,,,,,,
1719568252595300609,,,,,,,,,,,,,,,,,,,,,,,,,,,,,,,,,,-66.5446,-28.7337,-8.20387,88.4151,93.9664,60.3018
1719568252596260542,,,,,,,,,,,,,,,,,,,,,,,,,,371.95,-506.498,1729.24,,,,,,,,,,,
1719568252596357753,,,,,,,,,,,,,,,,,,,,,,,,,,,,,0.0642142,0.607568,0.386589,0.690859,,,,,,,
1719568252596408962,,,,,,,,,,,,,,,,,,,,,,,,,,,,,,,,,0.0,,,,,,
1719568252596665031,,,,,,,,,,,,,,,,,,,,,,,,,,,,,,,,,,-66.5445,-28.7339,-8.20395,88.4151,93.9666,60.3017
1719568252597676652,,,,,,,,,,,,,,,,,,,,,,,,,,371.95,-506.498,1729.24,,,,,,,,,,,
1719568252598132131,1719568252.0,598026397.0,,,,,,,,0.0001697549374352,0.000371791543845,0.0003002380331018,0.0005071376217351,-0.0008763894421402,-0.0006588288164135,0.0006357371358108,0.0012673892730652,,,,,,,,,,,,,,,,,,,,,,
1719568252598155973,1719568252.0,598005589.0,-0.0450169280724057,-0.6356007360817283,1.778708375503886,0.0001005525183522,0.000209818769546,-4.080383691727205e-05,0.9999999721001606,,,,,,,,,,,,,,,,,,,,,,,,,,,,,,
1719568252598173582,1719568252.0,598033788.0,,,,,,,,,,,,,,,,0.030991669017899,0.1008461591561982,0.0315604169774275,0.1101203490952574,-0.0023682172417376,-0.0010652213402806,0.0015669183978599,0.0030328835575084,,,,,,,,,,,,,,
1719568252601502858,,,,,,,,,,,,,,,,,,,,,,,,,,371.949,-506.502,1729.24,,,,,,,,,,,
1719568252601547312,,,,,,,,,,,,,,,,,,,,,,,,,,,,,0.0642145,0.60757,0.386586,0.690859,,,,,,,
1719568252602164479,,,,,,,,,,,,,,,,,,,,,,,,,,,,,,,,,,-66.5447,-28.7337,-8.20395,88.4151,93.9665,60.302
1719568252604749401,,,,,,,,,,,,,,,,,,,,,,,,,,371.95,-506.5,1729.24,,,,,,,,,,,
1719568252604810916,,,,,,,,,,,,,,,,,,,,,,,,,,,,,0.0642149,0.607568,0.386589,0.690859,,,,,,,
1719568252605107316,,,,,,,,,,,,,,,,,,,,,,,,,,,,,,,,,0.0,,,,,,
1719568252605364324,,,,,,,,,,,,,,,,,,,,,,,,,,,,,,,,,,-66.5446,-28.7337,-8.20387,88.4151,93.9667,60.3016
1719568252606322273,,,,,,,,,,,,,,,,,,,,,,,,,,371.95,-506.5,1729.24,,,,,,,,,,,
1719568252606800848,,,,,,,,,,,,,,,,,,,,,,,,,,,,,,,,,,-66.5446,-28.7337,-8.20387,88.4151,93.9667,60.3016
1719568252607637769,,,,,,,,,,,,,,,,,,,,,,,,,,371.949,-506.499,1729.24,,,,,,,,,,,
1719568252607707928,,,,,,,,,,,,,,,,,,,,,,,,,,,,,0.0642142,0.607571,0.38659,0.690856,,,,,,,
1719568252607959100,,,,,,,,,,,,,,,,,,,,,,,,,,,,,,,,,,-66.5446,-28.7339,-8.20387,88.4146,93.9667,60.3017
1719568252608114900,1719568252.0,608014655.0,,,,,,,,-0.0004724602637651,0.0017074557690666,0.0009605034797921,0.0020152396479944,0.0030528929231687,-0.0003424949999089,0.0022200448551326,0.0037902581949119,,,,,,,,,,,,,,,,,,,,,,
1719568252608137279,1719568252.0,608001797.0,-0.0450208652412704,-0.6355865072836527,1.7787163796995509,0.0001132710225309,0.0002083931562303,-3.155083780354651e-05,0.999999971373256,,,,,,,,,,,,,,,,,,,,,,,,,,,,,,
1719568252608151954,1719568252.0,608020181.0,,,,,,,,,,,,,,,,-0.0770658241440402,0.1602797070265893,0.0792318536028346,0.1946956916854363,0.0039292771781782,0.0003163500100435,0.0015843173505836,0.0042484535938583,,,,,,,,,,,,,,
1719568252608194001,1719568252.0,608036894.0,,,,,,,,-0.0001637442085247,0.0011019913753651,8.161363374448172e-05,0.0011170756207247,-0.0025879221458776,0.0009796260141293,0.0022750198720969,0.0035822791040228,,,,,,,,,,,,,,,,,,,,,,
1719568252608210725,1719568252.0,608031969.0,-0.0450222297763415,-0.6355773240221914,1.7787170598131654,0.0001024859096921,0.0002124756646603,-2.2074298056774688e-05,0.9999999719317274,,,,,,,,,,,,,,,,,,,,,,,,,,,,,,
1719568252608225528,1719568252.0,608043319.0,,,,,,,,,,,,,,,,0.0370459266288425,-0.0726557272441752,-0.1054667815257204,0.133321031298755,-0.0056408273770277,0.0013220681360586,5.498378503661112e-05,0.0057939469164313,,,,,,,,,,,,,,
1719568252611333406,,,,,,,,,,,,,,,,,,,,,,,,,,371.949,-506.499,1729.24,,,,,,,,,,,
1719568252611353944,,,,,,,,,,,,,,,,,,,,,,,,,,,,,0.0642142,0.607571,0.38659,0.690856,,,,,,,
1719568252613189421,,,,,,,,,,,,,,,,,,,,,,,,,,,,,,,,,,-66.5446,-28.7339,-8.20387,88.4146,93.9667,60.3017
1719568252615028629,,,,,,,,,,,,,,,,,,,,,,,,,,371.949,-506.499,1729.24,,,,,,,,,,,
1719568252615055779,,,,,,,,,,,,,,,,,,,,,,,,,,,,,0.0642131,0.607569,0.386588,0.690859,,,,,,,
1719568252617094539,,,,,,,,,,,,,,,,,,,,,,,,,,,,,,,,,0.0,,,,,,
1719568252617316372,,,,,,,,,,,,,,,,,,,,,,,,,,,,,,,,,,-66.5446,-28.7339,-8.20387,88.4151,93.9666,60.3019
1719568252618172973,1719568252.0,618022640.0,,,,,,,,-8.151551694063341e-05,-0.0007175530778491,-0.0002709777645204,0.0007713340054071,-0.0014818343527479,-0.0003550899970306,0.0021807958192214,0.0026604120658478,,,,,,,,,,,,,,,,,,,,,,
1719568252618200909,1719568252.0,618008303.0,-0.045022909072316,-0.6355833036311734,1.7787148016651275,9.630970202418783e-05,0.0002109969179944,-1.29888093223019e-05,0.999999973018016,,,,,,,,,,,,,,,,,,,,,,,,,,,,,,
1719568252618216673,1719568252.0,618027712.0,,,,,,,,,,,,,,,,0.0098674429900968,-0.2183453343857166,-0.0423109677917921,0.2226258508678884,0.0011061000605843,-0.0013347065421648,-9.421417548656784e-05,0.0017360228133826,,,,,,,,,,,,,,
1719568252618233239,,,,,,,,,,,,,,,,,,,,,,,,,,371.95,-506.5,1729.24,,,,,,,,,,,
1719568252618806231,,,,,,,,,,,,,,,,,,,,,,,,,,,,,,,,,,-66.5446,-28.7337,-8.20408,88.4149,93.9666,60.3017
1719568252619650821,,,,,,,,,,,,,,,,,,,,,,,,,,371.95,-506.5,1729.24,,,,,,,,,,,
1719568252619675159,,,,,,,,,,,,,,,,,,,,,,,,,,,,,0.0642124,0.607569,0.386588,0.690859,,,,,,,
1719568252619722295,,,,,,,,,,,,,,,,,,,,,,,,,,,,,,,,,0.0,,,,,,
1719568252619951997,,,,,,,,,,,,,,,,,,,,,,,,,,,,,,,,,,-66.5446,-28.7337,-8.20387,88.4151,93.9667,60.3019
1719568252625168645,,,,,,,,,,,,,,,,,,,,,,,,,,371.949,-506.499,1729.24,,,,,,,,,,,
1719568252625215123,,,,,,,,,,,,,,,,,,,,,,,,,,,,,0.0642136,0.607571,0.386588,0.690858,,,,,,,
1719568252625404404,,,,,,,,,,,,,,,,,,,,,,,,,,,,,,,,,,-66.5446,-28.7339,-8.20387,88.4149,93.9666,60.3019
1719568252628198066,1719568252.0,628012973.0,,,,,,,,-0.0001517613238552,-0.0011457753250576,-0.00041858582704,0.0012292463908948,-0.0031262051716417,0.0001625431988483,0.0002082660468667,0.0031373482135346,,,,,,,,,,,,,,,,,,,,,,
1719568252628223613,1719568252.0,628000290.0,-0.0450241737500148,-0.6355928517588822,1.7787113134499024,8.328365559121656e-05,0.0002116740956715,-1.2123847791616524e-05,0.9999999740554608,,,,,,,,,,,,,,,,,,,,,,,,,,,,,,
1719568252628237694,1719568252.0,628017526.0,,,,,,,,,,,,,,,,-0.0084294968297538,-0.0513866696650211,-0.0177129675023479,0.0550035949170967,-0.0016443726039137,0.0005176060750062,-0.0019725354011244,0.0026196895270383,,,,,,,,,,,,,,
1719568252629344036,,,,,,,,,,,,,,,,,,,,,,,,,,371.95,-506.498,1729.24,,,,,,,,,,,
1719568252629371414,,,,,,,,,,,,,,,,,,,,,,,,,,,,,0.0642153,0.607572,0.386589,0.690856,,,,,,,
1719568252631267921,,,,,,,,,,,,,,,,,,,,,,,,,,,,,,,,,,-66.5445,-28.7339,-8.20395,88.4146,93.9664,60.3017
1719568252632143665,,,,,,,,,,,,,,,,,,,,,,,,,,371.948,-506.5,1729.24,,,,,,,,,,,
1719568252632207303,,,,,,,,,,,,,,,,,,,,,,,,,,,,,,,,,0.0,,,,,,
1719568252632420752,,,,,,,,,,,,,,,,,,,,,,,,,,,,,,,,,,-66.5447,-28.7339,-8.20387,88.4146,93.9667,60.3019
1719568252633239655,,,,,,,,,,,,,,,,,,,,,,,,,,371.948,-506.5,1729.24,,,,,,,,,,,
1719568252633295952,,,,,,,,,,,,,,,,,,,,,,,,,,,,,0.0642136,0.607572,0.386588,0.690856,,,,,,,
1719568252633488713,,,,,,,,,,,,,,,,,,,,,,,,,,,,,,,,,,-66.5447,-28.7339,-8.20387,88.4146,93.9667,60.3019
1719568252635833576,,,,,,,,,,,,,,,,,,,,,,,,,,371.949,-506.498,1729.24,,,,,,,,,,,
1719568252637051737,,,,,,,,,,,,,,,,,,,,,,,,,,,,,,,,,0.0,,,,,,
1719568252637075179,,,,,,,,,,,,,,,,,,,,,,,,,,,,,0.0642144,0.607569,0.386591,0.690857,,,,,,,
1719568252637253869,,,,,,,,,,,,,,,,,,,,,,,,,,,,,,,,,,-66.5446,-28.7339,-8.20395,88.4149,93.9668,60.3016
1719568252638195198,1719568252.0,638026557.0,,,,,,,,-1.644158757724279e-05,-0.000630753291877,-0.0012080751093357,0.001362925350418,-0.0018171740160565,0.0007683505517208,-0.0013621537760582,0.0023974876192777,,,,,,,,,,,,,,,,,,,,,,
1719568252638220212,1719568252.0,638004900.0,-0.0450243107632446,-0.6355981080363146,1.7787012461573246,7.571325995549037e-05,0.0002148749917254,-1.780135770936305e-05,0.9999999738896758,,,,,,,,,,,,,,,,,,,,,,,,,,,,,,
1719568252638234690,1719568252.0,638031738.0,,,,,,,,,,,,,,,,0.0162383683533606,0.0618026439816787,-0.0947387138754862,0.114274561109141,0.0013090295662506,0.0006057880326988,-0.0015704286005077,0.0021323188164934,,,,,,,,,,,,,,
1719568252641323705,,,,,,,,,,,,,,,,,,,,,,,,,,371.949,-506.501,1729.24,,,,,,,,,,,
1719568252641579682,,,,,,,,,,,,,,,,,,,,,,,,,,,,,,,,,,-66.5447,-28.7337,-8.20395,88.4146,93.9667,60.3019
1719568252643994376,,,,,,,,,,,,,,,,,,,,,,,,,,371.95,-506.501,1729.24,,,,,,,,,,,
1719568252644027858,,,,,,,,,,,,,,,,,,,,,,,,,,,,,0.0642149,0.607572,0.38659,0.690856,,,,,,,
1719568252644090914,,,,,,,,,,,,,,,,,,,,,,,,,,,,,,,,,0.0,,,,,,
1719568252644380086,,,,,,,,,,,,,,,,,,,,,,,,,,,,,,,,,,-66.5446,-28.7337,-8.20387,88.4146,93.9666,60.3017
1719568252645467204,,,,,,,,,,,,,,,,,,,,,,,,,,371.95,-506.501,1729.24,,,,,,,,,,,
1719568252648331189,1719568252.0,648044853.0,,,,,,,,0.0003157048151752,-0.0008009117030116,-0.0002151456029597,0.0008873650414676,0.0012357645863807,-0.0013119305301953,0.0007361528849054,0.001946842802839,,,,,,,,,,,,,,,,,,,,,,
1719568252648363098,1719568252.0,648010735.0,-0.0450216798897848,-0.6356047823005063,1.7786994532773,8.086171715050192e-05,0.0002094089385471,-1.4732533829116112e-05,0.9999999746961156,,,,,,,,,,,,,,,,,,,,,,,,,,,,,,
1719568252648370606,1719568252.0,648051932.0,,,,,,,,,,,,,,,,0.0398575683303037,-0.0204190093361589,0.1191515407651166,0.1272896357217516,0.0030529335131496,-0.0020802825218382,0.0020983126380679,0.004248634408072,,,,,,,,,,,,,,
1719568252648423271,,,,,,,,,,,,,,,,,,,,,,,,,,371.949,-506.499,1729.24,,,,,,,,,,,
1719568252650318944,,,,,,,,,,,,,,,,,,,,,,,,,,,,,,,,,0.0,,,,,,
1719568252652917738,,,,,,,,,,,,,,,,,,,,,,,,,,371.952,-506.5,1729.24,,,,,,,,,,,
1719568252654084075,,,,,,,,,,,,,,,,,,,,,,,,,,,,,,,,,0.0,,,,,,
1719568252654096461,,,,,,,,,,,,,,,,,,,,,,,,,,,,,0.0642155,0.60757,0.386589,0.690858,,,,,,,
1719568252654383005,,,,,,,,,,,,,,,,,,,,,,,,,,,,,,,,,,-66.5445,-28.7337,-8.20387,88.4149,93.9664,60.3016
1719568252656040849,,,,,,,,,,,,,,,,,,,,,,,,,,371.95,-506.5,1729.24,,,,,,,,,,,
1719568252656187013,,,,,,,,,,,,,,,,,,,,,,,,,,,,,0.0642125,0.60757,0.38659,0.690858,,,,,,,
1719568252657233893,,,,,,,,,,,,,,,,,,,,,,,,,,371.95,-506.5,1729.24,,,,,,,,,,,
1719568252657409976,,,,,,,,,,,,,,,,,,,,,,,,,,,,,0.0642125,0.60757,0.38659,0.690858,,,,,,,
1719568252658273805,1719568252.0,658098045.0,,,,,,,,6.462477447677362e-05,0.0005895994869398,-8.78803445480969e-05,0.0005996055965664,0.0026224900802708,0.0004764447962873,-0.0004942727009581,0.0027108595256746,,,,,,,,,,,,,,,,,,,,,,
1719568252658281719,1719568252.0,658038932.0,-0.0450211413499975,-0.6355998689714485,1.7786987209410954,9.178916089425408e-05,0.0002113941195854,-1.6789875668680075e-05,0.9999999733026878,,,,,,,,,,,,,,,,,,,,,,,,,,,,,,
1719568252658289485,1719568252.0,658109281.0,,,,,,,,,,,,,,,,-0.0301296048838217,0.1668613427941778,0.0152718310094002,0.170246085511271,0.0013867267343472,0.0017883859153862,-0.001230408797062,0.0025758961597845,,,,,,,,,,,,,,
1719568252658309426,1719568252.0,658125235.0,,,,,,,,0.00012691033826,0.0011296604001165,0.0003324650628133,0.0011843867069248,0.0019202392804151,-0.0014922502317218,-0.0025619847143855,0.0035324064495565,,,,,,,,,,,,,,,,,,,,,,
1719568252658313619,1719568252.0,658121232.0,-0.0450200837638453,-0.6355904551347809,1.7787014914832855,9.979251868547665e-05,0.0002051755649222,-2.7462549609387677e-05,0.9999999735951244,,,,,,,,,,,,,,,,,,,,,,,,,,,,,,
1719568252658317984,1719568252.0,658129077.0,,,,,,,,,,,,,,,,0.0074742676539951,0.0648073095812051,0.0504414488833759,0.0824632755690189,-0.0007022589589871,-0.0019686709876073,-0.0020677321312016,0.0029401274239951,,,,,,,,,,,,,,
1719568252659510031,,,,,,,,,,,,,,,,,,,,,,,,,,371.95,-506.5,1729.24,,,,,,,,,,,
1719568252659523139,,,,,,,,,,,,,,,,,,,,,,,,,,,,,0.0642172,0.607568,0.386593,0.690857,,,,,,,
1719568252659648316,,,,,,,,,,,,,,,,,,,,,,,,,,,,,,,,,0.0,,,,,,
1719568252660135682,,,,,,,,,,,,,,,,,,,,,,,,,,,,,,,,,,-66.5446,-28.7337,-8.20387,88.4149,93.9668,60.3018
1719568252663038197,,,,,,,,,,,,,,,,,,,,,,,,,,371.951,-506.5,1729.24,,,,,,,,,,,
1719568252663045008,,,,,,,,,,,,,,,,,,,,,,,,,,,,,0.0642172,0.607568,0.386593,0.690857,,,,,,,
1719568252663989485,,,,,,,,,,,,,,,,,,,,,,,,,,,,,,,,,0.0,,,,,,
1719568252664113276,,,,,,,,,,,,,,,,,,,,,,,,,,,,,,,,,,-66.5445,-28.7337,-8.20387,88.4149,93.9666,60.3011
1719568252667010187,,,,,,,,,,,,,,,,,,,,,,,,,,371.951,-506.503,1729.24,,,,,,,,,,,
1719568252667019539,,,,,,,,,,,,,,,,,,,,,,,,,,,,,0.0642138,0.607568,0.386589,0.690859,,,,,,,
1719568252667126151,,,,,,,,,,,,,,,,,,,,,,,,,,,,,,,,,0.0,,,,,,
1719568252667343259,,,,,,,,,,,,,,,,,,,,,,,,,,,,,,,,,,-66.5446,-28.7335,-8.20387,88.4151,93.9667,60.3017
1719568252668192322,1719568252.0,668074862.0,,,,,,,,-0.0001026820075208,-0.0001159058898325,0.0008307901743354,0.0008450976770401,0.0043305709805432,0.0015978489470582,0.0005996264579655,0.0046547307295084,,,,,,,,,,,,,,,,,,,,,,
1719568252668201240,1719568252.0,668027836.0,-0.0450209394472413,-0.6355914210171961,1.7787084147347385,0.0001178358684842,0.000211834013515,-2.4961068287258857e-05,0.9999999703090016,,,,,,,,,,,,,,,,,,,,,,,,,,,,,,
1719568252668206886,1719568252.0,668083365.0,,,,,,,,,,,,,,,,-0.0275510814937152,-0.1494679547938915,0.0597990133826442,0.1633268306288951,0.0024103450286275,0.00309004815222,0.0031616508825222,0.0050352951296842,,,,,,,,,,,,,,
1719568252668225686,,,,,,,,,,,,,,,,,,,,,,,,,,371.949,-506.499,1729.24,,,,,,,,,,,
1719568252668334746,,,,,,,,,,,,,,,,,,,,,,,,,,,,,0.0642136,0.607571,0.386588,0.690858,,,,,,,
1719568252668360377,,,,,,,,,,,,,,,,,,,,,,,,,,,,,,,,,0.0,,,,,,
1719568252668601424,,,,,,,,,,,,,,,,,,,,,,,,,,,,,,,,,,-66.5446,-28.7339,-8.20387,88.4149,93.9666,60.3019
1719568252671379204,,,,,,,,,,,,,,,,,,,,,,,,,,371.949,-506.499,1729.24,,,,,,,,,,,
1719568252671387059,,,,,,,,,,,,,,,,,,,,,,,,,,,,,0.0642136,0.607571,0.386588,0.690858,,,,,,,
1719568252671443469,,,,,,,,,,,,,,,,,,,,,,,,,,,,,,,,,0.0,,,,,,
1719568252673195394,,,,,,,,,,,,,,,,,,,,,,,,,,,,,,,,,,-66.5446,-28.7339,-8.20387,88.4149,93.9666,60.3019
1719568252674570633,,,,,,,,,,,,,,,,,,,,,,,,,,371.95,-506.5,1729.24,,,,,,,,,,,
1719568252674582320,,,,,,,,,,,,,,,,,,,,,,,,,,,,,0.0642125,0.60757,0.38659,0.690858,,,,,,,
1719568252676163702,,,,,,,,,,,,,,,,,,,,,,,,,,,,,,,,,0.0,,,,,,
1719568252676525273,,,,,,,,,,,,,,,,,,,,,,,,,,,,,,,,,,-66.5446,-28.7337,-8.20387,88.4149,93.9668,60.3018
1719568252678105304,1719568252.0,678026903.0,,,,,,,,-8.071399844822302e-05,-0.0002593419582819,0.0004335767487173,0.0005116266196156,0.0007430755249945,0.0008278501106283,-0.0010344393058718,0.0015190660680319,,,,,,,,,,,,,,,,,,,,,,
1719568252678115667,1719568252.0,678006982.0,-0.0450216120638951,-0.6355935822001818,1.778712027874311,0.0001209328433499,0.0002152829582605,-2.927098252391469e-05,0.999999969085852,,,,,,,,,,,,,,,,,,,,,,,,,,,,,,
1719568252678122150,1719568252.0,678033512.0,,,,,,,,,,,,,,,,0.0026361610887204,-0.0172123282139224,-0.0476656110741657,0.0507466655742336,-0.00358750441083,-0.0007699783144924,-0.0016340557730742,0.0040166145909248,,,,,,,,,,,,,,
1719568252678801681,,,,,,,,,,,,,,,,,,,,,,,,,,371.95,-506.5,1729.24,,,,,,,,,,,
1719568252678899746,,,,,,,,,,,,,,,,,,,,,,,,,,,,,0.0642118,0.60757,0.38659,0.690858,,,,,,,
1719568252679177285,,,,,,,,,,,,,,,,,,,,,,,,,,,,,,,,,0.0,,,,,,
1719568252679483519,,,,,,,,,,,,,,,,,,,,,,,,,,,,,,,,,,-66.5446,-28.7337,-8.20387,88.4149,93.9669,60.3018
1719568252680531727,,,,,,,,,,,,,,,,,,,,,,,,,,371.949,-506.498,1729.24,,,,,,,,,,,
1719568252680769915,,,,,,,,,,,,,,,,,,,,,,,,,,,,,,,,,,-66.5446,-28.7339,-8.20395,88.4146,93.967,60.3019
1719568252683212645,,,,,,,,,,,,,,,,,,,,,,,,,,371.949,-506.498,1729.24,,,,,,,,,,,
1719568252683284502,,,,,,,,,,,,,,,,,,,,,,,,,,,,,0.0642113,0.607571,0.386591,0.690856,,,,,,,
1719568252683498482,,,,,,,,,,,,,,,,,,,,,,,,,,,,,,,,,,-66.5446,-28.7339,-8.20395,88.4146,93.967,60.3019
1719568252687587682,,,,,,,,,,,,,,,,,,,,,,,,,,371.95,-506.5,1729.24,,,,,,,,,,,
1719568252688098608,1719568252.0,688038085.0,,,,,,,,0.0003827663050831,-0.0009158382347296,0.0007582848291409,0.0012491059196901,-0.0020334730384054,-0.0019046267032977,-0.0019894300799635,0.0034235139140801,,,,,,,,,,,,,,,,,,,,,,
1719568252688105923,1719568252.0,688014881.0,-0.045018422344686,-0.6356012141854712,1.7787183469145538,0.0001124620561094,0.0002073457634322,-3.756113859828254e-05,0.9999999714745902,,,,,,,,,,,,,,,,,,,,,,,,,,,,,,
1719568252688110893,1719568252.0,688044644.0,,,,,,,,,,,,,,,,0.0556176364237659,-0.0787795531737245,0.0389649696508342,0.1040086935765868,-0.0027765636348833,-0.0027324618896889,-0.0009549896569351,0.0040109423882688,,,,,,,,,,,,,,
1719568252689374716,,,,,,,,,,,,,,,,,,,,,,,,,,,,,,,,,,-66.5446,-28.7337,-8.20387,88.4149,93.9666,60.3019
1719568252692001281,,,,,,,,,,,,,,,,,,,,,,,,,,371.95,-506.501,1729.24,,,,,,,,,,,
1719568252692238309,,,,,,,,,,,,,,,,,,,,,,,,,,,,,,,,,,-66.5448,-28.7339,-8.20395,88.4149,93.9667,60.3015
1719568252693140835,,,,,,,,,,,,,,,,,,,,,,,,,,371.95,-506.501,1729.24,,,,,,,,,,,
1719568252693315848,,,,,,,,,,,,,,,,,,,,,,,,,,,,,,,,,,-66.5446,-28.7337,-8.20387,88.4144,93.9666,60.3017
1719568252694057586,,,,,,,,,,,,,,,,,,,,,,,,,,371.95,-506.501,1729.24,,,,,,,,,,,
1719568252696347786,,,,,,,,,,,,,,,,,,,,,,,,,,,,,0.0642143,0.607573,0.38659,0.690855,,,,,,,
1719568252696584299,,,,,,,,,,,,,,,,,,,,,,,,,,,,,,,,,,-66.5446,-28.7337,-8.20387,88.4144,93.9666,60.3017
1719568252698107258,1719568252.0,698018479.0,,,,,,,,0.0003662476290444,0.0001895088950698,0.000278546743484,0.0004976336357169,-0.0007180353250408,0.0016933772091227,-0.0010661668791291,0.0021259851632913,,,,,,,,,,,,,,,,,,,,,,
1719568252698115613,1719568252.0,697987411.0,-0.0450153702811107,-0.635599634944679,1.778720668137416,0.0001094708984194,0.0002144008896209,-4.20049143091744e-05,0.9999999701419836,,,,,,,,,,,,,,,,,,,,,,,,,,,,,,
1719568252698120369,1719568252.0,698024860.0,,,,,,,,,,,,,,,,-0.0019822411246428,0.132641655575938,-0.057568570278832,0.1446093992717997,0.0013154602112968,0.0035980008308294,0.0009232431549104,0.0039406120678447,,,,,,,,,,,,,,
1719568252700188989,,,,,,,,,,,,,,,,,,,,,,,,,,371.949,-506.499,1729.24,,,,,,,,,,,
1719568252700236581,,,,,,,,,,,,,,,,,,,,,,,,,,,,,,,,,0.0,,,,,,
1719568252700436846,,,,,,,,,,,,,,,,,,,,,,,,,,,,,,,,,,-66.5446,-28.7339,-8.20387,88.4146,93.9666,60.3022
1719568252704628555,,,,,,,,,,,,,,,,,,,,,,,,,,371.95,-506.501,1729.24,,,,,,,,,,,
1719568252704900839,,,,,,,,,,,,,,,,,,,,,,,,,,,,,,,,,,-66.5446,-28.7337,-8.20387,88.4149,93.9664,60.3014
1719568252705875332,,,,,,,,,,,,,,,,,,,,,,,,,,371.95,-506.5,1729.24,,,,,,,,,,,
1719568252706888240,,,,,,,,,,,,,,,,,,,,,,,,,,371.95,-506.5,1729.24,,,,,,,,,,,
1719568252708097888,1719568252.0,708039143.0,,,,,,,,5.601675786559568e-06,0.000984208942838,-0.0001760763865377,0.0009998507467767,-0.0040995357682061,-0.0002562787901544,-0.0005007395132471,0.0041379478480536,,,,,,,,,,,,,,,,,,,,,,
1719568252708109682,1719568252.0,708012330.0,-0.0450153236004791,-0.6355914332034887,1.778719200834195,9.238999206300768e-05,0.0002133321154243,-4.409487425008763e-05,0.9999999720045696,,,,,,,,,,,,,,,,,,,,,,,,,,,,,,
1719568252708140076,1719568252.0,708065326.0,,,,,,,,-3.033439534561033e-06,-9.348120942664906e-05,-0.0015036057361594,0.0015065119143514,-0.0012696612867262,0.0003106871656967,0.0007939381884418,0.0015293476207214,,,,,,,,,,,,,,,,,,,,,,
1719568252708146899,1719568252.0,708058637.0,-0.0450153488791419,-0.6355922122135672,1.7787066707863937,8.709897404697493e-05,0.0002146267176007,-4.078804673962215e-05,0.9999999723427376,,,,,,,,,,,,,,,,,,,,,,,,,,,,,,
1719568252708154985,1719568252.0,708046096.0,,,,,,,,,,,,,,,,-0.0432775143909491,0.0953640057321791,-0.054554775602611,0.1180824304551577,-0.0033815051146398,-0.0019496392855658,0.0005654570577697,0.0039440349730116,,,,,,,,,,,,,,
1719568252708180927,1719568252.0,708070370.0,,,,,,,,,,,,,,,,-0.0010362138385344,-0.1293228182717598,-0.1593035219546124,0.2051903437591873,0.0028298742819054,0.0005669821664163,0.0012946710388164,0.0031631993815082,,,,,,,,,,,,,,
1719568252708315671,,,,,,,,,,,,,,,,,,,,,,,,,,,,,,,,,0.0,,,,,,
1719568252711052045,,,,,,,,,,,,,,,,,,,,,,,,,,371.949,-506.499,1729.24,,,,,,,,,,,
1719568252712379261,,,,,,,,,,,,,,,,,,,,,,,,,,,,,0.0642167,0.60757,0.386589,0.690857,,,,,,,
1719568252712711320,,,,,,,,,,,,,,,,,,,,,,,,,,,,,,,,,,-66.5446,-28.7339,-8.20408,88.4149,93.9664,60.3018
1719568252715252521,,,,,,,,,,,,,,,,,,,,,,,,,,371.95,-506.499,1729.24,,,,,,,,,,,
1719568252715762239,,,,,,,,,,,,,,,,,,,,,,,,,,,,,0.0642144,0.60757,0.386589,0.690858,,,,,,,
1719568252716022559,,,,,,,,,,,,,,,,,,,,,,,,,,,,,,,,,,-66.5446,-28.7339,-8.20387,88.4149,93.9666,60.3017
1719568252716867044,,,,,,,,,,,,,,,,,,,,,,,,,,371.949,-506.497,1729.24,,,,,,,,,,,
1719568252717923450,,,,,,,,,,,,,,,,,,,,,,,,,,371.949,-506.497,1729.24,,,,,,,,,,,
1719568252718076566,1719568252.0,718039134.0,,,,,,,,-0.0008745190865466,-0.000138253505324,-0.0013535612715998,0.0016174132992045,-0.0027799786965338,-0.0006233836787902,0.0032864333020098,0.004349428998469,,,,,,,,,,,,,,,,,,,,,,
1719568252718083541,1719568252.0,718011799.0,-0.0450226365381965,-0.6355933643261116,1.7786953911091303,7.551289674398598e-05,0.000212030005872,-2.7096834860788855e-05,0.99999997430342,,,,,,,,,,,,,,,,,,,,,,,,,,,,,,
1719568252718089049,1719568252.0,718045453.0,,,,,,,,,,,,,,,,-0.1045782776414538,-0.0053726755076866,0.0180053357471621,0.1062528771936644,-0.0015103110932705,-0.0009340626547212,0.002492502010149,0.0030604050241753,,,,,,,,,,,,,,
1719568252718262253,,,,,,,,,,,,,,,,,,,,,,,,,,,,,,,,,,-66.5446,-28.7339,-8.20408,88.4149,93.9668,60.3018
1719568252721185268,,,,,,,,,,,,,,,,,,,,,,,,,,371.952,-506.502,1729.24,,,,,,,,,,,
1719568252722414376,,,,,,,,,,,,,,,,,,,,,,,,,,,,,,,,,0.0,,,,,,
1719568252725249502,,,,,,,,,,,,,,,,,,,,,,,,,,371.951,-506.502,1729.24,,,,,,,,,,,
1719568252725259774,,,,,,,,,,,,,,,,,,,,,,,,,,,,,0.0642163,0.60757,0.386589,0.690858,,,,,,,
1719568252726414961,,,,,,,,,,,,,,,,,,,,,,,,,,371.951,-506.502,1729.24,,,,,,,,,,,
1719568252726718418,,,,,,,,,,,,,,,,,,,,,,,,,,,,,,,,,,-66.5446,-28.7337,-8.20387,88.4149,93.9664,60.3016
1719568252727801559,,,,,,,,,,,,,,,,,,,,,,,,,,371.951,-506.502,1729.24,,,,,,,,,,,
1719568252728086813,1719568252.0,728036044.0,,,,,,,,-8.870017636136707e-05,-0.0002712786528746,-0.0001012557957746,0.0003028408244771,0.0023529147178459,-0.0008333243953659,-0.0015365819036867,0.0029311637900509,,,,,,,,,,,,,,,,,,,,,,
1719568252728096156,1719568252.0,728009755.0,-0.0450233757063328,-0.6355956249815522,1.7786945473108322,8.531815940189259e-05,0.0002085576031514,-3.349691839586475e-05,0.999999974051247,,,,,,,,,,,,,,,,,,,,,,,,,,,,,,
1719568252728103615,1719568252.0,728042722.0,,,,,,,,,,,,,,,,0.0942982692222371,-0.0159630177060776,0.1502766570990132,0.1781293215095383,0.0051329088165842,-0.0002099262955608,-0.0048229994415377,0.0070464278597038,,,,,,,,,,,,,,
1719568252729559014,,,,,,,,,,,,,,,,,,,,,,,,,,,,,,,,,,-66.5446,-28.7337,-8.20387,88.4149,93.9664,60.3016
1719568252730694791,,,,,,,,,,,,,,,,,,,,,,,,,,371.95,-506.499,1729.24,,,,,,,,,,,
1719568252732310293,,,,,,,,,,,,,,,,,,,,,,,,,,,,,,,,,0.0,,,,,,
1719568252734862938,,,,,,,,,,,,,,,,,,,,,,,,,,371.949,-506.499,1729.24,,,,,,,,,,,
1719568252736255577,,,,,,,,,,,,,,,,,,,,,,,,,,,,,0.0642136,0.607571,0.386588,0.690858,,,,,,,
1719568252736533693,,,,,,,,,,,,,,,,,,,,,,,,,,,,,,,,,,-66.5446,-28.7339,-8.20387,88.4149,93.9666,60.3019
1719568252737507689,,,,,,,,,,,,,,,,,,,,,,,,,,371.95,-506.5,1729.24,,,,,,,,,,,
1719568252738093594,1719568252.0,738025004.0,,,,,,,,-0.0001097349022582,-0.0013774755222994,0.0005373122851981,0.0014826277533935,0.0018055024657851,-0.0014377725386297,0.0043865672832686,0.0049567127773794,,,,,,,,,,,,,,,,,,,,,,
1719568252738101377,1719568252.0,738007250.0,-0.0450242901638516,-0.635607103944238,1.7786990249132089,9.283747491618422e-05,0.0002025686957377,-1.5217475103286702e-05,0.9999999750577772,,,,,,,,,,,,,,,,,,,,,,,,,,,,,,
1719568252738109548,1719568252.0,738030629.0,,,,,,,,,,,,,,,,-0.0025241671076314,-0.1327436243309776,0.0766281697167414,0.153294219115558,-0.0005474366880234,-0.0006045027079868,0.005923141359951,0.0059790228316439,,,,,,,,,,,,,,
1719568252738464308,,,,,,,,,,,,,,,,,,,,,,,,,,371.95,-506.5,1729.24,,,,,,,,,,,
1719568252738722872,,,,,,,,,,,,,,,,,,,,,,,,,,,,,,,,,,-66.5446,-28.7337,-8.20395,88.4146,93.9666,60.3018
1719568252742399050,,,,,,,,,,,,,,,,,,,,,,,,,,371.949,-506.499,1729.24,,,,,,,,,,,
1719568252744447624,,,,,,,,,,,,,,,,,,,,,,,,,,,,,,,,,,-66.5446,-28.7339,-8.20395,88.4144,93.9666,60.3015
1719568252746899652,,,,,,,,,,,,,,,,,,,,,,,,,,371.95,-506.501,1729.24,,,,,,,,,,,
1719568252748110751,1719568252.0,748032361.0,,,,,,,,-2.703808843318445e-05,0.0002052853227674,0.0003797339498312,0.0004325170454725,-0.0013654322671106,-0.0008989575886231,0.0009432225267943,0.0018873788059799,,,,,,,,,,,,,,,,,,,,,,
1719568252748121224,1719568252.0,748012807.0,-0.0450245154812552,-0.635605393233215,1.7787021893627908,8.714743482776357e-05,0.0001988233174889,-1.1288186076242448e-05,0.9999999763735948,,,,,,,,,,,,,,,,,,,,,,,,,,,,,,
1719568252748127054,1719568252.0,748037659.0,,,,,,,,,,,,,,,,0.0099236176590133,0.1899313014080306,-0.018909400244027,0.191128079725558,-0.0031709239526162,0.0005387828977993,-0.003443359699172,0.0047118756076661,,,,,,,,,,,,,,
1719568252748357708,,,,,,,,,,,,,,,,,,,,,,,,,,,,,,,,,0.0,,,,,,
1719568252749502439,,,,,,,,,,,,,,,,,,,,,,,,,,371.951,-506.498,1729.24,,,,,,,,,,,
1719568252749574808,,,,,,,,,,,,,,,,,,,,,,,,,,,,,,,,,0.0,,,,,,
1719568252750592488,,,,,,,,,,,,,,,,,,,,,,,,,,371.951,-506.498,1729.24,,,,,,,,,,,
1719568252750605615,,,,,,,,,,,,,,,,,,,,,,,,,,,,,0.0642102,0.607572,0.386588,0.690856,,,,,,,
1719568252754323188,,,,,,,,,,,,,,,,,,,,,,,,,,371.951,-506.501,1729.24,,,,,,,,,,,
1719568252754478435,,,,,,,,,,,,,,,,,,,,,,,,,,,,,,,,,,-66.5446,-28.7337,-8.20387,88.4151,93.9667,60.3017
1719568252758239630,1719568252.0,758007423.0,,,,,,,,0.0001915204796396,0.0006933717415957,0.0011831001402562,0.0013846192285387,0.0023666729075463,0.0021179752673682,-0.000772189083369,0.0032685219694797,,,,,,,,,,,,,,,,,,,,,,
1719568252758255319,1719568252.0,757985767.0,-0.0450229194772582,-0.6355996151353683,1.7787120485306265,9.700911178907152e-05,0.0002076480451305,-1.450444895625315e-05,0.9999999736305712,,,,,,,,,,,,,,,,,,,,,,,,,,,,,,
1719568252758263062,1719568252.0,758014806.0,,,,,,,,,,,,,,,,0.0262270281687349,0.0585703702594031,0.0964039428509977,0.1158104722212357,0.0037320997431639,0.0030169377640249,-0.0017154147952023,0.0050963840008896,,,,,,,,,,,,,,
1719568252758297994,1719568252.0,758041229.0,,,,,,,,3.327937976277395e-05,0.0008419095901768,0.0002699712850073,0.0008847619848736,0.0009624710509744,-0.001290348938781,0.0004921207262874,0.0016833103448321,,,,,,,,,,,,,,,,,,,,,,
1719568252758311981,1719568252.0,758035550.0,-0.0450226421490935,-0.6355925992221169,1.7787142982913349,0.0001010190599261,0.0002022718484402,-1.2452591688633372e-05,0.9999999743630906,,,,,,,,,,,,,,,,,,,,,,,,,,,,,,
1719568252758318757,1719568252.0,758046294.0,,,,,,,,,,,,,,,,-0.0189889319852198,0.0178245418297251,-0.1095754626298628,0.1126280419785738,-0.0014042016653236,-0.0034083321556279,0.0012642885916038,0.0038970419606215,,,,,,,,,,,,,,
1719568252758808013,,,,,,,,,,,,,,,,,,,,,,,,,,371.951,-506.502,1729.24,,,,,,,,,,,
1719568252758821679,,,,,,,,,,,,,,,,,,,,,,,,,,,,,,,,,0.0,,,,,,
1719568252760658538,,,,,,,,,,,,,,,,,,,,,,,,,,,,,,,,,,-66.5446,-28.7337,-8.20387,88.4151,93.9664,60.3018
1719568252761804553,,,,,,,,,,,,,,,,,,,,,,,,,,371.951,-506.503,1729.24,,,,,,,,,,,
1719568252762436376,,,,,,,,,,,,,,,,,,,,,,,,,,371.951,-506.503,1729.24,,,,,,,,,,,
1719568252762540773,,,,,,,,,,,,,,,,,,,,,,,,,,,,,,,,,0.0,,,,,,
1719568252765167950,,,,,,,,,,,,,,,,,,,,,,,,,,371.949,-506.499,1729.24,,,,,,,,,,,
1719568252766243727,,,,,,,,,,,,,,,,,,,,,,,,,,,,,0.0642134,0.60757,0.386589,0.690858,,,,,,,
1719568252766500067,,,,,,,,,,,,,,,,,,,,,,,,,,,,,,,,,,-66.5446,-28.7339,-8.20395,88.4149,93.9667,60.3019
1719568252768100477,1719568252.0,768033207.0,,,,,,,,1.6096226365946986e-05,-0.0006699096129958,-0.0005080607384133,0.0008409302539477,-0.0016956111054793,0.0005775444082184,-0.0010615854880761,0.0020822147614938,,,,,,,,,,,,,,,,,,,,,,
1719568252768111758,1719568252.0,768018416.0,-0.0450225080138738,-0.6355981818022252,1.778710064451848,9.395487856799498e-05,0.0002046777485921,-1.6877536597467833e-05,0.9999999744973244,,,,,,,,,,,,,,,,,,,,,,,,,,,,,,
1719568252768119467,1719568252.0,768037620.0,,,,,,,,,,,,,,,,-0.0020619784076192,-0.1814183043807204,-0.0933638428104899,0.2040432798787333,-0.0026580776331375,0.0018678941274053,-0.0015537130146107,0.0036011705467462,,,,,,,,,,,,,,
1719568252770196496,,,,,,,,,,,,,,,,,,,,,,,,,,371.95,-506.502,1729.24,,,,,,,,,,,
1719568252770246576,,,,,,,,,,,,,,,,,,,,,,,,,,,,,,,,,0.0,,,,,,
1719568252773173910,,,,,,,,,,,,,,,,,,,,,,,,,,371.95,-506.501,1729.24,,,,,,,,,,,
1719568252773268556,,,,,,,,,,,,,,,,,,,,,,,,,,,,,,,,,0.0,,,,,,
1719568252774374022,,,,,,,,,,,,,,,,,,,,,,,,,,371.95,-506.501,1729.24,,,,,,,,,,,
1719568252774746059,,,,,,,,,,,,,,,,,,,,,,,,,,,,,,,,,,-66.5446,-28.7337,-8.20387,88.4151,93.9664,60.3014
1719568252776922550,,,,,,,,,,,,,,,,,,,,,,,,,,371.948,-506.5,1729.24,,,,,,,,,,,
1719568252777035804,,,,,,,,,,,,,,,,,,,,,,,,,,,,,0.0642161,0.607571,0.386587,0.690857,,,,,,,
1719568252777273374,,,,,,,,,,,,,,,,,,,,,,,,,,,,,,,,,,-66.5448,-28.7339,-8.20395,88.4149,93.9665,60.3018
1719568252778093515,1719568252.0,778034168.0,,,,,,,,6.669407194015431e-05,-0.0005347401047828,-0.0011742525310776,0.0012920000331413,-0.0001800504931775,0.0003006249949946,-0.0027210493139251,0.0027435201724284,,,,,,,,,,,,,,,,,,,,,,
1719568252778111172,1719568252.0,778007893.0,-0.045021952229941,-0.635602637969765,1.778700279014089,9.32069676279234e-05,0.0002059292747981,-2.821551302130823e-05,0.9999999740547396,,,,,,,,,,,,,,,,,,,,,,,,,,,,,,
1719568252778124922,1719568252.0,778042276.0,,,,,,,,,,,,,,,,0.0060717414689048,0.0162203409855621,-0.07994301511971,0.0817976232697705,0.0015155553939208,-0.0002769378411276,-0.0016594655164443,0.0022643825913831,,,,,,,,,,,,,,
1719568252780279033,,,,,,,,,,,,,,,,,,,,,,,,,,371.948,-506.5,1729.24,,,,,,,,,,,
1719568252781261262,,,,,,,,,,,,,,,,,,,,,,,,,,,,,0.0642161,0.607571,0.386587,0.690857,,,,,,,
1719568252784284545,,,,,,,,,,,,,,,,,,,,,,,,,,371.95,-506.499,1729.24,,,,,,,,,,,
1719568252784396520,,,,,,,,,,,,,,,,,,,,,,,,,,,,,,,,,0.0,,,,,,
1719568252785533331,,,,,,,,,,,,,,,,,,,,,,,,,,371.949,-506.498,1729.24,,,,,,,,,,,
1719568252785625336,,,,,,,,,,,,,,,,,,,,,,,,,,,,,0.0642142,0.60757,0.38659,0.690857,,,,,,,
1719568252787819310,,,,,,,,,,,,,,,,,,,,,,,,,,371.949,-506.498,1729.24,,,,,,,,,,,
1719568252788060866,1719568252.0,788016756.0,,,,,,,,0.0001221758226346,-0.0007070917594509,-0.00029490267889,0.0007758049226038,-0.0009234600055779,0.000557422348793,-0.0012117219067417,0.0016222724913262,,,,,,,,,,,,,,,,,,,,,,
1719568252788073153,1719568252.0,787989465.0,-0.0450209340980857,-0.6356085304010938,1.7786978214917648,8.936019187347913e-05,0.0002082512886997,-3.326536301395614e-05,0.999999973769786,,,,,,,,,,,,,,,,,,,,,,,,,,,,,,
1719568252788078767,1719568252.0,788026341.0,,,,,,,,,,,,,,,,0.0066578100833436,-0.0206821985601735,0.1055219822625019,0.1077356417950721,-0.0007434047102647,0.0002568069146444,0.0015093281457087,0.0017019611646808,,,,,,,,,,,,,,
1719568252789197188,,,,,,,,,,,,,,,,,,,,,,,,,,,,,,,,,0.0,,,,,,
1719568252789700590,,,,,,,,,,,,,,,,,,,,,,,,,,,,,,,,,,-66.5446,-28.7339,-8.20395,88.4149,93.9667,60.3017
1719568252792852571,,,,,,,,,,,,,,,,,,,,,,,,,,371.95,-506.501,1729.24,,,,,,,,,,,
1719568252794244905,,,,,,,,,,,,,,,,,,,,,,,,,,,,,0.0642163,0.60757,0.386589,0.690858,,,,,,,
1719568252794542773,,,,,,,,,,,,,,,,,,,,,,,,,,,,,,,,,,-66.5446,-28.7337,-8.20387,88.4149,93.9664,60.3016
1719568252797205946,,,,,,,,,,,,,,,,,,,,,,,,,,371.951,-506.499,1729.24,,,,,,,,,,,
1719568252797324524,,,,,,,,,,,,,,,,,,,,,,,,,,,,,0.0642154,0.607569,0.38659,0.690858,,,,,,,
1719568252798123086,1719568252.0,798038210.0,,,,,,,,0.0002857249545104,-0.0003842867878978,-0.0005256140160181,0.0007110451313507,-0.0003679168230477,0.0025558228049592,-0.0008639278466001,0.0027228595856493,,,,,,,,,,,,,,,,,,,,,,
1719568252798133431,1719568252.0,798009314.0,-0.0450185530567981,-0.6356117327909929,1.7786934413749649,8.782760053574774e-05,0.0002189001774289,-3.68663331446878e-05,0.9999999715049488,,,,,,,,,,,,,,,,,,,,,,,,,,,,,,
1719568252798139714,1719568252.0,798047621.0,,,,,,,,,,,,,,,,0.0196258958250927,0.038736596586375,-0.027685360455365,0.0514993095640752,0.000555554079878,0.0019983989894938,0.0003477850804509,0.0021031389205336,,,,,,,,,,,,,,
1719568252798413778,,,,,,,,,,,,,,,,,,,,,,,,,,371.951,-506.499,1729.24,,,,,,,,,,,
1719568252798551710,,,,,,,,,,,,,,,,,,,,,,,,,,,,,0.0642154,0.607569,0.38659,0.690858,,,,,,,
1719568252801501635,,,,,,,,,,,,,,,,,,,,,,,,,,371.951,-506.499,1729.24,,,,,,,,,,,
1719568252801589846,,,,,,,,,,,,,,,,,,,,,,,,,,,,,,,,,0.0,,,,,,
1719568252803365884,,,,,,,,,,,,,,,,,,,,,,,,,,,,,,,,,,-66.5445,-28.7337,-8.20395,88.4149,93.9665,60.3016
1719568252805841409,,,,,,,,,,,,,,,,,,,,,,,,,,371.951,-506.502,1729.24,,,,,,,,,,,
1719568252807180059,,,,,,,,,,,,,,,,,,,,,,,,,,,,,,,,,0.0,,,,,,
1719568252808130265,1719568252.0,808044112.0,,,,,,,,0.0002861278118954,-0.000449839235288,1.4667818106772756e-05,0.0005333287984279,0.0007923365451014,-0.0001633757254124,0.0001793980530332,0.0008286570399082,,,,,,,,,,,,,,,,,,,,,,
1719568252808139525,1719568252.0,808020931.0,-0.0450161686583657,-0.635615481451287,1.7786935636067822,9.11288641823929e-05,0.0002182196326188,-3.611805881351317e-05,0.9999999713856036,,,,,,,,,,,,,,,,,,,,,,,,,,,,,,
1719568252808145659,1719568252.0,808051573.0,,,,,,,,,,,,,,,,4.834288619415261e-05,-0.0078662936868312,0.0648338200949893,0.0653093036367069,0.0011602546904728,-0.0027192011075266,0.0010433177122811,0.0031350849204922,,,,,,,,,,,,,,
1719568252808169030,1719568252.0,808072109.0,,,,,,,,2.4427568712792613e-05,0.0007020624968578,-0.0001391016689566,0.0007161268951199,1.5794586180056143e-05,-0.0006060651236072,0.001312538341637,0.0014457943495784,,,,,,,,,,,,,,,,,,,,,,
1719568252808176687,1719568252.0,808065917.0,-0.0450159650952931,-0.6356096309304798,1.7786924044262076,9.119357273902716e-05,0.0002156948620912,-3.064890472624637e-05,0.9999999721100512,,,,,,,,,,,,,,,,,,,,,,,,,,,,,,
1719568252808182661,1719568252.0,808076624.0,,,,,,,,,,,,,,,,-0.0314040291819139,0.1382282078575158,-0.0184523384476165,0.1429466309170821,-0.0007765423993686,-0.0004426937196042,0.0011331382984856,0.0014432595854138,,,,,,,,,,,,,,
1719568252809962619,,,,,,,,,,,,,,,,,,,,,,,,,,371.951,-506.498,1729.24,,,,,,,,,,,
1719568252810089007,,,,,,,,,,,,,,,,,,,,,,,,,,,,,,,,,0.0,,,,,,
1719568252811112702,,,,,,,,,,,,,,,,,,,,,,,,,,371.951,-506.498,1729.24,,,,,,,,,,,
1719568252811215901,,,,,,,,,,,,,,,,,,,,,,,,,,,,,,,,,0.0,,,,,,
1719568252814355600,,,,,,,,,,,,,,,,,,,,,,,,,,371.951,-506.498,1729.24,,,,,,,,,,,
1719568252814435701,,,,,,,,,,,,,,,,,,,,,,,,,,,,,,,,,0.0,,,,,,
1719568252818128087,1719568252.0,818033511.0,,,,,,,,-0.0002417536562779,0.0002233026323583,0.0011199473443834,0.0011673007110995,-2.8185886353815883e-05,-0.000860362385893,0.0005217068530779,0.0010065763358025,,,,,,,,,,,,,,,,,,,,,,
1719568252818138537,1719568252.0,818009495.0,-0.0450179797090954,-0.6356077700752102,1.778701737320744,9.107577254701444e-05,0.0002121102135499,-2.847482464891448e-05,0.9999999729518224,,,,,,,,,,,,,,,,,,,,,,,,,,,,,,
1719568252818146387,1719568252.0,818040508.0,,,,,,,,,,,,,,,,-0.0319417469988869,-0.0574511837399427,0.1510858816008209,0.164766068513996,-4.397708474025331e-05,-0.0002542974507571,-0.0007908316163503,0.0008318748841401,,,,,,,,,,,,,,
1719568252819597521,,,,,,,,,,,,,,,,,,,,,,,,,,371.948,-506.499,1729.24,,,,,,,,,,,
1719568252819693730,,,,,,,,,,,,,,,,,,,,,,,,,,,,,,,,,0.0,,,,,,
1719568252821611288,,,,,,,,,,,,,,,,,,,,,,,,,,,,,,,,,,-66.5447,-28.7339,-8.20387,88.4149,93.9667,60.3019
1719568252822735136,,,,,,,,,,,,,,,,,,,,,,,,,,371.952,-506.502,1729.24,,,,,,,,,,,
1719568252822961368,,,,,,,,,,,,,,,,,,,,,,,,,,,,,,,,,,-66.5445,-28.7335,-8.20395,88.4149,93.9666,60.3019
1719568252823827705,,,,,,,,,,,,,,,,,,,,,,,,,,371.952,-506.502,1729.24,,,,,,,,,,,
1719568252823993789,,,,,,,,,,,,,,,,,,,,,,,,,,,,,,,,,,-66.5445,-28.7335,-8.20395,88.4149,93.9666,60.3019
1719568252825351369,,,,,,,,,,,,,,,,,,,,,,,,,,371.95,-506.498,1729.24,,,,,,,,,,,
1719568252827225068,,,,,,,,,,,,,,,,,,,,,,,,,,,,,0.0642116,0.607571,0.38659,0.690856,,,,,,,
1719568252828110564,1719568252.0,828038347.0,,,,,,,,-0.0005739388141212,-4.134431485169898e-05,0.0005768714765341,0.0008147980210851,0.0018040072104696,-0.0008765120335292,0.0007469297744135,0.0021402381755901,,,,,,,,,,,,,,,,,,,,,,
1719568252828117317,1719568252.0,828021356.0,-0.0450227625325464,-0.6356081146111673,1.7787065445830486,9.859191291315592e-05,0.0002084585776506,-2.5360690349591167e-05,0.9999999730907454,,,,,,,,,,,,,,,,,,,,,,,,,,,,,,
1719568252828121715,1719568252.0,828043387.0,,,,,,,,,,,,,,,,-0.0398622189412001,-0.0317576336652081,-0.0651691041419155,0.082731831416871,0.0018321923245173,-1.6145638421264353e-05,0.0002252294913654,0.0018460546360932,,,,,,,,,,,,,,
1719568252831273058,,,,,,,,,,,,,,,,,,,,,,,,,,371.951,-506.499,1729.24,,,,,,,,,,,
1719568252831454891,,,,,,,,,,,,,,,,,,,,,,,,,,,,,,,,,0.0,,,,,,
1719568252834544971,,,,,,,,,,,,,,,,,,,,,,,,,,371.949,-506.498,1729.24,,,,,,,,,,,
1719568252834614840,,,,,,,,,,,,,,,,,,,,,,,,,,,,,,,,,0.0,,,,,,
1719568252835731491,,,,,,,,,,,,,,,,,,,,,,,,,,371.949,-506.498,1729.24,,,,,,,,,,,
1719568252836015593,,,,,,,,,,,,,,,,,,,,,,,,,,,,,,,,,,-66.5446,-28.7339,-8.20387,88.4149,93.9668,60.3018
1719568252837105384,,,,,,,,,,,,,,,,,,,,,,,,,,371.95,-506.501,1729.24,,,,,,,,,,,
1719568252838115873,1719568252.0,838037994.0,,,,,,,,-0.0001560294986996,-0.0005059355489223,-4.037884895780053e-05,0.0005309862856712,-0.0016768873735035,-0.0010551605179314,0.0005782761590422,0.0020639085004266,,,,,,,,,,,,,,,,,,,,,,
1719568252838126783,1719568252.0,838010336.0,-0.0450240627783689,-0.6356123307407416,1.7787062080926406,9.160449159540415e-05,0.0002040621359629,-2.2952229464439782e-05,0.9999999747202284,,,,,,,,,,,,,,,,,,,,,,,,,,,,,,
1719568252838137722,1719568252.0,838045219.0,,,,,,,,,,,,,,,,0.0501491178505952,-0.0557509480884732,-0.0740700390590376,0.105401484430552,-0.0034808934119811,-0.0001786580499452,-0.0001686676709079,0.003489553900944,,,,,,,,,,,,,,
1719568252838292155,,,,,,,,,,,,,,,,,,,,,,,,,,,,,,,,,0.0,,,,,,
1719568252841750743,,,,,,,,,,,,,,,,,,,,,,,,,,371.95,-506.501,1729.24,,,,,,,,,,,
1719568252842278251,,,,,,,,,,,,,,,,,,,,,,,,,,,,,0.064213,0.607571,0.38659,0.690856,,,,,,,
1719568252842672998,,,,,,,,,,,,,,,,,,,,,,,,,,,,,,,,,,-66.5446,-28.7337,-8.20387,88.4146,93.9668,60.3018
1719568252847458205,,,,,,,,,,,,,,,,,,,,,,,,,,371.949,-506.498,1729.24,,,,,,,,,,,
1719568252847530224,,,,,,,,,,,,,,,,,,,,,,,,,,,,,,,,,0.0,,,,,,
1719568252848119089,1719568252.0,848009823.0,,,,,,,,-0.0002647469961958,0.0010522621789643,0.000770503570866,0.0013307976623029,0.0009527871501167,-0.0001823608852662,0.0012579956893557,0.0015885880524353,,,,,,,,,,,,,,,,,,,,,,
1719568252848129149,1719568252.0,847986032.0,-0.0450262690033372,-0.6356035618892503,1.7787126289557311,9.557338576975186e-05,0.0002033028702334,-1.770970117059592e-05,0.9999999746100184,,,,,,,,,,,,,,,,,,,,,,,,,,,,,,
1719568252848134690,1719568252.0,848016538.0,,,,,,,,,,,,,,,,-0.0130460996995429,0.1869837273464014,0.0973058903788626,0.2111907936254491,0.0026296694321974,0.0008728107180375,0.0006797249933854,0.0028528908038668,,,,,,,,,,,,,,
1719568252848903094,,,,,,,,,,,,,,,,,,,,,,,,,,371.949,-506.498,1729.24,,,,,,,,,,,
1719568252848972236,,,,,,,,,,,,,,,,,,,,,,,,,,,,,,,,,0.0,,,,,,
1719568252850057976,,,,,,,,,,,,,,,,,,,,,,,,,,371.95,-506.498,1729.24,,,,,,,,,,,
1719568252852158322,,,,,,,,,,,,,,,,,,,,,,,,,,,,,,,,,0.0,,,,,,
1719568252854967998,,,,,,,,,,,,,,,,,,,,,,,,,,371.951,-506.499,1729.24,,,,,,,,,,,
1719568252856265560,,,,,,,,,,,,,,,,,,,,,,,,,,,,,0.0642122,0.607571,0.386591,0.690856,,,,,,,
1719568252856636691,,,,,,,,,,,,,,,,,,,,,,,,,,,,,,,,,,-66.5445,-28.7337,-8.20387,88.4146,93.9668,60.3018
1719568252858105091,1719568252.0,858020333.0,,,,,,,,0.0001734681710416,0.0009343748326529,-0.000830832161629,0.0012623112195718,-0.0029998630876725,-2.9440467047103712e-05,-0.0002126689246417,0.0030075360941123,,,,,,,,,,,,,,,,,,,,,,
1719568252858115438,1719568252.0,858005222.0,-0.0450248234352452,-0.6355957754323115,1.7787057053543842,8.307413887123566e-05,0.0002031798955572,-1.8598351112069727e-05,0.9999999757353591,,,,,,,,,,,,,,,,,,,,,,,,,,,,,,
1719568252858121197,1719568252.0,858026374.0,,,,,,,,,,,,,,,,0.0525858200684958,-0.0141464815573755,-0.1921602878994122,0.199727233141388,-0.0039526499218566,0.0001529055382686,-0.0014706670102392,0.0042201520071429,,,,,,,,,,,,,,
1719568252858146876,1719568252.0,858043097.0,,,,,,,,0.0004909548884451,-0.0007426337531724,-0.0014461806190446,0.0016982284819009,-0.005067328464024,-0.0009421985270124,-0.0003790901855167,0.0051681007338641,,,,,,,,,,,,,,,,,,,,,,
1719568252858153581,1719568252.0,858037306.0,-0.0450207321445081,-0.6356019640469213,1.7786936538492255,6.196066471100736e-05,0.0001992535445075,-2.018185728786459e-05,0.9999999780257968,,,,,,,,,,,,,,,,,,,,,,,,,,,,,,
1719568252858159458,1719568252.0,858047907.0,,,,,,,,,,,,,,,,0.038098406088427,-0.2012410302990375,-0.0738418148898745,0.2177201287169547,-0.0020674661647657,-0.000912758307987,-0.0001664101055312,0.0022661059980666,,,,,,,,,,,,,,
1719568252860229746,,,,,,,,,,,,,,,,,,,,,,,,,,371.949,-506.498,1729.24,,,,,,,,,,,
1719568252860298659,,,,,,,,,,,,,,,,,,,,,,,,,,,,,,,,,0.0,,,,,,
1719568252860867733,,,,,,,,,,,,,,,,,,,,,,,,,,,,,,,,,,-66.5446,-28.7339,-8.20395,88.4146,93.9669,60.3018
1719568252861897619,,,,,,,,,,,,,,,,,,,,,,,,,,371.951,-506.501,1729.24,,,,,,,,,,,
1719568252862898087,,,,,,,,,,,,,,,,,,,,,,,,,,371.951,-506.501,1729.24,,,,,,,,,,,
1719568252862988052,,,,,,,,,,,,,,,,,,,,,,,,,,,,,,,,,0.0,,,,,,
1719568252865018076,,,,,,,,,,,,,,,,,,,,,,,,,,,,,,,,,,-66.5446,-28.7337,-8.20395,88.4149,93.9665,60.3016
1719568252867732045,,,,,,,,,,,,,,,,,,,,,,,,,,371.95,-506.5,1729.24,,,,,,,,,,,
1719568252868218718,1719568252.0,868054016.0,,,,,,,,0.0002508976082785,-0.000900822351153,-0.0006518060464166,0.00113986036001,0.0019387623201089,0.0009409024340721,-0.0021937807656569,0.0030751862987603,,,,,,,,,,,,,,,,,,,,,,
1719568252868243458,1719568252.0,868021713.0,-0.0450186413311058,-0.6356094708998475,1.778688222132172,7.004058306795418e-05,0.0002031735678789,-2.9321243582317496e-05,0.9999999764775412,,,,,,,,,,,,,,,,,,,,,,,,,,,,,,
1719568252868254990,1719568252.0,868061308.0,,,,,,,,,,,,,,,,-0.028806873620002,-0.0189826317576802,0.0953249487153584,0.1013756485739656,0.0070061008825561,0.001883051579439,-0.0018147028347701,0.0074782671258724,,,,,,,,,,,,,,
1719568252869024602,,,,,,,,,,,,,,,,,,,,,,,,,,,,,,,,,0.0,,,,,,
1719568252869138054,,,,,,,,,,,,,,,,,,,,,,,,,,,,,,,,,,-66.5446,-28.7337,-8.20387,88.4151,93.9667,60.3019
1719568252871680734,,,,,,,,,,,,,,,,,,,,,,,,,,371.95,-506.499,1729.24,,,,,,,,,,,
1719568252872942909,,,,,,,,,,,,,,,,,,,,,,,,,,,,,0.0642144,0.607569,0.386587,0.690859,,,,,,,
1719568252872985383,,,,,,,,,,,,,,,,,,,,,,,,,,,,,,,,,0.0,,,,,,
1719568252873147023,,,,,,,,,,,,,,,,,,,,,,,,,,,,,,,,,,-66.5446,-28.7339,-8.20387,88.4151,93.9665,60.3018
1719568252874172297,,,,,,,,,,,,,,,,,,,,,,,,,,371.949,-506.498,1729.24,,,,,,,,,,,
1719568252874195777,,,,,,,,,,,,,,,,,,,,,,,,,,,,,0.0642131,0.607568,0.386589,0.690859,,,,,,,
1719568252874246299,,,,,,,,,,,,,,,,,,,,,,,,,,,,,,,,,0.0,,,,,,
1719568252874409689,,,,,,,,,,,,,,,,,,,,,,,,,,,,,,,,,,-66.5446,-28.7339,-8.20395,88.4151,93.9668,60.3018
1719568252875348236,,,,,,,,,,,,,,,,,,,,,,,,,,371.949,-506.498,1729.24,,,,,,,,,,,
1719568252875369272,,,,,,,,,,,,,,,,,,,,,,,,,,,,,0.0642131,0.607568,0.386589,0.690859,,,,,,,
1719568252875398860,,,,,,,,,,,,,,,,,,,,,,,,,,,,,,,,,0.0,,,,,,
1719568252875572332,,,,,,,,,,,,,,,,,,,,,,,,,,,,,,,,,,-66.5446,-28.7339,-8.20395,88.4151,93.9668,60.3018
1719568252878163622,1719568252.0,878073535.0,,,,,,,,-4.206230307390868e-06,0.0001660838698303,0.0007601184925754,0.0007780627654285,0.0040523323639185,1.1950683730933247e-05,-0.0009989027055567,0.0041736491253664,,,,,,,,,,,,,,,,,,,,,,
1719568252878170658,1719568252.0,878038114.0,-0.045018676383025,-0.635608086867599,1.7786945564529435,8.692614500991e-05,0.000203223565928,-3.347991104545884e-05,0.9999999750115612,,,,,,,,,,,,,,,,,,,,,,,,,,,,,,
1719568252878174636,1719568252.0,878081107.0,,,,,,,,,,,,,,,,-0.0306124606303082,0.1280287465180052,0.1694309446790498,0.2145584482038613,0.0021135662367734,-0.0009289807222507,0.0011948622695314,0.0025995890565033,,,,,,,,,,,,,,
1719568252879296324,,,,,,,,,,,,,,,,,,,,,,,,,,371.95,-506.502,1729.24,,,,,,,,,,,
1719568252879316743,,,,,,,,,,,,,,,,,,,,,,,,,,,,,0.0642159,0.607571,0.386588,0.690858,,,,,,,
1719568252881095822,,,,,,,,,,,,,,,,,,,,,,,,,,,,,,,,,,-66.5446,-28.7337,-8.20395,88.4149,93.9664,60.3018
1719568252882597036,,,,,,,,,,,,,,,,,,,,,,,,,,371.95,-506.498,1729.24,,,,,,,,,,,
1719568252882623848,,,,,,,,,,,,,,,,,,,,,,,,,,,,,0.0642126,0.607569,0.386588,0.690859,,,,,,,
1719568252883950656,,,,,,,,,,,,,,,,,,,,,,,,,,,,,,,,,0.0,,,,,,
1719568252884092896,,,,,,,,,,,,,,,,,,,,,,,,,,,,,,,,,,-66.5445,-28.7339,-8.20387,88.4151,93.9666,60.3019
1719568252885294220,,,,,,,,,,,,,,,,,,,,,,,,,,371.95,-506.501,1729.24,,,,,,,,,,,
1719568252885355675,,,,,,,,,,,,,,,,,,,,,,,,,,,,,0.0642121,0.607569,0.386587,0.690859,,,,,,,
1719568252885556157,,,,,,,,,,,,,,,,,,,,,,,,,,,,,,,,,,-66.5445,-28.7339,-8.20387,88.4151,93.9666,60.3019
1719568252886496600,,,,,,,,,,,,,,,,,,,,,,,,,,371.95,-506.501,1729.24,,,,,,,,,,,
1719568252886579663,,,,,,,,,,,,,,,,,,,,,,,,,,,,,0.0642121,0.607569,0.386587,0.690859,,,,,,,
1719568252886804058,,,,,,,,,,,,,,,,,,,,,,,,,,,,,,,,,,-66.5446,-28.7337,-8.20395,88.4151,93.9667,60.3021
1719568252888116276,1719568252.0,888026053.0,,,,,,,,0.0003967994575773,7.796267018633785e-06,6.545345939912295e-05,0.0004022371771236,0.0018265795668103,0.0009693091187434,-0.0027324249109657,0.0034266746235431,,,,,,,,,,,,,,,,,,,,,,
1719568252888124314,1719568252.0,888013638.0,-0.0450153697208785,-0.6356080218987071,1.7786951018984385,9.45390715087825e-05,0.000207261618945,-4.486381894573741e-05,0.9999999730461112,,,,,,,,,,,,,,,,,,,,,,,,,,,,,,
1719568252888128802,1719568252.0,888030322.0,,,,,,,,,,,,,,,,0.048120682546171,-0.0189945123374002,-0.0833598039811533,0.0981083508546614,-0.0022257488985898,0.000957396968687,-0.001733505929542,0.0029791961873939,,,,,,,,,,,,,,
1719568252889053153,,,,,,,,,,,,,,,,,,,,,,,,,,371.95,-506.501,1729.24,,,,,,,,,,,
1719568252889143780,,,,,,,,,,,,,,,,,,,,,,,,,,,,,0.0642121,0.607569,0.386587,0.690859,,,,,,,
1719568252889206173,,,,,,,,,,,,,,,,,,,,,,,,,,,,,,,,,0.0,,,,,,
1719568252889377785,,,,,,,,,,,,,,,,,,,,,,,,,,,,,,,,,,-66.5446,-28.7337,-8.20395,88.4151,93.9667,60.3021
1719568252892359278,,,,,,,,,,,,,,,,,,,,,,,,,,371.95,-506.5,1729.24,,,,,,,,,,,
1719568252892401031,,,,,,,,,,,,,,,,,,,,,,,,,,,,,0.0642144,0.60757,0.386589,0.690858,,,,,,,
1719568252893044708,,,,,,,,,,,,,,,,,,,,,,,,,,,,,,,,,0.0,,,,,,
1719568252895337396,,,,,,,,,,,,,,,,,,,,,,,,,,,,,,,,,,-66.5446,-28.7337,-8.20387,88.4149,93.9666,60.3017
1719568252896336723,,,,,,,,,,,,,,,,,,,,,,,,,,371.949,-506.498,1729.24,,,,,,,,,,,
1719568252897576307,,,,,,,,,,,,,,,,,,,,,,,,,,371.95,-506.5,1729.24,,,,,,,,,,,
1719568252897588212,,,,,,,,,,,,,,,,,,,,,,,,,,,,,0.064212,0.607569,0.386588,0.690859,,,,,,,
1719568252897907814,,,,,,,,,,,,,,,,,,,,,,,,,,,,,,,,,,-66.5446,-28.7339,-8.20387,88.4149,93.9668,60.3018
1719568252898151579,1719568252.0,898015974.0,,,,,,,,0.0001545214265166,-0.0007993292925556,0.0007169251318739,0.0010847976004318,0.001524414401081,0.0010089292056024,0.003117565358707,0.0036139993323119,,,,,,,,,,,,,,,,,,,,,,
1719568252898159689,1719568252.0,898000652.0,-0.0450140820423242,-0.6356146829761451,1.7787010762745374,0.0001008879170975,0.0002114670035096,-3.1873044590963095e-05,0.9999999720437216,,,,,,,,,,,,,,,,,,,,,,,,,,,,,,
1719568252898164966,1719568252.0,898021731.0,,,,,,,,,,,,,,,,-0.0290733637272833,-0.0968550671489154,0.0781766006969775,0.1278191902938463,-0.0003021410877538,3.957900424371079e-05,0.0058499917913349,0.0058579228138626,,,,,,,,,,,,,,
1719568252899680863,,,,,,,,,,,,,,,,,,,,,,,,,,371.951,-506.499,1729.24,,,,,,,,,,,
1719568252899949987,,,,,,,,,,,,,,,,,,,,,,,,,,,,,0.064212,0.607569,0.386588,0.690859,,,,,,,
1719568252899972664,,,,,,,,,,,,,,,,,,,,,,,,,,,,,,,,,0.0,,,,,,
1719568252900221908,,,,,,,,,,,,,,,,,,,,,,,,,,,,,,,,,,-66.5445,-28.7337,-8.20395,88.4151,93.9666,60.3021
1719568252904231736,,,,,,,,,,,,,,,,,,,,,,,,,,371.948,-506.496,1729.24,,,,,,,,,,,
1719568252904240871,,,,,,,,,,,,,,,,,,,,,,,,,,,,,0.0642164,0.60757,0.386592,0.690856,,,,,,,
1719568252904430137,,,,,,,,,,,,,,,,,,,,,,,,,,,,,,,,,,-66.5446,-28.734,-8.20408,88.4146,93.9667,60.3015
1719568252906048416,,,,,,,,,,,,,,,,,,,,,,,,,,371.951,-506.501,1729.24,,,,,,,,,,,
1719568252906058616,,,,,,,,,,,,,,,,,,,,,,,,,,,,,0.0642159,0.607571,0.38659,0.690856,,,,,,,
1719568252906296322,,,,,,,,,,,,,,,,,,,,,,,,,,,,,,,,,,-66.5445,-28.7337,-8.20395,88.4146,93.9664,60.3016
1719568252907194976,,,,,,,,,,,,,,,,,,,,,,,,,,371.951,-506.501,1729.24,,,,,,,,,,,
1719568252907278665,,,,,,,,,,,,,,,,,,,,,,,,,,,,,0.0642159,0.607571,0.38659,0.690856,,,,,,,
1719568252907537258,,,,,,,,,,,,,,,,,,,,,,,,,,,,,,,,,,-66.5445,-28.7337,-8.20395,88.4146,93.9664,60.3016
1719568252908203371,1719568252.0,908014363.0,,,,,,,,0.0002388791823332,0.0010450864788502,0.0005967607289125,0.0012269443262023,0.0003452680875181,2.4583637613709164e-05,-0.0031369486006768,0.0031559881068827,,,,,,,,,,,,,,,,,,,,,,
1719568252908214222,1719568252.0,908000153.0,-0.0450120913824715,-0.6356059739221547,1.7787060492806115,0.0001023292948197,0.0002115681624974,-4.494336950601217e-05,0.9999999713738604,,,,,,,,,,,,,,,,,,,,,,,,,,,,,,
1719568252908236287,1719568252.0,908019592.0,,,,,,,,,,,,,,,,0.0101229306979866,0.2213298925687112,-0.0144197283553637,0.2220300061618609,-0.0011791598202315,-0.0009843211579623,-0.0062545152546152,0.0064403623418155,,,,,,,,,,,,,,
1719568252908260517,1719568252.0,908034007.0,,,,,,,,0.0002267716345497,0.0011749848828968,0.000237130421139,0.0012199367548778,-0.0020386774685588,-0.0016356195781088,-0.002151969022013,0.0033856207550176,,,,,,,,,,,,,,,,,,,,,,
1719568252908266828,1719568252.0,908029655.0,-0.0450102016188502,-0.6355961823814639,1.7787080253674543,9.383700892728478e-05,0.0002047517817858,-5.391100661731961e-05,0.9999999731824633,,,,,,,,,,,,,,,,,,,,,,,,,,,,,,
1719568252908272145,1719568252.0,908038152.0,,,,,,,,,,,,,,,,-0.0014529057340229,0.0155878084855842,-0.0431556369328234,0.0459075125391572,-0.0023839671548443,-0.0016601734729328,0.0009849774343407,0.0030675162431138,,,,,,,,,,,,,,
1719568252909711681,,,,,,,,,,,,,,,,,,,,,,,,,,371.95,-506.498,1729.24,,,,,,,,,,,
1719568252911045446,,,,,,,,,,,,,,,,,,,,,,,,,,,,,,,,,0.0,,,,,,
1719568252911054186,,,,,,,,,,,,,,,,,,,,,,,,,,,,,0.0642109,0.607571,0.38659,0.690856,,,,,,,
1719568252911215439,,,,,,,,,,,,,,,,,,,,,,,,,,,,,,,,,,-66.5445,-28.7339,-8.20387,88.4146,93.9668,60.3019
1719568252915074171,,,,,,,,,,,,,,,,,,,,,,,,,,371.949,-506.501,1729.24,,,,,,,,,,,
1719568252915192558,,,,,,,,,,,,,,,,,,,,,,,,,,,,,0.064214,0.60757,0.386586,0.690859,,,,,,,
1719568252915339120,,,,,,,,,,,,,,,,,,,,,,,,,,,,,,,,,,-66.5447,-28.7337,-8.20387,88.4151,93.9665,60.302
1719568252918015863,,,,,,,,,,,,,,,,,,,,,,,,,,371.95,-506.5,1729.24,,,,,,,,,,,
1719568252918067680,1719568252.0,918012393.0,-0.0450113483620929,-0.6355985981222311,1.7787074484789585,9.511264922740642e-05,0.0002073858844816,-5.749371523512277e-05,0.9999999723195754,,,,,,,,,,,,,,,,,,,,,,,,,,,,,,
1719568252918075584,,,,,,,,,,,,,,,,,,,,,,,,,,,,,0.0642145,0.607571,0.38659,0.690856,,,,,,,
1719568252918095662,1719568252.0,918023060.0,,,,,,,,-0.0001376091891261,-0.0002898888920643,-6.922661953012721e-05,0.0003282745550995,0.0003060117091301,0.0006322488531495,-0.0008598534195748,0.0011102836041247,,,,,,,,,,,,,,,,,,,,,,
1719568252918101830,1719568252.0,918027471.0,,,,,,,,,,,,,,,,-0.0437256988411016,-0.175784852995342,-0.0367628448803003,0.1848344070930241,0.0023447007067058,0.0022678583833209,0.001292112317342,0.0035086118752938,,,,,,,,,,,,,,
1719568252918258300,,,,,,,,,,,,,,,,,,,,,,,,,,,,,,,,,,-66.5446,-28.7337,-8.20395,88.4146,93.9667,60.3017
1719568252919163947,,,,,,,,,,,,,,,,,,,,,,,,,,371.95,-506.5,1729.24,,,,,,,,,,,
1719568252919362742,,,,,,,,,,,,,,,,,,,,,,,,,,,,,0.0642145,0.607571,0.38659,0.690856,,,,,,,
1719568252919453555,,,,,,,,,,,,,,,,,,,,,,,,,,,,,,,,,,-66.5446,-28.7337,-8.20395,88.4146,93.9667,60.3017
1719568252921792530,,,,,,,,,,,,,,,,,,,,,,,,,,371.951,-506.501,1729.24,,,,,,,,,,,
1719568252921823567,,,,,,,,,,,,,,,,,,,,,,,,,,,,,0.0642173,0.607569,0.38659,0.690857,,,,,,,
1719568252923063264,,,,,,,,,,,,,,,,,,,,,,,,,,,,,,,,,0.0,,,,,,
1719568252923209636,,,,,,,,,,,,,,,,,,,,,,,,,,,,,,,,,,-66.5446,-28.7337,-8.20395,88.4146,93.9667,60.3017
1719568252925863814,,,,,,,,,,,,,,,,,,,,,,,,,,371.951,-506.503,1729.24,,,,,,,,,,,
1719568252927058103,,,,,,,,,,,,,,,,,,,,,,,,,,,,,,,,,0.0,,,,,,
1719568252927084154,,,,,,,,,,,,,,,,,,,,,,,,,,,,,0.0642124,0.607573,0.386588,0.690856,,,,,,,
1719568252928201410,1719568252.0,928022616.0,,,,,,,,-6.872200206647916e-05,-0.0007999981864825,-0.0006896320520777,0.0010584480049564,-5.866032644335577e-05,-0.0017082263007596,0.00164148173285,0.002369797545738,,,,,,,,,,,,,,,,,,,,,,
1719568252928231629,1719568252.0,928006918.0,-0.0450119210454435,-0.6356052647737851,1.7787017015451911,9.486722200325643e-05,0.0002002689115533,-5.065358191568759e-05,0.9999999741633936,,,,,,,,,,,,,,,,,,,,,,,,,,,,,,
1719568252928249167,1719568252.0,928027700.0,,,,,,,,,,,,,,,,0.0082664624471595,-0.0612131153301831,-0.0744486519057119,0.0967366614081469,-0.0003646738313987,-0.002340477036716,0.0025013331288827,0.0034449219416916,,,,,,,,,,,,,,
1719568252929995462,,,,,,,,,,,,,,,,,,,,,,,,,,371.951,-506.499,1729.24,,,,,,,,,,,
1719568252930080481,,,,,,,,,,,,,,,,,,,,,,,,,,,,,,,,,0.0,,,,,,
1719568252930103881,,,,,,,,,,,,,,,,,,,,,,,,,,,,,0.0642098,0.607571,0.386588,0.690858,,,,,,,
1719568252930478932,,,,,,,,,,,,,,,,,,,,,,,,,,,,,,,,,,-66.5445,-28.7337,-8.20387,88.4149,93.9668,60.3022
1719568252931545692,,,,,,,,,,,,,,,,,,,,,,,,,,371.951,-506.499,1729.24,,,,,,,,,,,
1719568252933743506,,,,,,,,,,,,,,,,,,,,,,,,,,371.951,-506.499,1729.24,,,,,,,,,,,
1719568252935183572,,,,,,,,,,,,,,,,,,,,,,,,,,,,,,,,,,-66.5445,-28.7337,-8.20387,88.4149,93.9668,60.3022
1719568252936562345,,,,,,,,,,,,,,,,,,,,,,,,,,371.951,-506.5,1729.24,,,,,,,,,,,
1719568252936649199,,,,,,,,,,,,,,,,,,,,,,,,,,,,,0.0642134,0.60757,0.38659,0.690858,,,,,,,
1719568252938143343,1719568252.0,938031129.0,,,,,,,,8.275109544347847e-05,-0.0002583454345916,0.0007957279936299,0.000840698011903,0.0020870681593004,-0.0002061408673453,0.0011179861939017,0.0023766027620346,,,,,,,,,,,,,,,,,,,,,,
1719568252938169766,1719568252.0,938012509.0,-0.0450112314529815,-0.6356074176524067,1.7787083326118047,0.0001035624497037,0.0001994108736922,-4.599348318037704e-05,0.9999999736973608,,,,,,,,,,,,,,,,,,,,,,,,,,,,,,
1719568252938188539,1719568252.0,938037432.0,,,,,,,,,,,,,,,,0.0181767717011949,0.0649983302269063,0.1782432054849181,0.1905933321585571,0.0021457219381611,0.0015020999811209,-0.0005234806336039,0.0026710408014382,,,,,,,,,,,,,,
1719568252938209402,,,,,,,,,,,,,,,,,,,,,,,,,,,,,,,,,0.0,,,,,,
1719568252938394783,,,,,,,,,,,,,,,,,,,,,,,,,,,,,,,,,,-66.5445,-28.7337,-8.20408,88.4149,93.9667,60.3019
1719568252940770312,,,,,,,,,,,,,,,,,,,,,,,,,,371.951,-506.5,1729.24,,,,,,,,,,,
1719568252940819611,,,,,,,,,,,,,,,,,,,,,,,,,,,,,0.0642151,0.60757,0.386589,0.690858,,,,,,,
1719568252941529427,,,,,,,,,,,,,,,,,,,,,,,,,,,,,,,,,,-66.5445,-28.7337,-8.20387,88.4149,93.9665,60.3016
1719568252942441510,,,,,,,,,,,,,,,,,,,,,,,,,,371.948,-506.5,1729.24,,,,,,,,,,,
1719568252942509056,,,,,,,,,,,,,,,,,,,,,,,,,,,,,0.0642138,0.607573,0.386588,0.690856,,,,,,,
1719568252942739436,,,,,,,,,,,,,,,,,,,,,,,,,,,,,,,,,,-66.5448,-28.7339,-8.20387,88.4146,93.9667,60.3019
1719568252945252859,,,,,,,,,,,,,,,,,,,,,,,,,,371.948,-506.5,1729.24,,,,,,,,,,,
1719568252945334726,,,,,,,,,,,,,,,,,,,,,,,,,,,,,0.0642138,0.607573,0.386588,0.690856,,,,,,,
1719568252945753749,,,,,,,,,,,,,,,,,,,,,,,,,,,,,,,,,,-66.5448,-28.7339,-8.20387,88.4146,93.9667,60.3019
1719568252948092638,1719568252.0,947993010.0,,,,,,,,-0.0010167041477174,0.0002278767906238,0.0001952916705683,0.0010600726353812,0.0011196662950991,0.0001490196302912,0.0050010117054671,0.0051269852292368,,,,,,,,,,,,,,,,,,,,,,
1719568252948112424,1719568252.0,947974587.0,-0.0450197039875458,-0.6356055186791515,1.7787099600423928,0.0001082235419947,0.0002000341613165,-2.5155068943452688e-05,0.9999999738206108,,,,,,,,,,,,,,,,,,,,,,,,,,,,,,
1719568252948126102,1719568252.0,947997599.0,,,,,,,,,,,,,,,,-0.1319346291793088,0.0583466670258658,-0.0720523587673938,0.1612532862724175,-0.0009674068535211,0.0003551222239139,0.0038830277689908,0.0040174485023346,,,,,,,,,,,,,,
1719568252948291547,,,,,,,,,,,,,,,,,,,,,,,,,,371.95,-506.501,1729.24,,,,,,,,,,,
1719568252948372009,,,,,,,,,,,,,,,,,,,,,,,,,,,,,0.0642162,0.607572,0.386589,0.690856,,,,,,,
1719568252950055227,,,,,,,,,,,,,,,,,,,,,,,,,,,,,,,,,,-66.5446,-28.7337,-8.20387,88.4146,93.9664,60.3016
1719568252952693330,,,,,,,,,,,,,,,,,,,,,,,,,,371.951,-506.501,1729.24,,,,,,,,,,,
1719568252952739632,,,,,,,,,,,,,,,,,,,,,,,,,,,,,0.0642093,0.607575,0.386586,0.690855,,,,,,,
1719568252952976994,,,,,,,,,,,,,,,,,,,,,,,,,,,,,,,,,,-66.5445,-28.7337,-8.20387,88.4144,93.9666,60.3025
1719568252954288450,,,,,,,,,,,,,,,,,,,,,,,,,,371.949,-506.499,1729.24,,,,,,,,,,,
1719568252954353402,,,,,,,,,,,,,,,,,,,,,,,,,,,,,0.0642131,0.607569,0.386588,0.690859,,,,,,,
1719568252954597579,,,,,,,,,,,,,,,,,,,,,,,,,,,,,,,,,,-66.5446,-28.7339,-8.20387,88.4151,93.9666,60.3019
1719568252955507446,,,,,,,,,,,,,,,,,,,,,,,,,,371.949,-506.499,1729.24,,,,,,,,,,,
1719568252955994779,,,,,,,,,,,,,,,,,,,,,,,,,,,,,0.0642131,0.607569,0.386588,0.690859,,,,,,,
1719568252956041975,,,,,,,,,,,,,,,,,,,,,,,,,,,,,,,,,0.0,,,,,,
1719568252956252138,,,,,,,,,,,,,,,,,,,,,,,,,,,,,,,,,,-66.5446,-28.7339,-8.20387,88.4151,93.9666,60.3019
1719568252958096629,1719568252.0,958022548.0,,,,,,,,-0.0004816511823563,0.0003819105033953,-0.0005242789889692,0.0008079059056248,-0.0014112274936628,0.0027197474639054,0.0058368859070837,0.0065922550313684,,,,,,,,,,,,,,,,,,,,,,
1719568252958117604,1719568252.0,958009933.0,-0.0450237177473987,-0.6356023360916232,1.778705591050818,0.000102338277585,0.0002113689261631,-8.371142709144481e-07,0.9999999724246764,,,,,,,,,,,,,,,,,,,,,,,,,,,,,,
1719568252958158238,1719568252.0,958039087.0,,,,,,,,-0.000351856676071,4.201769698841673e-05,0.000189932716248,0.0004020485593274,0.0013374820102421,-0.0013253922879857,0.0041367631543009,0.004545143808457,,,,,,,,,,,,,,,,,,,,,,
1719568252958171639,1719568252.0,958035007.0,-0.045026649886366,-0.6356019859441483,1.7787071738234534,0.0001079074804816,0.0002058482270314,1.64011414812408e-05,0.9999999728567424,,,,,,,,,,,,,,,,,,,,,,,,,,,,,,
1719568252958185549,1719568252.0,958027204.0,,,,,,,,,,,,,,,,0.0642063558433325,0.0184840455325741,-0.0863484791445046,0.1091795581622304,-0.002530946836515,0.0025706711956144,0.0008358877664765,0.0037030731350288,,,,,,,,,,,,,,
1719568252958222515,1719568252.0,958044210.0,,,,,,,,,,,,,,,,0.0155753407542369,-0.0407871367688272,0.0857054046260685,0.0961852283228966,0.0027487886160809,-0.0040450828981136,-0.0017001301162053,0.0051777385913674,,,,,,,,,,,,,,
1719568252960148746,,,,,,,,,,,,,,,,,,,,,,,,,,371.95,-506.5,1729.24,,,,,,,,,,,
1719568252960241875,,,,,,,,,,,,,,,,,,,,,,,,,,,,,0.0642134,0.607569,0.386587,0.690859,,,,,,,
1719568252960457705,,,,,,,,,,,,,,,,,,,,,,,,,,,,,,,,,,-66.5446,-28.7337,-8.20387,88.4151,93.9666,60.3019
1719568252964548690,,,,,,,,,,,,,,,,,,,,,,,,,,371.948,-506.501,1729.24,,,,,,,,,,,
1719568252964651972,,,,,,,,,,,,,,,,,,,,,,,,,,,,,0.0642169,0.607571,0.38659,0.690856,,,,,,,
1719568252965966437,,,,,,,,,,,,,,,,,,,,,,,,,,371.95,-506.5,1729.24,,,,,,,,,,,
1719568252966026009,,,,,,,,,,,,,,,,,,,,,,,,,,,,,0.0642168,0.60757,0.386589,0.690857,,,,,,,
1719568252966092223,,,,,,,,,,,,,,,,,,,,,,,,,,,,,,,,,0.0,,,,,,
1719568252966479671,,,,,,,,,,,,,,,,,,,,,,,,,,,,,,,,,,-66.5448,-28.7337,-8.20408,88.4146,93.9666,60.3017
1719568252967368366,,,,,,,,,,,,,,,,,,,,,,,,,,371.95,-506.5,1729.24,,,,,,,,,,,
1719568252968102300,1719568252.0,968015482.0,,,,,,,,-0.0006250187008716,0.0017211126394078,-0.0004637355427128,0.0018888959070165,-0.0034739266658957,0.0003051631654486,-0.0020082271005502,0.0040242101243539,,,,,,,,,,,,,,,,,,,,,,
1719568252968120639,1719568252.0,967999754.0,-0.0450318583755399,-0.6355876433388199,1.7787033093605975,9.343452973136904e-05,0.0002071190746307,8.030411991520036e-06,0.9999999741535948,,,,,,,,,,,,,,,,,,,,,,,,,,,,,,
1719568252968133430,1719568252.0,968020080.0,,,,,,,,,,,,,,,,-0.0327794429760719,0.2014913930903361,-0.0784401910753018,0.2186918767289626,-0.0048114028455485,0.0016305067665489,-0.0061450077387208,0.0079730339123105,,,,,,,,,,,,,,
1719568252968955591,,,,,,,,,,,,,,,,,,,,,,,,,,,,,0.0642168,0.60757,0.386589,0.690857,,,,,,,
1719568252968996165,,,,,,,,,,,,,,,,,,,,,,,,,,,,,,,,,0.0,,,,,,
1719568252969490796,,,,,,,,,,,,,,,,,,,,,,,,,,,,,,,,,,-66.5446,-28.7337,-8.20395,88.4149,93.9664,60.3016
1719568252973014509,,,,,,,,,,,,,,,,,,,,,,,,,,371.951,-506.499,1729.24,,,,,,,,,,,
1719568252973059339,,,,,,,,,,,,,,,,,,,,,,,,,,,,,0.0642129,0.607567,0.386591,0.690859,,,,,,,
1719568252973325245,,,,,,,,,,,,,,,,,,,,,,,,,,,,,,,,,0.0,,,,,,
1719568252973554135,,,,,,,,,,,,,,,,,,,,,,,,,,,,,,,,,,-66.5445,-28.7337,-8.20387,88.4151,93.9668,60.3016
1719568252977584790,,,,,,,,,,,,,,,,,,,,,,,,,,371.949,-506.499,1729.24,,,,,,,,,,,
1719568252977624769,,,,,,,,,,,,,,,,,,,,,,,,,,,,,,,,,0.0,,,,,,
1719568252977803251,,,,,,,,,,,,,,,,,,,,,,,,,,,,,,,,,,-66.5446,-28.7339,-8.20387,88.4149,93.9667,60.3017
1719568252978088295,1719568252.0,978033368.0,,,,,,,,-0.0001103209631622,-0.0005209778038306,-0.0004475104587164,0.0006955962892784,-0.00383272003482,-0.0001303650981011,-0.0014776999647428,0.0041097852875685,,,,,,,,,,,,,,,,,,,,,,
1719568252978107010,1719568252.0,977998428.0,-0.0450327777168996,-0.6355919848205185,1.7786995801067749,7.746613420680793e-05,0.0002065754396645,1.870072093248325e-06,0.999999975661044,,,,,,,,,,,,,,,,,,,,,,,,,,,,,,
1719568252978121483,1719568252.0,978042563.0,,,,,,,,,,,,,,,,0.0617637285251215,-0.2690508531886237,0.0019470100795615,0.2760559918043823,-0.0003587963386306,-0.0004355175820046,0.0005305338960488,0.000774517005434,,,,,,,,,,,,,,
1719568252978708388,,,,,,,,,,,,,,,,,,,,,,,,,,371.949,-506.498,1729.24,,,,,,,,,,,
1719568252978777694,,,,,,,,,,,,,,,,,,,,,,,,,,,,,0.0642161,0.607569,0.386591,0.690857,,,,,,,
1719568252978850093,,,,,,,,,,,,,,,,,,,,,,,,,,,,,,,,,0.0,,,,,,
1719568252979110061,,,,,,,,,,,,,,,,,,,,,,,,,,,,,,,,,,-66.5446,-28.7339,-8.20408,88.4149,93.9667,60.3015
1719568252979923732,,,,,,,,,,,,,,,,,,,,,,,,,,371.949,-506.498,1729.24,,,,,,,,,,,
1719568252980944945,,,,,,,,,,,,,,,,,,,,,,,,,,,,,,,,,0.0,,,,,,
1719568252981171085,,,,,,,,,,,,,,,,,,,,,,,,,,,,,,,,,,-66.5446,-28.7339,-8.20408,88.4149,93.9667,60.3015
1719568252983647377,,,,,,,,,,,,,,,,,,,,,,,,,,371.952,-506.502,1729.24,,,,,,,,,,,
1719568252985655321,,,,,,,,,,,,,,,,,,,,,,,,,,,,,,,,,0.0,,,,,,
1719568252985673369,,,,,,,,,,,,,,,,,,,,,,,,,,,,,0.0642168,0.607568,0.38659,0.690859,,,,,,,
1719568252985869736,,,,,,,,,,,,,,,,,,,,,,,,,,,,,,,,,,-66.5445,-28.7335,-8.20408,88.4151,93.9664,60.3016
1719568252988149641,1719568252.0,988049286.0,,,,,,,,0.0006561336154697,-0.0009747595870601,-0.0005527406593763,0.0012985337155588,-0.0013257054358824,0.0001961201214924,-0.003060806070762,0.0033413308437801,,,,,,,,,,,,,,,,,,,,,,
1719568252988170132,1719568252.0,988022853.0,-0.0450273099367707,-0.6356001078170773,1.7786949739346134,7.194499774323862e-05,0.0002073916291739,-1.0884490602838278e-05,0.9999999758470786,,,,,,,,,,,,,,,,,,,,,,,,,,,,,,
1719568252988186278,1719568252.0,988056759.0,,,,,,,,,,,,,,,,0.091974549435847,-0.0544538139875427,-0.0126276240791867,0.1076289574956583,0.0025070174688013,0.0003264445019733,-0.0015831099578079,0.0029829414577316,,,,,,,,,,,,,,
1719568252990149220,,,,,,,,,,,,,,,,,,,,,,,,,,371.95,-506.499,1729.24,,,,,,,,,,,
1719568252990224646,,,,,,,,,,,,,,,,,,,,,,,,,,,,,0.0642152,0.607571,0.386591,0.690856,,,,,,,
