FelixThomas97/robotervermessung-matlab-methods-applier/record_20240711_144811_squares_isodiagonalA&B_15s_final.csv
timestamp,sec,nanosec,pv_x,pv_y,pv_z,ov_x,ov_y,ov_z,ov_w,tcp_speedv_x,tcp_speedv_y,tcp_speedv_z,tcp_speedv,tcp_angularv_x,tcp_angularv_y,tcp_angularv_z,tcp_angularv,tcp_accelv__x,tcp_accelv__y,tcp_accelv__z,tcp_accelv,tcp_accelv_angular_x,tcp_accelv_angular_y,tcp_accelv_angular_z,tcp_accelv_angular,ps_x,ps_y,ps_z,os_x,os_y,os_z,os_w,tcp_speeds,joint_1,joint_2,joint_3,joint_4,joint_5,joint_6,ap_x,ap_y,ap_z,aq_x,aq_y,aq_z,aq_w
1720702091984506774,,,,,,,,,,,,,,,,,,,,,,,,,,1380.0,-299.999,1850.0,,,,,,,,,,,,,,,,,,
1720702091984512378,,,,,,,,,,,,,,,,,,,,,,,,,,,,,,,,,0.0,,,,,,,,,,,,,
1720702091985052093,,,,,,,,,,,,,,,,,,,,,,,,,,1380.0,-299.999,1850.0,,,,,,,,,,,,,,,,,,
1720702091985059568,,,,,,,,,,,,,,,,,,,,,,,,,,,,,0.607571,0.386588,0.690857,0.0642109,,,,,,,,,,,,,,
1720702091985070890,,,,,,,,,,,,,,,,,,,,,,,,,,,,,,,,,0.0,,,,,,,,,,,,,
1720702091985203257,,,,,,,,,,,,,,,,,,,,,,,,,,,,,,,,,,-24.3884,6.74393,-9.98091,79.5501,52.7279,66.4791,,,,,,,
1720702091986117985,,,,,,,,,,,,,,,,,,,,,,,,,,1380.0,-299.999,1850.0,,,,,,,,,,,,,,,,,,
1720702091986166625,,,,,,,,,,,,,,,,,,,,,,,,,,,,,0.607571,0.386588,0.690857,0.0642109,,,,,,,,,,,,,,
1720702091986203531,,,,,,,,,,,,,,,,,,,,,,,,,,,,,,,,,0.0,,,,,,,,,,,,,
1720702091986318101,,,,,,,,,,,,,,,,,,,,,,,,,,,,,,,,,,-24.3884,6.74393,-9.98091,79.5501,52.7279,66.4791,,,,,,,
1720702091987883014,1720702091.0,987806609.0,,,,,,,,-0.9125011999316924,1.0107169289633178,1.472173066008331,2.0053679678927225,-0.0003489956078759,0.0006335829185605,0.0017735840904755,0.0019154179113175,,,,,,,,,,,,,,,,,,,,,,,,,,,,,
1720702091987885264,1720702091.0,987789945.0,229.0675461914044,119.60634765492006,1906.3928766714528,0.0013391144738076,0.0027312389471737,0.0210754565432959,0.9997732604134456,,,,,,,,,,,,,,,,,,,,,,,,,,,,,,,,,,,,,
1720702091987887594,1720702091.0,987809916.0,,,,,,,,,,,,,,,,-0.0774109960888225,0.0555806186298968,-0.023553190671155,0.0981652702005017,0.000932242915299,0.0017669222397325,0.0026363124922679,0.0033077537107945,,,,,,,,,,,,,,,,,,,,,
1720702091988509530,,,,,,,,,,,,,,,,,,,,,,,,,,1380.0,-299.998,1850.0,,,,,,,,,,,,,,,,,,
1720702091988654449,,,,,,,,,,,,,,,,,,,,,,,,,,,,,0.60757,0.386591,0.690856,0.0642152,,,,,,,,,,,,,,
1720702091988733222,,,,,,,,,,,,,,,,,,,,,,,,,,,,,,,,,0.0,,,,,,,,,,,,,
1720702091988843169,,,,,,,,,,,,,,,,,,,,,,,,,,,,,,,,,,-24.3884,6.74393,-9.98087,79.5499,52.7277,66.4785,,,,,,,
1720702091990100139,,,,,,,,,,,,,,,,,,,,,,,,,,1380.0,-299.998,1850.0,,,,,,,,,,,,,,,,,,
1720702091990126405,,,,,,,,,,,,,,,,,,,,,,,,,,,,,0.60757,0.386591,0.690856,0.0642152,,,,,,,,,,,,,,
1720702091990160769,,,,,,,,,,,,,,,,,,,,,,,,,,,,,,,,,0.0,,,,,,,,,,,,,
1720702091990276380,,,,,,,,,,,,,,,,,,,,,,,,,,,,,,,,,,-24.3884,6.74393,-9.98087,79.5499,52.7277,66.4785,,,,,,,
1720702091992468014,,,,,,,,,,,,,,,,,,,,,,,,,,1380.0,-300.003,1850.0,,,,,,,,,,,,,,,,,,
1720702091992579510,,,,,,,,,,,,,,,,,,,,,,,,,,,,,0.607571,0.38659,0.690856,0.0642171,,,,,,,,,,,,,,
1720702091992708328,,,,,,,,,,,,,,,,,,,,,,,,,,,,,,,,,0.0,,,,,,,,,,,,,
1720702091992817146,,,,,,,,,,,,,,,,,,,,,,,,,,,,,,,,,,-24.3886,6.74393,-9.98087,79.5499,52.7277,66.4784,,,,,,,
1720702091994177580,,,,,,,,,,,,,,,,,,,,,,,,,,1380.0,-300.003,1850.0,,,,,,,,,,,,,,,,,,
1720702091994182011,,,,,,,,,,,,,,,,,,,,,,,,,,,,,0.607571,0.38659,0.690856,0.0642171,,,,,,,,,,,,,,
1720702091994189070,,,,,,,,,,,,,,,,,,,,,,,,,,,,,,,,,0.0,,,,,,,,,,,,,
1720702091994293392,,,,,,,,,,,,,,,,,,,,,,,,,,,,,,,,,,-24.3886,6.74393,-9.98087,79.5499,52.7277,66.4784,,,,,,,
1720702091996511090,,,,,,,,,,,,,,,,,,,,,,,,,,1380.0,-300.0,1850.0,,,,,,,,,,,,,,,,,,
1720702091996588205,,,,,,,,,,,,,,,,,,,,,,,,,,,,,0.60757,0.386592,0.690856,0.0642174,,,,,,,,,,,,,,
1720702091996733262,,,,,,,,,,,,,,,,,,,,,,,,,,,,,,,,,0.0,,,,,,,,,,,,,
1720702091996851449,,,,,,,,,,,,,,,,,,,,,,,,,,,,,,,,,,-24.3884,6.74393,-9.98087,79.5499,52.7277,66.4782,,,,,,,
1720702091997811049,1720702091.0,997757142.0,,,,,,,,-0.1140926762177585,0.6285456686794255,0.3873916552876721,0.7471004557412069,0.0010738248261551,0.0004384861962375,-0.0011430464096577,0.001628473210154,,,,,,,,,,,,,,,,,,,,,,,,,,,,,
1720702091997816375,1720702091.0,997750071.0,229.06640526464216,119.61263311160684,1906.3967505880055,0.0013445441966492,0.0027333100708612,0.0210697543348633,0.999773367653504,,,,,,,,,,,,,,,,,,,,,,,,,,,,,,,,,,,,,
1720702091997818028,1720702091.0,997759759.0,,,,,,,,,,,,,,,,0.0798408523713933,-0.0382171260283892,-0.1084781410720658,0.1400093479725959,0.0014228129244815,-0.0001950891943235,-0.0029166346670448,0.0032510327886414,,,,,,,,,,,,,,,,,,,,,
1720702091998097847,,,,,,,,,,,,,,,,,,,,,,,,,,1380.0,-300.0,1850.0,,,,,,,,,,,,,,,,,,
1720702091998160480,,,,,,,,,,,,,,,,,,,,,,,,,,,,,0.60757,0.386592,0.690856,0.0642174,,,,,,,,,,,,,,
1720702091998181274,,,,,,,,,,,,,,,,,,,,,,,,,,,,,,,,,0.0,,,,,,,,,,,,,
1720702091998320728,,,,,,,,,,,,,,,,,,,,,,,,,,,,,,,,,,-24.3884,6.74393,-9.98087,79.5499,52.7277,66.4782,,,,,,,
1720702092000473150,,,,,,,,,,,,,,,,,,,,,,,,,,1380.0,-299.999,1850.0,,,,,,,,,,,,,,,,,,
1720702092000762949,,,,,,,,,,,,,,,,,,,,,,,,,,,,,0.60757,0.38659,0.690857,0.0642134,,,,,,,,,,,,,,
1720702092002184449,,,,,,,,,,,,,,,,,,,,,,,,,,1380.0,-299.999,1850.0,,,,,,,,,,,,,,,,,,
1720702092002192373,,,,,,,,,,,,,,,,,,,,,,,,,,,,,0.60757,0.38659,0.690857,0.0642134,,,,,,,,,,,,,,
1720702092002268313,,,,,,,,,,,,,,,,,,,,,,,,,,,,,,,,,0.0,,,,,,,,,,,,,
1720702092002381432,,,,,,,,,,,,,,,,,,,,,,,,,,,,,,,,,,-24.3884,6.74393,-9.98087,79.5501,52.7279,66.4786,,,,,,,
1720702092004484470,,,,,,,,,,,,,,,,,,,,,,,,,,1380.0,-300.0,1850.0,,,,,,,,,,,,,,,,,,
1720702092004550477,,,,,,,,,,,,,,,,,,,,,,,,,,,,,0.60757,0.38659,0.690857,0.0642156,,,,,,,,,,,,,,
1720702092004583267,,,,,,,,,,,,,,,,,,,,,,,,,,,,,,,,,0.0,,,,,,,,,,,,,
1720702092004733294,,,,,,,,,,,,,,,,,,,,,,,,,,,,,,,,,,-24.3884,6.74393,-9.98091,79.5501,52.7278,66.4784,,,,,,,
1720702092006208256,,,,,,,,,,,,,,,,,,,,,,,,,,1380.0,-300.0,1850.0,,,,,,,,,,,,,,,,,,
1720702092006214241,,,,,,,,,,,,,,,,,,,,,,,,,,,,,0.60757,0.38659,0.690857,0.0642156,,,,,,,,,,,,,,
1720702092006227027,,,,,,,,,,,,,,,,,,,,,,,,,,,,,,,,,0.0,,,,,,,,,,,,,
1720702092006359515,,,,,,,,,,,,,,,,,,,,,,,,,,,,,,,,,,-24.3884,6.74393,-9.98091,79.5501,52.7278,66.4784,,,,,,,
1720702092007914512,1720702092.0,7832220.0,,,,,,,,0.6174916070411651,-0.647966254975485,-1.3313382270618843,1.604249864325853,0.0009166087571038,-0.0005450016690686,-0.0015447074037885,0.001877050717537,,,,,,,,,,,,,,,,,,,,,,,,,,,,,
1720702092007919137,1720702092.0,7806877.0,229.0725801807126,119.6061534490571,1906.3834372057352,0.0013490898972746,0.002730478731727,0.0210620487380937,0.999773531628688,,,,,,,,,,,,,,,,,,,,,,,,,,,,,,,,,,,,,
1720702092007921880,1720702092.0,7837753.0,,,,,,,,,,,,,,,,0.0731584283258923,-0.127651192365491,-0.1718729882349556,0.2262461195960265,-0.000157222570512,-0.0009834848101666,-0.0004016659299048,0.0010739165832378,,,,,,,,,,,,,,,,,,,,,
1720702092009049453,,,,,,,,,,,,,,,,,,,,,,,,,,1380.0,-300.002,1850.0,,,,,,,,,,,,,,,,,,
1720702092009085641,,,,,,,,,,,,,,,,,,,,,,,,,,,,,0.607571,0.386588,0.690857,0.0642146,,,,,,,,,,,,,,
1720702092009156476,,,,,,,,,,,,,,,,,,,,,,,,,,,,,,,,,0.0,,,,,,,,,,,,,
1720702092009307260,,,,,,,,,,,,,,,,,,,,,,,,,,,,,,,,,,-24.3886,6.7438,-9.98091,79.5501,52.7278,66.4787,,,,,,,
1720702092010129892,,,,,,,,,,,,,,,,,,,,,,,,,,1380.0,-300.002,1850.0,,,,,,,,,,,,,,,,,,
1720702092010309792,,,,,,,,,,,,,,,,,,,,,,,,,,,,,0.607571,0.386588,0.690857,0.0642146,,,,,,,,,,,,,,
1720702092010354408,,,,,,,,,,,,,,,,,,,,,,,,,,,,,,,,,0.0,,,,,,,,,,,,,
1720702092012626683,,,,,,,,,,,,,,,,,,,,,,,,,,1380.0,-300.0,1850.0,,,,,,,,,,,,,,,,,,
1720702092012696211,,,,,,,,,,,,,,,,,,,,,,,,,,,,,0.607571,0.386586,0.690859,0.064213,,,,,,,,,,,,,,
1720702092012742978,,,,,,,,,,,,,,,,,,,,,,,,,,,,,,,,,0.0,,,,,,,,,,,,,
1720702092012972488,,,,,,,,,,,,,,,,,,,,,,,,,,,,,,,,,,-24.3886,6.7438,-9.98091,79.5501,52.7278,66.4787,,,,,,,
1720702092014249510,,,,,,,,,,,,,,,,,,,,,,,,,,1380.0,-300.0,1850.0,,,,,,,,,,,,,,,,,,
1720702092014304794,,,,,,,,,,,,,,,,,,,,,,,,,,,,,0.607571,0.386586,0.690859,0.064213,,,,,,,,,,,,,,
1720702092014465888,,,,,,,,,,,,,,,,,,,,,,,,,,,,,,,,,,-24.3884,6.7438,-9.98087,79.5504,52.7276,66.4788,,,,,,,
1720702092016621863,,,,,,,,,,,,,,,,,,,,,,,,,,1380.0,-300.002,1850.0,,,,,,,,,,,,,,,,,,
1720702092016710396,,,,,,,,,,,,,,,,,,,,,,,,,,,,,0.60757,0.386589,0.690858,0.0642142,,,,,,,,,,,,,,
1720702092016800317,,,,,,,,,,,,,,,,,,,,,,,,,,,,,,,,,0.0,,,,,,,,,,,,,
1720702092016970436,,,,,,,,,,,,,,,,,,,,,,,,,,,,,,,,,,-24.3884,6.7438,-9.98087,79.5504,52.7276,66.4788,,,,,,,
1720702092017885350,1720702092.0,17807755.0,,,,,,,,0.6181773405222746,-1.3005257933448866,-2.662512493500913,3.026959421852065,-0.002756629675179,-0.0003886177782877,0.0017506261287417,0.0032885745827504,,,,,,,,,,,,,,,,,,,,,,,,,,,,,
1720702092017894136,1720702092.0,17792792.0,229.07876195411785,119.59314819112366,1906.3568120808,0.0013352450444941,0.0027288381926177,0.0210707648703906,0.9997733710349394,,,,,,,,,,,,,,,,,,,,,,,,,,,,,,,,,,,,,
1720702092017900081,1720702092.0,17812519.0,,,,,,,,,,,,,,,,6.857334811094518e-05,-0.0652559538369401,-0.1331174266439028,0.1482517908484338,-0.0036732462042476,0.0001563971584848,0.0032953242395863,0.004937242103868,,,,,,,,,,,,,,,,,,,,,
1720702092018187792,,,,,,,,,,,,,,,,,,,,,,,,,,1380.0,-300.002,1850.0,,,,,,,,,,,,,,,,,,
1720702092018303868,,,,,,,,,,,,,,,,,,,,,,,,,,,,,0.60757,0.386589,0.690858,0.0642142,,,,,,,,,,,,,,
1720702092018499847,,,,,,,,,,,,,,,,,,,,,,,,,,,,,,,,,,-24.3886,6.74393,-9.98108,79.5501,52.7279,66.4788,,,,,,,
1720702092020617881,,,,,,,,,,,,,,,,,,,,,,,,,,1380.0,-300.002,1850.0,,,,,,,,,,,,,,,,,,
1720702092020755767,,,,,,,,,,,,,,,,,,,,,,,,,,,,,0.607572,0.386587,0.690857,0.0642135,,,,,,,,,,,,,,
1720702092021014595,,,,,,,,,,,,,,,,,,,,,,,,,,,,,,,,,,-24.3886,6.74393,-9.98108,79.5501,52.7279,66.4788,,,,,,,
1720702092022303833,,,,,,,,,,,,,,,,,,,,,,,,,,1380.0,-300.002,1850.0,,,,,,,,,,,,,,,,,,
1720702092022403623,,,,,,,,,,,,,,,,,,,,,,,,,,,,,0.607572,0.386587,0.690857,0.0642135,,,,,,,,,,,,,,
1720702092024658137,,,,,,,,,,,,,,,,,,,,,,,,,,1380.0,-300.002,1850.0,,,,,,,,,,,,,,,,,,
1720702092024777832,,,,,,,,,,,,,,,,,,,,,,,,,,,,,0.607571,0.386589,0.690857,0.0642139,,,,,,,,,,,,,,
1720702092025059025,,,,,,,,,,,,,,,,,,,,,,,,,,,,,,,,,,-24.3886,6.7438,-9.98091,79.5501,52.7278,66.4789,,,,,,,
1720702092026299344,,,,,,,,,,,,,,,,,,,,,,,,,,1380.0,-300.001,1850.0,,,,,,,,,,,,,,,,,,
1720702092026421147,,,,,,,,,,,,,,,,,,,,,,,,,,,,,0.607571,0.386589,0.690857,0.0642139,,,,,,,,,,,,,,
1720702092026696322,,,,,,,,,,,,,,,,,,,,,,,,,,,,,,,,,,-24.3884,6.74401,-9.98071,79.5501,52.7278,66.4785,,,,,,,
1720702092027901164,1720702092.0,27817489.0,,,,,,,,0.0724604315799348,-0.8003591797325904,-1.4690130063943485,1.674462464100864,0.0017303067053924,0.001060396566196,0.0014754112110086,0.0025090317682118,,,,,,,,,,,,,,,,,,,,,,,,,,,,,
1720702092027914674,1720702092.0,27797293.0,229.07948655843364,119.58514459932633,1906.342121950736,0.0013439862032689,0.0027339665293998,0.0210781567821216,0.9997731894958826,,,,,,,,,,,,,,,,,,,,,,,,,,,,,,,,,,,,,
1720702092027922803,1720702092.0,27824169.0,,,,,,,,,,,,,,,,-0.0545716908942339,0.0500166613612296,0.1193499487106564,0.1404426791186214,0.0044869242317233,0.0014490498258114,-0.0002752261712436,0.0047231328484648,,,,,,,,,,,,,,,,,,,,,
1720702092028648357,,,,,,,,,,,,,,,,,,,,,,,,,,1380.0,-300.001,1850.0,,,,,,,,,,,,,,,,,,
1720702092028788218,,,,,,,,,,,,,,,,,,,,,,,,,,,,,0.607569,0.386589,0.690858,0.0642177,,,,,,,,,,,,,,
1720702092029068787,,,,,,,,,,,,,,,,,,,,,,,,,,,,,,,,,,-24.3884,6.74401,-9.98071,79.5501,52.7278,66.4785,,,,,,,
1720702092030306723,,,,,,,,,,,,,,,,,,,,,,,,,,1380.0,-300.001,1850.0,,,,,,,,,,,,,,,,,,
1720702092030443927,,,,,,,,,,,,,,,,,,,,,,,,,,,,,0.607569,0.386589,0.690858,0.0642177,,,,,,,,,,,,,,
1720702092033247548,,,,,,,,,,,,,,,,,,,,,,,,,,1380.0,-300.002,1850.0,,,,,,,,,,,,,,,,,,
1720702092033340795,,,,,,,,,,,,,,,,,,,,,,,,,,,,,,,,,0.0,,,,,,,,,,,,,
1720702092034301014,,,,,,,,,,,,,,,,,,,,,,,,,,1380.0,-300.002,1850.0,,,,,,,,,,,,,,,,,,
1720702092034438242,,,,,,,,,,,,,,,,,,,,,,,,,,,,,0.60757,0.386587,0.690859,0.0642123,,,,,,,,,,,,,,
1720702092034762871,,,,,,,,,,,,,,,,,,,,,,,,,,,,,,,,,,-24.3886,6.74401,-9.981,79.5504,52.7279,66.4788,,,,,,,
1720702092036680338,,,,,,,,,,,,,,,,,,,,,,,,,,1380.0,-300.002,1850.0,,,,,,,,,,,,,,,,,,
1720702092036837522,,,,,,,,,,,,,,,,,,,,,,,,,,,,,0.60757,0.386587,0.690859,0.0642123,,,,,,,,,,,,,,
1720702092037120735,,,,,,,,,,,,,,,,,,,,,,,,,,,,,,,,,,-24.3886,6.74401,-9.981,79.5504,52.7279,66.4788,,,,,,,
1720702092038136166,1720702092.0,38058953.0,,,,,,,,0.5066383474111591,-0.3992955952533683,-0.0647423750388398,0.6483139382906417,0.0018124436328254,0.0002160564125416,-0.0020954217228345,0.0027789250605398,,,,,,,,,,,,,,,,,,,,,,,,,,,,,
1720702092038154334,1720702092.0,37965819.0,229.08455294190773,119.5811516433738,1906.3414745269856,0.0013530977803157,0.0027348414702345,0.0210677053717084,0.999773395104561,,,,,,,,,,,,,,,,,,,,,,,,,,,,,,,,,,,,,
1720702092038166397,1720702092.0,38076832.0,,,,,,,,,,,,,,,,0.0434177915831224,0.0401063584479222,0.1404270631355508,0.152359393129484,8.21242236987732e-05,-0.0008443086544859,-0.0035708406739559,0.0036702186053334,,,,,,,,,,,,,,,,,,,,,
1720702092038369766,,,,,,,,,,,,,,,,,,,,,,,,,,1380.0,-300.0,1850.0,,,,,,,,,,,,,,,,,,
1720702092038526162,,,,,,,,,,,,,,,,,,,,,,,,,,,,,0.60757,0.38659,0.690857,0.064215,,,,,,,,,,,,,,
1720702092038801907,,,,,,,,,,,,,,,,,,,,,,,,,,,,,,,,,,-24.3884,6.74401,-9.98091,79.5501,52.7278,66.4785,,,,,,,
1720702092040656925,,,,,,,,,,,,,,,,,,,,,,,,,,1380.0,-300.0,1850.0,,,,,,,,,,,,,,,,,,
1720702092040775739,,,,,,,,,,,,,,,,,,,,,,,,,,,,,0.60757,0.38659,0.690857,0.064215,,,,,,,,,,,,,,
1720702092042547037,,,,,,,,,,,,,,,,,,,,,,,,,,1380.0,-299.998,1850.0,,,,,,,,,,,,,,,,,,
1720702092042567533,,,,,,,,,,,,,,,,,,,,,,,,,,,,,0.607571,0.386589,0.690856,0.0642124,,,,,,,,,,,,,,
1720702092042873975,,,,,,,,,,,,,,,,,,,,,,,,,,,,,,,,,,-24.3884,6.74372,-9.98091,79.5499,52.7279,66.479,,,,,,,
1720702092044817724,,,,,,,,,,,,,,,,,,,,,,,,,,1380.0,-299.998,1850.0,,,,,,,,,,,,,,,,,,
1720702092044833589,,,,,,,,,,,,,,,,,,,,,,,,,,,,,0.607571,0.386589,0.690856,0.0642124,,,,,,,,,,,,,,
1720702092046474060,,,,,,,,,,,,,,,,,,,,,,,,,,1380.0,-299.998,1850.0,,,,,,,,,,,,,,,,,,
1720702092046486751,,,,,,,,,,,,,,,,,,,,,,,,,,,,,,,,,0.0,,,,,,,,,,,,,
1720702092048169389,1720702092.0,47927378.0,,,,,,,,-0.254138607352905,0.8547823687227174,1.2548748000273946,1.539464222828932,-0.0024935528341885,-0.0006156932070057,-7.439823126356649e-05,0.0025695172618329,,,,,,,,,,,,,,,,,,,,,,,,,,,,,
1720702092048180489,1720702092.0,47852331.0,229.0820115558342,119.58969946706102,1906.354023274986,0.0013405690024113,0.0027320258654111,0.0210673035312154,0.99977342814827,,,,,,,,,,,,,,,,,,,,,,,,,,,,,,,,,,,,,
1720702092048187471,1720702092.0,47939863.0,,,,,,,,,,,,,,,,-0.0760776954764064,0.1254077963976085,0.1319617175066234,0.1973038925961744,-0.0043060029979707,-0.0008317228200901,0.0020210206057304,0.0048288662185629,,,,,,,,,,,,,,,,,,,,,
1720702092048754062,,,,,,,,,,,,,,,,,,,,,,,,,,1380.0,-299.998,1850.0,,,,,,,,,,,,,,,,,,
1720702092048773834,,,,,,,,,,,,,,,,,,,,,,,,,,,,,0.607568,0.386589,0.690859,0.0642146,,,,,,,,,,,,,,
1720702092049059885,,,,,,,,,,,,,,,,,,,,,,,,,,,,,,,,,,-24.3884,6.7438,-9.981,79.5504,52.7278,66.4785,,,,,,,
1720702092050412988,,,,,,,,,,,,,,,,,,,,,,,,,,1380.0,-300.0,1850.0,,,,,,,,,,,,,,,,,,
1720702092050425521,,,,,,,,,,,,,,,,,,,,,,,,,,,,,0.607571,0.386587,0.690858,0.0642151,,,,,,,,,,,,,,
1720702092052878501,,,,,,,,,,,,,,,,,,,,,,,,,,1380.0,-300.0,1850.0,,,,,,,,,,,,,,,,,,
1720702092052891438,,,,,,,,,,,,,,,,,,,,,,,,,,,,,0.607571,0.386587,0.690858,0.0642151,,,,,,,,,,,,,,
1720702092052924867,,,,,,,,,,,,,,,,,,,,,,,,,,,,,,,,,0.0,,,,,,,,,,,,,
1720702092054525016,,,,,,,,,,,,,,,,,,,,,,,,,,1380.0,-300.003,1850.0,,,,,,,,,,,,,,,,,,
1720702092054537771,,,,,,,,,,,,,,,,,,,,,,,,,,,,,,,,,0.0,,,,,,,,,,,,,
1720702092057225833,,,,,,,,,,,,,,,,,,,,,,,,,,1380.0,-300.0,1850.0,,,,,,,,,,,,,,,,,,
1720702092057245431,,,,,,,,,,,,,,,,,,,,,,,,,,,,,0.60757,0.386591,0.690857,0.0642164,,,,,,,,,,,,,,
1720702092057625349,,,,,,,,,,,,,,,,,,,,,,,,,,,,,,,,,,-24.3886,6.74401,-9.98087,79.5499,52.7279,66.4785,,,,,,,
1720702092058008770,1720702092.0,57819019.0,,,,,,,,-0.9430939282017992,1.6244518504987535,2.6564201454082337,3.253434794325933,0.0003471815904509,-0.0001687542111108,0.0022989595484884,0.0023311430771409,,,,,,,,,,,,,,,,,,,,,,,,,,,,,
1720702092058020455,1720702092.0,57798667.0,229.0725806165522,119.605943985566,1906.38058747644,0.0013422553368989,0.0027311611240146,0.0210788015968077,0.9997731858940644,,,,,,,,,,,,,,,,,,,,,,,,,,,,,,,,,,,,,
1720702092058027886,1720702092.0,57826312.0,,,,,,,,,,,,,,,,-0.0688955320848894,0.0769669481776036,0.1401545345380839,0.1741085839486982,0.0028407272844855,0.0004469675296167,0.002373360952415,0.0037285860172189,,,,,,,,,,,,,,,,,,,,,
1720702092058451317,,,,,,,,,,,,,,,,,,,,,,,,,,1380.0,-300.0,1850.0,,,,,,,,,,,,,,,,,,
1720702092058466139,,,,,,,,,,,,,,,,,,,,,,,,,,,,,0.60757,0.386591,0.690857,0.0642164,,,,,,,,,,,,,,
1720702092060875244,,,,,,,,,,,,,,,,,,,,,,,,,,1380.0,-300.0,1850.0,,,,,,,,,,,,,,,,,,
1720702092060889186,,,,,,,,,,,,,,,,,,,,,,,,,,,,,0.60757,0.386591,0.690857,0.0642164,,,,,,,,,,,,,,
1720702092062481995,,,,,,,,,,,,,,,,,,,,,,,,,,1380.0,-299.999,1850.0,,,,,,,,,,,,,,,,,,
1720702092062495074,,,,,,,,,,,,,,,,,,,,,,,,,,,,,0.60757,0.386587,0.690859,0.0642124,,,,,,,,,,,,,,
1720702092062526953,,,,,,,,,,,,,,,,,,,,,,,,,,,,,,,,,0.0,,,,,,,,,,,,,
1720702092064803971,,,,,,,,,,,,,,,,,,,,,,,,,,1380.0,-299.999,1850.0,,,,,,,,,,,,,,,,,,
1720702092064826929,,,,,,,,,,,,,,,,,,,,,,,,,,,,,0.60757,0.386587,0.690859,0.0642124,,,,,,,,,,,,,,
1720702092065206468,,,,,,,,,,,,,,,,,,,,,,,,,,,,,,,,,,-24.3884,6.74393,-9.98091,79.5504,52.7278,66.4787,,,,,,,
1720702092066456436,,,,,,,,,,,,,,,,,,,,,,,,,,1380.0,-300.002,1850.0,,,,,,,,,,,,,,,,,,
1720702092066476893,,,,,,,,,,,,,,,,,,,,,,,,,,,,,0.60757,0.386589,0.690857,0.0642142,,,,,,,,,,,,,,
1720702092066806727,,,,,,,,,,,,,,,,,,,,,,,,,,,,,,,,,,-24.3886,6.74393,-9.98087,79.5501,52.7279,66.4786,,,,,,,
1720702092068041143,1720702092.0,67815101.0,,,,,,,,-0.2704535985248446,0.2851220348848438,1.124051901890688,1.1907696678518416,0.0008737138408023,0.0005636631325307,-0.0027735598431176,0.0029620476373513,,,,,,,,,,,,,,,,,,,,,,,,,,,,,
1720702092068053092,1720702092.0,67797026.0,229.06987608056696,119.60879520591486,1906.391827995459,0.0013467201970132,0.0027338681018128,0.0210649450890605,0.9997734645399968,,,,,,,,,,,,,,,,,,,,,,,,,,,,,,,,,,,,,
1720702092068061631,1720702092.0,67822196.0,,,,,,,,,,,,,,,,0.0672640329676954,-0.133932981561391,-0.1532368243517545,0.2143455574963325,0.0005265281114201,0.0007324322014498,-0.0050725176758914,0.0051520990240937,,,,,,,,,,,,,,,,,,,,,
1720702092068745225,,,,,,,,,,,,,,,,,,,,,,,,,,1380.0,-300.002,1850.0,,,,,,,,,,,,,,,,,,
1720702092068766359,,,,,,,,,,,,,,,,,,,,,,,,,,,,,0.60757,0.386589,0.690857,0.0642142,,,,,,,,,,,,,,
1720702092069071430,,,,,,,,,,,,,,,,,,,,,,,,,,,,,,,,,,-24.3886,6.74393,-9.98087,79.5501,52.7279,66.4786,,,,,,,
1720702092070464510,,,,,,,,,,,,,,,,,,,,,,,,,,1380.0,-300.001,1850.0,,,,,,,,,,,,,,,,,,
1720702092070483900,,,,,,,,,,,,,,,,,,,,,,,,,,,,,0.607571,0.38659,0.690856,0.0642122,,,,,,,,,,,,,,
1720702092070813426,,,,,,,,,,,,,,,,,,,,,,,,,,,,,,,,,,-24.3886,6.74393,-9.98087,79.5499,52.7281,66.4789,,,,,,,
1720702092072786064,,,,,,,,,,,,,,,,,,,,,,,,,,1380.0,-300.001,1850.0,,,,,,,,,,,,,,,,,,
1720702092072806384,,,,,,,,,,,,,,,,,,,,,,,,,,,,,0.607571,0.38659,0.690856,0.0642122,,,,,,,,,,,,,,
1720702092073139755,,,,,,,,,,,,,,,,,,,,,,,,,,,,,,,,,,-24.3886,6.74393,-9.98087,79.5499,52.7281,66.4789,,,,,,,
1720702092074531969,,,,,,,,,,,,,,,,,,,,,,,,,,1380.0,-299.999,1850.0,,,,,,,,,,,,,,,,,,
1720702092074551438,,,,,,,,,,,,,,,,,,,,,,,,,,,,,0.607571,0.386588,0.690857,0.0642132,,,,,,,,,,,,,,
1720702092074841628,,,,,,,,,,,,,,,,,,,,,,,,,,,,,,,,,,-24.3884,6.7438,-9.98079,79.5501,52.7278,66.4787,,,,,,,
1720702092076716119,,,,,,,,,,,,,,,,,,,,,,,,,,1380.0,-299.999,1850.0,,,,,,,,,,,,,,,,,,
1720702092076736075,,,,,,,,,,,,,,,,,,,,,,,,,,,,,0.607571,0.386588,0.690857,0.0642132,,,,,,,,,,,,,,
1720702092077078829,,,,,,,,,,,,,,,,,,,,,,,,,,,,,,,,,,-24.3884,6.7438,-9.98079,79.5501,52.7278,66.4787,,,,,,,
1720702092077912011,1720702092.0,77817465.0,,,,,,,,0.2259177101449072,-0.5224716001478447,-0.8343023701673502,1.0099880343771532,-0.0008336981316136,0.0001234754469456,-0.0006610554300684,0.0010711176603331,,,,,,,,,,,,,,,,,,,,,,,,,,,,,
1720702092077923662,1720702092.0,77796965.0,229.0721352576684,119.60357048991338,1906.3834849717573,0.0013425746918561,0.0027345686968938,0.0210616283328325,0.9997735380771032,,,,,,,,,,,,,,,,,,,,,,,,,,,,,,,,,,,,,
1720702092077931007,1720702092.0,77823897.0,,,,,,,,,,,,,,,,0.0496371308669751,-0.0807593635032688,-0.1958354272058038,0.2175716757830348,-0.0017074121230601,-0.0004401732361597,0.0021125073020859,0.0027516714442626,,,,,,,,,,,,,,,,,,,,,
1720702092078540553,,,,,,,,,,,,,,,,,,,,,,,,,,1380.0,-299.997,1850.0,,,,,,,,,,,,,,,,,,
1720702092078570098,,,,,,,,,,,,,,,,,,,,,,,,,,,,,0.60757,0.386591,0.690857,0.0642118,,,,,,,,,,,,,,
1720702092078723500,,,,,,,,,,,,,,,,,,,,,,,,,,,,,,,,,,-24.3884,6.7438,-9.98091,79.5501,52.7281,66.4787,,,,,,,
1720702092081206024,,,,,,,,,,,,,,,,,,,,,,,,,,1380.0,-299.997,1850.0,,,,,,,,,,,,,,,,,,
1720702092081238377,,,,,,,,,,,,,,,,,,,,,,,,,,,,,0.607571,0.386588,0.690857,0.0642155,,,,,,,,,,,,,,
1720702092081441531,,,,,,,,,,,,,,,,,,,,,,,,,,,,,,,,,,-24.3884,6.7438,-9.98091,79.5501,52.7281,66.4787,,,,,,,
1720702092082294691,,,,,,,,,,,,,,,,,,,,,,,,,,1380.0,-300.0,1850.0,,,,,,,,,,,,,,,,,,
1720702092082363264,,,,,,,,,,,,,,,,,,,,,,,,,,,,,0.607571,0.386588,0.690857,0.0642155,,,,,,,,,,,,,,
1720702092082586657,,,,,,,,,,,,,,,,,,,,,,,,,,,,,,,,,,-24.3884,6.7438,-9.98087,79.5501,52.7276,66.4786,,,,,,,
1720702092084214906,,,,,,,,,,,,,,,,,,,,,,,,,,1380.0,-300.0,1850.0,,,,,,,,,,,,,,,,,,
1720702092084296267,,,,,,,,,,,,,,,,,,,,,,,,,,,,,0.607571,0.386588,0.690857,0.0642155,,,,,,,,,,,,,,
1720702092084758924,,,,,,,,,,,,,,,,,,,,,,,,,,,,,,,,,0.0,,,,,,,,,,,,,
1720702092084921365,,,,,,,,,,,,,,,,,,,,,,,,,,,,,,,,,,-24.3884,6.7438,-9.98087,79.5501,52.7276,66.4786,,,,,,,
1720702092086327508,,,,,,,,,,,,,,,,,,,,,,,,,,1380.0,-299.999,1850.0,,,,,,,,,,,,,,,,,,
1720702092086405871,,,,,,,,,,,,,,,,,,,,,,,,,,,,,0.60757,0.386589,0.690858,0.0642143,,,,,,,,,,,,,,
1720702092086600496,,,,,,,,,,,,,,,,,,,,,,,,,,,,,,,,,,-24.3884,6.7438,-9.981,79.5501,52.7278,66.4787,,,,,,,
1720702092087962747,1720702092.0,87832223.0,,,,,,,,0.343141086611709,-0.1648880995769319,-1.8232746287205612,1.862596108242272,-0.000306111729575,-0.0015331604182213,0.0007719850167677,0.0017436301572002,,,,,,,,,,,,,,,,,,,,,,,,,,,,,
1720702092087983708,1720702092.0,87805398.0,229.0755666685345,119.6019216089176,1906.3652522254704,0.0013408724702656,0.0027269420490063,0.0210654934894839,0.9997734797603528,,,,,,,,,,,,,,,,,,,,,,,,,,,,,,,,,,,,,
1720702092087991313,1720702092.0,87841036.0,,,,,,,,,,,,,,,,0.0117223376466801,0.0357583500570912,-0.0988972258553211,0.1058146212986969,0.0005275818111082,-0.0016566316353588,0.0014330470267686,0.0022530856005963,,,,,,,,,,,,,,,,,,,,,
1720702092088240915,,,,,,,,,,,,,,,,,,,,,,,,,,1380.0,-299.999,1850.0,,,,,,,,,,,,,,,,,,
1720702092088352252,,,,,,,,,,,,,,,,,,,,,,,,,,,,,0.60757,0.386589,0.690858,0.0642143,,,,,,,,,,,,,,
1720702092088784734,,,,,,,,,,,,,,,,,,,,,,,,,,,,,,,,,0.0,,,,,,,,,,,,,
1720702092090375651,,,,,,,,,,,,,,,,,,,,,,,,,,1380.0,-299.996,1850.0,,,,,,,,,,,,,,,,,,
1720702092090495869,,,,,,,,,,,,,,,,,,,,,,,,,,,,,0.607569,0.386589,0.690859,0.0642117,,,,,,,,,,,,,,
1720702092090803801,,,,,,,,,,,,,,,,,,,,,,,,,,,,,,,,,,-24.3884,6.74393,-9.98091,79.5504,52.7279,66.4786,,,,,,,
1720702092092305595,,,,,,,,,,,,,,,,,,,,,,,,,,1380.0,-299.996,1850.0,,,,,,,,,,,,,,,,,,
1720702092092424511,,,,,,,,,,,,,,,,,,,,,,,,,,,,,0.607569,0.386589,0.690859,0.0642117,,,,,,,,,,,,,,
1720702092092805142,,,,,,,,,,,,,,,,,,,,,,,,,,,,,,,,,0.0,,,,,,,,,,,,,
1720702092093075521,,,,,,,,,,,,,,,,,,,,,,,,,,,,,,,,,,-24.3884,6.74393,-9.98091,79.5504,52.7279,66.4786,,,,,,,
1720702092094369715,,,,,,,,,,,,,,,,,,,,,,,,,,1380.0,-300.0,1850.0,,,,,,,,,,,,,,,,,,
1720702092094504085,,,,,,,,,,,,,,,,,,,,,,,,,,,,,0.60757,0.38659,0.690857,0.0642156,,,,,,,,,,,,,,
1720702092094778417,,,,,,,,,,,,,,,,,,,,,,,,,,,,,,,,,,-24.3884,6.74401,-9.98091,79.5501,52.7278,66.4784,,,,,,,
1720702092096296724,,,,,,,,,,,,,,,,,,,,,,,,,,1380.0,-300.0,1850.0,,,,,,,,,,,,,,,,,,
1720702092096841859,,,,,,,,,,,,,,,,,,,,,,,,,,,,,0.60757,0.38659,0.690857,0.0642156,,,,,,,,,,,,,,
1720702092098041499,1720702092.0,97815587.0,,,,,,,,0.1614778964958985,-0.7400281708300205,-1.5169248455570994,1.6955169688762175,0.000423818338247,0.000785158515163,0.0033195307219344,0.0034373507373607,,,,,,,,,,,,,,,,,,,,,,,,,,,,,
1720702092098054659,1720702092.0,97797425.0,229.07718144749947,119.5945213272093,1906.3500829770144,0.00134302851966,0.0027308445675323,0.0210820878949301,0.9997731164280892,,,,,,,,,,,,,,,,,,,,,,,,,,,,,,,,,,,,,
1720702092098062862,1720702092.0,97822720.0,,,,,,,,,,,,,,,,-0.018166319011581,-0.0575140071253088,0.0306349783163462,0.0676489324267841,0.0007299015902551,0.0023183256498332,0.0025475477523088,0.0035209927151906,,,,,,,,,,,,,,,,,,,,,
1720702092098575261,,,,,,,,,,,,,,,,,,,,,,,,,,1380.0,-300.003,1850.0,,,,,,,,,,,,,,,,,,
1720702092098588166,,,,,,,,,,,,,,,,,,,,,,,,,,,,,0.607571,0.386589,0.690857,0.0642155,,,,,,,,,,,,,,
1720702092100362556,,,,,,,,,,,,,,,,,,,,,,,,,,1380.0,-300.003,1850.0,,,,,,,,,,,,,,,,,,
1720702092100402315,,,,,,,,,,,,,,,,,,,,,,,,,,,,,,,,,0.0,,,,,,,,,,,,,
1720702092100410777,,,,,,,,,,,,,,,,,,,,,,,,,,,,,0.607571,0.386589,0.690857,0.0642155,,,,,,,,,,,,,,
1720702092101240304,,,,,,,,,,,,,,,,,,,,,,,,,,,,,,,,,,-24.3886,6.74393,-9.98087,79.5501,52.7278,66.4785,,,,,,,
1720702092102580530,,,,,,,,,,,,,,,,,,,,,,,,,,1380.0,-300.0,1850.0,,,,,,,,,,,,,,,,,,
1720702092102617796,,,,,,,,,,,,,,,,,,,,,,,,,,,,,0.607568,0.386591,0.690857,0.0642171,,,,,,,,,,,,,,
1720702092104360162,,,,,,,,,,,,,,,,,,,,,,,,,,1380.0,-300.0,1850.0,,,,,,,,,,,,,,,,,,
1720702092104400434,,,,,,,,,,,,,,,,,,,,,,,,,,,,,,,,,0.0,,,,,,,,,,,,,
1720702092104410142,,,,,,,,,,,,,,,,,,,,,,,,,,,,,0.607568,0.386591,0.690857,0.0642171,,,,,,,,,,,,,,
1720702092106560653,,,,,,,,,,,,,,,,,,,,,,,,,,1380.0,-300.002,1850.0,,,,,,,,,,,,,,,,,,
1720702092106572891,,,,,,,,,,,,,,,,,,,,,,,,,,,,,0.60757,0.386589,0.690857,0.0642158,,,,,,,,,,,,,,
1720702092106607224,,,,,,,,,,,,,,,,,,,,,,,,,,,,,,,,,0.0,,,,,,,,,,,,,
1720702092106883041,,,,,,,,,,,,,,,,,,,,,,,,,,,,,,,,,,-24.3886,6.7438,-9.98091,79.5501,52.7278,66.4785,,,,,,,
1720702092108047105,1720702092.0,107804856.0,229.0832353789053,119.58412319389004,1906.3430415877144,0.0013489761974527,0.0027343043491172,0.0210678575414564,0.999773398936758,,,,,,,,,,,,,,,,,,,,,,,,,,,,,,,,,,,,,
1720702092108097195,1720702092.0,107833935.0,,,,,,,,0.6053931405819446,-1.0398133319267089,-0.7041389300299628,1.394103386661095,0.0011668297284954,0.0007205452733505,-0.0028489352623424,0.0031618205570947,,,,,,,,,,,,,,,,,,,,,,,,,,,,,
1720702092108105297,1720702092.0,107842533.0,,,,,,,,,,,,,,,,0.0443915244086046,-0.0299785161096688,0.0812785915527136,0.0973423253895769,0.000742988246531,-6.458783803184431e-05,-0.0061684690379814,0.0062133898474054,,,,,,,,,,,,,,,,,,,,,
1720702092108341618,,,,,,,,,,,,,,,,,,,,,,,,,,1380.0,-300.002,1850.0,,,,,,,,,,,,,,,,,,
1720702092108355145,,,,,,,,,,,,,,,,,,,,,,,,,,,,,0.60757,0.386589,0.690857,0.0642158,,,,,,,,,,,,,,
1720702092108393189,,,,,,,,,,,,,,,,,,,,,,,,,,,,,,,,,0.0,,,,,,,,,,,,,
1720702092108647501,,,,,,,,,,,,,,,,,,,,,,,,,,,,,,,,,,-24.3886,6.7438,-9.98091,79.5501,52.7278,66.4785,,,,,,,
1720702092110495629,,,,,,,,,,,,,,,,,,,,,,,,,,1380.0,-300.001,1850.0,,,,,,,,,,,,,,,,,,
1720702092110507649,,,,,,,,,,,,,,,,,,,,,,,,,,,,,0.607572,0.386591,0.690855,0.0642161,,,,,,,,,,,,,,
1720702092110796189,,,,,,,,,,,,,,,,,,,,,,,,,,,,,,,,,,-24.3884,6.74401,-9.98087,79.5496,52.7277,66.4787,,,,,,,
1720702092112421741,,,,,,,,,,,,,,,,,,,,,,,,,,1380.0,-300.001,1850.0,,,,,,,,,,,,,,,,,,
1720702092112433438,,,,,,,,,,,,,,,,,,,,,,,,,,,,,0.607572,0.386591,0.690855,0.0642161,,,,,,,,,,,,,,
1720702092112468357,,,,,,,,,,,,,,,,,,,,,,,,,,,,,,,,,,-24.3884,6.74401,-9.98087,79.5496,52.7277,66.4787,,,,,,,
1720702092113895263,,,,,,,,,,,,,,,,,,,,,,,,,,1380.0,-299.998,1850.0,,,,,,,,,,,,,,,,,,
1720702092113914104,,,,,,,,,,,,,,,,,,,,,,,,,,,,,0.607569,0.386589,0.690859,0.0642141,,,,,,,,,,,,,,
1720702092113955664,,,,,,,,,,,,,,,,,,,,,,,,,,,,,,,,,0.0,,,,,,,,,,,,,
1720702092114149975,,,,,,,,,,,,,,,,,,,,,,,,,,,,,,,,,,-24.3884,6.74372,-9.98091,79.5504,52.7278,66.4785,,,,,,,
1720702092115390283,,,,,,,,,,,,,,,,,,,,,,,,,,1380.0,-299.998,1850.0,,,,,,,,,,,,,,,,,,
1720702092115401644,,,,,,,,,,,,,,,,,,,,,,,,,,,,,0.607569,0.386589,0.690859,0.0642141,,,,,,,,,,,,,,
1720702092115496112,,,,,,,,,,,,,,,,,,,,,,,,,,,,,,,,,,-24.3884,6.74372,-9.98091,79.5504,52.7278,66.4785,,,,,,,
1720702092117888988,1720702092.0,117809500.0,229.0829395223126,119.58573309840408,1906.34770495243,0.0013417775456873,0.0027292749564768,0.0210603757493701,0.9997735799992542,,,,,,,,,,,,,,,,,,,,,,,,,,,,,,,,,,,,,
1720702092117903763,,,,,,,,,,,,,,,,,,,,,,,,,,1380.0,-299.999,1850.0,,,,,,,,,,,,,,,,,,
1720702092117942419,1720702092.0,117827493.0,,,,,,,,-0.0295856592669174,0.1609904514046634,0.4663364715939977,0.494229644412873,-0.0014223527522838,-0.0010340630930358,-0.0014942025058849,0.0023075993935042,,,,,,,,,,,,,,,,,,,,,,,,,,,,,
1720702092117950648,1720702092.0,117834717.0,,,,,,,,,,,,,,,,-0.0634978799848862,0.1200803783331372,0.117047540162396,0.1793081277613262,-0.0025892025936658,-0.0017545793878871,0.0013547318479046,0.0034084919362045,,,,,,,,,,,,,,,,,,,,,
1720702092117958623,,,,,,,,,,,,,,,,,,,,,,,,,,,,,,,,,,-24.3884,6.74401,-9.98087,79.5504,52.7279,66.479,,,,,,,
1720702092119345463,,,,,,,,,,,,,,,,,,,,,,,,,,1380.0,-299.999,1850.0,,,,,,,,,,,,,,,,,,
1720702092119358898,,,,,,,,,,,,,,,,,,,,,,,,,,,,,0.607571,0.386587,0.690859,0.0642098,,,,,,,,,,,,,,
1720702092119391486,,,,,,,,,,,,,,,,,,,,,,,,,,,,,,,,,0.0,,,,,,,,,,,,,
1720702092120419028,,,,,,,,,,,,,,,,,,,,,,,,,,1380.0,-299.999,1850.0,,,,,,,,,,,,,,,,,,
1720702092120431485,,,,,,,,,,,,,,,,,,,,,,,,,,,,,0.607571,0.386587,0.690859,0.0642098,,,,,,,,,,,,,,
1720702092120656770,,,,,,,,,,,,,,,,,,,,,,,,,,,,,,,,,,-24.3884,6.74401,-9.98087,79.5504,52.7279,66.479,,,,,,,
1720702092122557993,,,,,,,,,,,,,,,,,,,,,,,,,,1380.0,-300.002,1850.0,,,,,,,,,,,,,,,,,,
1720702092122599204,,,,,,,,,,,,,,,,,,,,,,,,,,,,,,,,,0.0,,,,,,,,,,,,,
1720702092122610894,,,,,,,,,,,,,,,,,,,,,,,,,,,,,0.607572,0.386587,0.690857,0.0642135,,,,,,,,,,,,,,
1720702092122863120,,,,,,,,,,,,,,,,,,,,,,,,,,,,,,,,,,-24.3886,6.7438,-9.98091,79.5501,52.7278,66.4789,,,,,,,
1720702092124365417,,,,,,,,,,,,,,,,,,,,,,,,,,1380.0,-300.002,1850.0,,,,,,,,,,,,,,,,,,
1720702092124379694,,,,,,,,,,,,,,,,,,,,,,,,,,,,,0.607572,0.386587,0.690857,0.0642135,,,,,,,,,,,,,,
1720702092124600086,,,,,,,,,,,,,,,,,,,,,,,,,,,,,,,,,,-24.3886,6.7438,-9.98091,79.5501,52.7278,66.4789,,,,,,,
1720702092126512430,,,,,,,,,,,,,,,,,,,,,,,,,,1380.0,-299.999,1850.0,,,,,,,,,,,,,,,,,,
1720702092126524704,,,,,,,,,,,,,,,,,,,,,,,,,,,,,0.607571,0.386588,0.690857,0.0642115,,,,,,,,,,,,,,
1720702092126557285,,,,,,,,,,,,,,,,,,,,,,,,,,,,,,,,,0.0,,,,,,,,,,,,,
1720702092126789814,,,,,,,,,,,,,,,,,,,,,,,,,,,,,,,,,,-24.3884,6.74401,-9.98091,79.5501,52.7279,66.479,,,,,,,
1720702092128031204,1720702092.0,127810836.0,,,,,,,,-1.2762605432287133,1.6033562490566644,2.54805282358106,3.269887678093992,0.0013907212114002,-6.643992356548674e-06,0.0029719932964264,0.003281294528761,,,,,,,,,,,,,,,,,,,,,,,,,,,,,
1720702092128042345,1720702092.0,127793839.0,229.07017691688037,119.60176666089464,1906.373185480666,0.0013486883205687,0.0027291152368824,0.0210752513713002,0.9997732576686948,,,,,,,,,,,,,,,,,,,,,,,,,,,,,,,,,,,,,
1720702092128053670,1720702092.0,127817418.0,,,,,,,,,,,,,,,,-0.1246674883961795,0.1442365797652001,0.2081716351987061,0.2822793001739194,0.0028130585478648,0.0010274298466603,0.0044662030400019,0.0053773487963909,,,,,,,,,,,,,,,,,,,,,
1720702092128174985,,,,,,,,,,,,,,,,,,,,,,,,,,1380.0,-299.999,1850.0,,,,,,,,,,,,,,,,,,
1720702092128256819,,,,,,,,,,,,,,,,,,,,,,,,,,,,,0.607571,0.386588,0.690857,0.0642115,,,,,,,,,,,,,,
1720702092128336902,,,,,,,,,,,,,,,,,,,,,,,,,,,,,,,,,0.0,,,,,,,,,,,,,
1720702092130426814,,,,,,,,,,,,,,,,,,,,,,,,,,1380.0,-300.002,1850.0,,,,,,,,,,,,,,,,,,
1720702092130483200,,,,,,,,,,,,,,,,,,,,,,,,,,,,,0.60757,0.38659,0.690857,0.0642149,,,,,,,,,,,,,,
1720702092130548294,,,,,,,,,,,,,,,,,,,,,,,,,,,,,,,,,0.0,,,,,,,,,,,,,
1720702092130767734,,,,,,,,,,,,,,,,,,,,,,,,,,,,,,,,,,-24.3886,6.74401,-9.981,79.5501,52.7279,66.4786,,,,,,,
1720702092132221592,,,,,,,,,,,,,,,,,,,,,,,,,,1380.0,-300.002,1850.0,,,,,,,,,,,,,,,,,,
1720702092132307133,,,,,,,,,,,,,,,,,,,,,,,,,,,,,0.60757,0.38659,0.690857,0.0642149,,,,,,,,,,,,,,
1720702092132490306,,,,,,,,,,,,,,,,,,,,,,,,,,,,,,,,,,-24.3886,6.74401,-9.981,79.5501,52.7279,66.4786,,,,,,,
1720702092134390071,,,,,,,,,,,,,,,,,,,,,,,,,,1380.0,-300.0,1850.0,,,,,,,,,,,,,,,,,,
1720702092134450192,,,,,,,,,,,,,,,,,,,,,,,,,,,,,0.60757,0.38659,0.690857,0.0642148,,,,,,,,,,,,,,
1720702092134517164,,,,,,,,,,,,,,,,,,,,,,,,,,,,,,,,,0.0,,,,,,,,,,,,,
1720702092134743954,,,,,,,,,,,,,,,,,,,,,,,,,,,,,,,,,,-24.3884,6.74393,-9.98087,79.5501,52.7278,66.4785,,,,,,,
1720702092136193996,,,,,,,,,,,,,,,,,,,,,,,,,,1380.0,-300.0,1850.0,,,,,,,,,,,,,,,,,,
1720702092136284187,,,,,,,,,,,,,,,,,,,,,,,,,,,,,0.60757,0.38659,0.690857,0.0642148,,,,,,,,,,,,,,
1720702092136343621,,,,,,,,,,,,,,,,,,,,,,,,,,,,,,,,,0.0,,,,,,,,,,,,,
1720702092136525078,,,,,,,,,,,,,,,,,,,,,,,,,,,,,,,,,,-24.3884,6.74393,-9.98087,79.5501,52.7278,66.4785,,,,,,,
1720702092138140117,1720702092.0,138053323.0,,,,,,,,-0.0724439994520542,0.7337815125227354,1.2095470668604946,1.4165759944766776,-0.0027804768455622,0.0011334015476021,-0.001080838119911,0.0031912163195665,,,,,,,,,,,,,,,,,,,,,,,,,,,,,
1720702092138151886,1720702092.0,137959562.0,229.06945247688583,119.60910447601988,1906.3852809513344,0.0013349232707003,0.0027350666669957,0.021069802819141,0.9997733747201668,,,,,,,,,,,,,,,,,,,,,,,,,,,,,,,,,,,,,
1720702092138160987,1720702092.0,138070583.0,,,,,,,,,,,,,,,,0.1203816543776659,-0.0869574736533929,-0.1338505756720565,0.199923289145175,-0.0041712148632449,0.0011400117378535,-0.004052823627367,0.0059265537669327,,,,,,,,,,,,,,,,,,,,,
1720702092138333485,,,,,,,,,,,,,,,,,,,,,,,,,,1380.0,-299.997,1850.0,,,,,,,,,,,,,,,,,,
1720702092138428740,,,,,,,,,,,,,,,,,,,,,,,,,,,,,0.607569,0.386592,0.690857,0.0642161,,,,,,,,,,,,,,
1720702092138485155,,,,,,,,,,,,,,,,,,,,,,,,,,,,,,,,,0.0,,,,,,,,,,,,,
1720702092138657675,,,,,,,,,,,,,,,,,,,,,,,,,,,,,,,,,,-24.3884,6.7438,-9.98091,79.5501,52.7278,66.4783,,,,,,,
1720702092140159459,,,,,,,,,,,,,,,,,,,,,,,,,,1380.0,-299.997,1850.0,,,,,,,,,,,,,,,,,,
1720702092140277058,,,,,,,,,,,,,,,,,,,,,,,,,,,,,0.607569,0.386592,0.690857,0.0642161,,,,,,,,,,,,,,
1720702092140649972,,,,,,,,,,,,,,,,,,,,,,,,,,,,,,,,,,-24.3884,6.7438,-9.98091,79.5501,52.7278,66.4783,,,,,,,
1720702092141767730,,,,,,,,,,,,,,,,,,,,,,,,,,1380.0,-299.999,1850.0,,,,,,,,,,,,,,,,,,
1720702092141780749,,,,,,,,,,,,,,,,,,,,,,,,,,,,,0.60757,0.386589,0.690857,0.0642139,,,,,,,,,,,,,,
1720702092142024438,,,,,,,,,,,,,,,,,,,,,,,,,,,,,,,,,,-24.3884,6.7438,-9.98091,79.5501,52.7278,66.4783,,,,,,,
1720702092143427325,,,,,,,,,,,,,,,,,,,,,,,,,,1380.0,-299.999,1850.0,,,,,,,,,,,,,,,,,,
1720702092143440960,,,,,,,,,,,,,,,,,,,,,,,,,,,,,0.60757,0.386589,0.690857,0.0642139,,,,,,,,,,,,,,
1720702092143677251,,,,,,,,,,,,,,,,,,,,,,,,,,,,,,,,,,-24.3884,6.7438,-9.98091,79.5501,52.7278,66.4787,,,,,,,
1720702092145682242,,,,,,,,,,,,,,,,,,,,,,,,,,1380.0,-299.999,1850.0,,,,,,,,,,,,,,,,,,
1720702092145719765,,,,,,,,,,,,,,,,,,,,,,,,,,,,,0.60757,0.38659,0.690857,0.0642156,,,,,,,,,,,,,,
1720702092145928458,,,,,,,,,,,,,,,,,,,,,,,,,,,,,,,,,,-24.3884,6.7438,-9.98091,79.5501,52.7278,66.4787,,,,,,,
1720702092147371769,,,,,,,,,,,,,,,,,,,,,,,,,,1380.0,-300.0,1850.0,,,,,,,,,,,,,,,,,,
1720702092147386584,,,,,,,,,,,,,,,,,,,,,,,,,,,,,0.60757,0.38659,0.690857,0.0642156,,,,,,,,,,,,,,
1720702092147441759,,,,,,,,,,,,,,,,,,,,,,,,,,,,,,,,,,-24.3884,6.74393,-9.98091,79.5501,52.7278,66.4784,,,,,,,
1720702092148042847,1720702092.0,147960880.0,,,,,,,,0.400412109322068,0.0717497057517446,0.0158351282308899,0.407097812390706,0.0028924924993624,-0.0003645394596464,-0.0012094789976388,0.0031563018427008,,,,,,,,,,,,,,,,,,,,,,,,,,,,,
1720702092148053951,1720702092.0,147876712.0,229.07345659797903,119.6098219730774,1906.385439302617,0.0013493605916264,0.0027329315883849,0.021063798780982,0.9997734876920078,,,,,,,,,,,,,,,,,,,,,,,,,,,,,,,,,,,,,
1720702092148066151,1720702092.0,147976166.0,,,,,,,,,,,,,,,,0.0472856108774122,-0.066203180677099,-0.1193711938629604,0.1444585478678335,0.0056729605206188,-0.0014979734534353,-0.0001286522015323,0.0058688122243479,,,,,,,,,,,,,,,,,,,,,
1720702092149577938,,,,,,,,,,,,,,,,,,,,,,,,,,1380.0,-300.0,1850.0,,,,,,,,,,,,,,,,,,
1720702092149674806,,,,,,,,,,,,,,,,,,,,,,,,,,,,,0.607571,0.386588,0.690857,0.0642131,,,,,,,,,,,,,,
1720702092149761204,,,,,,,,,,,,,,,,,,,,,,,,,,,,,,,,,0.0,,,,,,,,,,,,,
1720702092149934549,,,,,,,,,,,,,,,,,,,,,,,,,,,,,,,,,,-24.3884,6.74393,-9.98091,79.5501,52.7278,66.4784,,,,,,,
1720702092151248659,,,,,,,,,,,,,,,,,,,,,,,,,,1380.0,-300.002,1850.0,,,,,,,,,,,,,,,,,,
1720702092151299609,,,,,,,,,,,,,,,,,,,,,,,,,,,,,0.607571,0.386588,0.690857,0.0642131,,,,,,,,,,,,,,
1720702092151559870,,,,,,,,,,,,,,,,,,,,,,,,,,,,,,,,,,-24.3886,6.74393,-9.98087,79.5501,52.7279,66.4788,,,,,,,
1720702092154113287,,,,,,,,,,,,,,,,,,,,,,,,,,1380.0,-300.0,1850.0,,,,,,,,,,,,,,,,,,
1720702092154183937,,,,,,,,,,,,,,,,,,,,,,,,,,,,,0.607571,0.386588,0.690857,0.0642155,,,,,,,,,,,,,,
1720702092154261114,,,,,,,,,,,,,,,,,,,,,,,,,,,,,,,,,0.0,,,,,,,,,,,,,
1720702092154433066,,,,,,,,,,,,,,,,,,,,,,,,,,,,,,,,,,-24.3884,6.7438,-9.98087,79.5501,52.7276,66.4786,,,,,,,
1720702092155267402,,,,,,,,,,,,,,,,,,,,,,,,,,1380.0,-300.0,1850.0,,,,,,,,,,,,,,,,,,
1720702092155455159,,,,,,,,,,,,,,,,,,,,,,,,,,,,,0.607571,0.386588,0.690857,0.0642155,,,,,,,,,,,,,,
1720702092155633112,,,,,,,,,,,,,,,,,,,,,,,,,,,,,,,,,,-24.3884,6.7438,-9.98087,79.5501,52.7276,66.4786,,,,,,,
1720702092157741448,,,,,,,,,,,,,,,,,,,,,,,,,,1380.0,-300.0,1850.0,,,,,,,,,,,,,,,,,,
1720702092157753980,,,,,,,,,,,,,,,,,,,,,,,,,,,,,0.607571,0.386588,0.690857,0.0642155,,,,,,,,,,,,,,
1720702092158013640,1720702092.0,157828452.0,,,,,,,,0.0269947663916747,-0.3025540074100274,-1.132730915687219,1.1727518800522188,0.000849745937083,-0.000802062605243,0.0020107676561857,0.0023256309138556,,,,,,,,,,,,,,,,,,,,,,,,,,,,,
1720702092158024235,1720702092.0,157804151.0,229.07372654564296,119.6067964330033,1906.37411199346,0.0013534964099521,0.0027288462554252,0.0210738673633665,0.9997732810792324,,,,,,,,,,,,,,,,,,,,,,,,,,,,,,,,,,,,,
1720702092158032830,1720702092.0,157836912.0,,,,,,,,,,,,,,,,-0.0373417342930393,-0.0374303713161772,-0.1148566043918108,0.1264415967523971,-0.0020427550776243,-0.0004375573649464,0.0032202366026238,0.0038385190544866,,,,,,,,,,,,,,,,,,,,,
1720702092158041941,,,,,,,,,,,,,,,,,,,,,,,,,,,,,,,,,,-24.3884,6.7438,-9.98087,79.5501,52.7276,66.4786,,,,,,,
1720702092159288845,,,,,,,,,,,,,,,,,,,,,,,,,,1380.0,-299.997,1850.0,,,,,,,,,,,,,,,,,,
1720702092159359721,,,,,,,,,,,,,,,,,,,,,,,,,,,,,0.607571,0.38659,0.690856,0.0642128,,,,,,,,,,,,,,
1720702092159525214,,,,,,,,,,,,,,,,,,,,,,,,,,,,,,,,,,-24.3884,6.74393,-9.98087,79.5499,52.7279,66.4788,,,,,,,
1720702092161626196,,,,,,,,,,,,,,,,,,,,,,,,,,1380.0,-299.997,1850.0,,,,,,,,,,,,,,,,,,
1720702092161638707,,,,,,,,,,,,,,,,,,,,,,,,,,,,,0.607571,0.38659,0.690856,0.0642128,,,,,,,,,,,,,,
1720702092161859131,,,,,,,,,,,,,,,,,,,,,,,,,,,,,,,,,,-24.3884,6.74393,-9.98087,79.5499,52.7279,66.4788,,,,,,,
1720702092163313361,,,,,,,,,,,,,,,,,,,,,,,,,,1380.0,-299.999,1850.0,,,,,,,,,,,,,,,,,,
1720702092163325947,,,,,,,,,,,,,,,,,,,,,,,,,,,,,0.607569,0.38659,0.690857,0.0642141,,,,,,,,,,,,,,
1720702092163614154,,,,,,,,,,,,,,,,,,,,,,,,,,,,,,,,,,-24.3884,6.74401,-9.981,79.5501,52.7279,66.4786,,,,,,,
1720702092165726028,,,,,,,,,,,,,,,,,,,,,,,,,,1380.0,-299.999,1850.0,,,,,,,,,,,,,,,,,,
1720702092165740006,,,,,,,,,,,,,,,,,,,,,,,,,,,,,0.607569,0.38659,0.690857,0.0642141,,,,,,,,,,,,,,
1720702092165917341,,,,,,,,,,,,,,,,,,,,,,,,,,,,,,,,,,-24.3884,6.74401,-9.981,79.5501,52.7279,66.4786,,,,,,,
1720702092167374828,,,,,,,,,,,,,,,,,,,,,,,,,,1380.0,-300.006,1850.0,,,,,,,,,,,,,,,,,,
1720702092167388636,,,,,,,,,,,,,,,,,,,,,,,,,,,,,0.607571,0.386587,0.690857,0.064217,,,,,,,,,,,,,,
1720702092167571980,,,,,,,,,,,,,,,,,,,,,,,,,,,,,,,,,,-24.3887,6.74393,-9.98091,79.5501,52.7276,66.4786,,,,,,,
1720702092167997149,1720702092.0,167807501.0,,,,,,,,0.2858071508599069,-1.4904109386662534,-2.3016588190483134,2.7569265156840066,-0.0025149524413817,0.0007215898529088,6.208277207062506e-05,0.0026171610513724,,,,,,,,,,,,,,,,,,,,,,,,,,,,,
1720702092168010470,1720702092.0,167783402.0,229.07658461715155,119.59189232361663,1906.3510954052697,0.0013409996849387,0.0027327188054806,0.0210741385071067,0.9997732816263688,,,,,,,,,,,,,,,,,,,,,,,,,,,,,,,,,,,,,
1720702092168019275,1720702092.0,167815698.0,,,,,,,,,,,,,,,,0.0258812384468232,-0.1187856931256226,-0.1168927903361094,0.1686529093358236,-0.0033647058820946,0.0015236269094084,-0.0019486919039515,0.0041761327527513,,,,,,,,,,,,,,,,,,,,,
1720702092169656740,,,,,,,,,,,,,,,,,,,,,,,,,,1380.0,-300.006,1850.0,,,,,,,,,,,,,,,,,,
1720702092169669786,,,,,,,,,,,,,,,,,,,,,,,,,,,,,0.607571,0.386587,0.690857,0.064217,,,,,,,,,,,,,,
1720702092169863572,,,,,,,,,,,,,,,,,,,,,,,,,,,,,,,,,,-24.3887,6.74393,-9.98091,79.5501,52.7276,66.4786,,,,,,,
1720702092171383975,,,,,,,,,,,,,,,,,,,,,,,,,,1380.0,-300.005,1850.0,,,,,,,,,,,,,,,,,,
1720702092171397901,,,,,,,,,,,,,,,,,,,,,,,,,,,,,0.607571,0.386586,0.690859,0.0642137,,,,,,,,,,,,,,
1720702092171612655,,,,,,,,,,,,,,,,,,,,,,,,,,,,,,,,,,-24.3887,6.74401,-9.98091,79.5504,52.7278,66.4787,,,,,,,
1720702092173665889,,,,,,,,,,,,,,,,,,,,,,,,,,1380.0,-300.005,1850.0,,,,,,,,,,,,,,,,,,
1720702092173724728,,,,,,,,,,,,,,,,,,,,,,,,,,,,,0.607571,0.386586,0.690859,0.0642137,,,,,,,,,,,,,,
1720702092173807663,,,,,,,,,,,,,,,,,,,,,,,,,,,,,,,,,0.0,,,,,,,,,,,,,
1720702092175257096,,,,,,,,,,,,,,,,,,,,,,,,,,1380.0,-300.002,1850.0,,,,,,,,,,,,,,,,,,
1720702092175323769,,,,,,,,,,,,,,,,,,,,,,,,,,,,,0.607569,0.38659,0.690857,0.0642168,,,,,,,,,,,,,,
1720702092175553846,,,,,,,,,,,,,,,,,,,,,,,,,,,,,,,,,,-24.3886,6.7438,-9.981,79.5501,52.7278,66.4784,,,,,,,
1720702092177969586,1720702092.0,177820990.0,,,,,,,,0.3149942834707042,-0.6516968360140152,-0.6747613035207323,0.9895620149434288,-2.7254493003727296e-05,0.0005513546225225,-2.800978718347904e-05,0.0005527379807322,,,,,,,,,,,,,,,,,,,,,,,,,,,,,
1720702092177984665,1720702092.0,177797818.0,229.07973455998624,119.5853753552565,1906.3443477922344,0.0013409219226968,0.0027354776375909,0.0210739944206157,0.999773277223217,,,,,,,,,,,,,,,,,,,,,,,,,,,,,,,,,,,,,
1720702092177992312,1720702092.0,177828881.0,,,,,,,,,,,,,,,,0.0029187132610797,0.0838714102652238,0.1626897515527581,0.1830597924375422,0.0024876976761575,-0.0001702355910918,-9.009939407244032e-05,0.0024951428386459,,,,,,,,,,,,,,,,,,,,,
1720702092178039704,,,,,,,,,,,,,,,,,,,,,,,,,,1380.0,-299.999,1850.0,,,,,,,,,,,,,,,,,,
1720702092178111277,,,,,,,,,,,,,,,,,,,,,,,,,,,,,0.60757,0.386588,0.690859,0.064212,,,,,,,,,,,,,,
1720702092178310251,,,,,,,,,,,,,,,,,,,,,,,,,,,,,,,,,,-24.3886,6.7438,-9.981,79.5501,52.7278,66.4784,,,,,,,
1720702092179196226,,,,,,,,,,,,,,,,,,,,,,,,,,1380.0,-299.999,1850.0,,,,,,,,,,,,,,,,,,
1720702092179266672,,,,,,,,,,,,,,,,,,,,,,,,,,,,,0.60757,0.386588,0.690859,0.064212,,,,,,,,,,,,,,
1720702092179330941,,,,,,,,,,,,,,,,,,,,,,,,,,,,,,,,,0.0,,,,,,,,,,,,,
1720702092179522215,,,,,,,,,,,,,,,,,,,,,,,,,,,,,,,,,,-24.3884,6.7438,-9.98071,79.5505,52.7278,66.4785,,,,,,,
1720702092181900570,,,,,,,,,,,,,,,,,,,,,,,,,,1380.0,-299.999,1850.0,,,,,,,,,,,,,,,,,,
1720702092181968689,,,,,,,,,,,,,,,,,,,,,,,,,,,,,0.60757,0.386588,0.690859,0.064212,,,,,,,,,,,,,,
1720702092182153193,,,,,,,,,,,,,,,,,,,,,,,,,,,,,,,,,,-24.3884,6.7438,-9.98071,79.5505,52.7278,66.4785,,,,,,,
1720702092183286987,,,,,,,,,,,,,,,,,,,,,,,,,,1380.0,-299.999,1850.0,,,,,,,,,,,,,,,,,,
1720702092183346759,,,,,,,,,,,,,,,,,,,,,,,,,,,,,0.607567,0.38659,0.690859,0.0642161,,,,,,,,,,,,,,
1720702092183537283,,,,,,,,,,,,,,,,,,,,,,,,,,,,,,,,,,-24.3884,6.74401,-9.98108,79.5504,52.7278,66.4783,,,,,,,
1720702092185711825,,,,,,,,,,,,,,,,,,,,,,,,,,1380.0,-299.999,1850.0,,,,,,,,,,,,,,,,,,
1720702092185799401,,,,,,,,,,,,,,,,,,,,,,,,,,,,,0.607567,0.38659,0.690859,0.0642161,,,,,,,,,,,,,,
1720702092186003087,,,,,,,,,,,,,,,,,,,,,,,,,,,,,,,,,,-24.3884,6.74401,-9.98108,79.5504,52.7278,66.4783,,,,,,,
1720702092187278569,,,,,,,,,,,,,,,,,,,,,,,,,,1380.0,-300.004,1850.0,,,,,,,,,,,,,,,,,,
1720702092187362385,,,,,,,,,,,,,,,,,,,,,,,,,,,,,0.607571,0.386587,0.690857,0.0642165,,,,,,,,,,,,,,
1720702092187422155,,,,,,,,,,,,,,,,,,,,,,,,,,,,,,,,,0.0,,,,,,,,,,,,,
1720702092187923091,1720702092.0,187821756.0,,,,,,,,0.014855038010797,0.541180749728809,1.0286133809600528,1.1623866669578624,0.0015777125855872,-0.0014343216633612,0.0006389491571645,0.0022259181616018,,,,,,,,,,,,,,,,,,,,,,,,,,,,,
1720702092187935252,1720702092.0,187801969.0,229.07988311036635,119.59078716275378,1906.354633926044,0.0013486488234354,0.0027281456954453,0.021077219636329,0.9997732188750694,,,,,,,,,,,,,,,,,,,,,,,,,,,,,,,,,,,,,
1720702092187966886,1720702092.0,187828630.0,,,,,,,,,,,,,,,,-0.0300139245459907,0.1192877585742824,0.1703374684480785,0.2101077299140344,0.0016049686391598,-0.0019856764197572,0.0006669547904128,0.0026388754932966,,,,,,,,,,,,,,,,,,,,,
1720702092189515527,,,,,,,,,,,,,,,,,,,,,,,,,,1380.0,-300.004,1850.0,,,,,,,,,,,,,,,,,,
1720702092189584336,,,,,,,,,,,,,,,,,,,,,,,,,,,,,0.607571,0.386587,0.690857,0.0642165,,,,,,,,,,,,,,
1720702092189776936,,,,,,,,,,,,,,,,,,,,,,,,,,,,,,,,,,-24.3886,6.74393,-9.98091,79.5501,52.7276,66.4786,,,,,,,
1720702092191320315,,,,,,,,,,,,,,,,,,,,,,,,,,1380.0,-299.998,1850.0,,,,,,,,,,,,,,,,,,
1720702092191398380,,,,,,,,,,,,,,,,,,,,,,,,,,,,,0.60757,0.386589,0.690858,0.0642115,,,,,,,,,,,,,,
1720702092193546273,,,,,,,,,,,,,,,,,,,,,,,,,,1380.0,-299.998,1850.0,,,,,,,,,,,,,,,,,,
1720702092193658419,,,,,,,,,,,,,,,,,,,,,,,,,,,,,0.60757,0.386589,0.690858,0.0642115,,,,,,,,,,,,,,
1720702092193852230,,,,,,,,,,,,,,,,,,,,,,,,,,,,,,,,,,-24.3884,6.7438,-9.98079,79.5504,52.7279,66.4786,,,,,,,
1720702092195248167,,,,,,,,,,,,,,,,,,,,,,,,,,1380.0,-299.998,1850.0,,,,,,,,,,,,,,,,,,
1720702092195317522,,,,,,,,,,,,,,,,,,,,,,,,,,,,,0.60757,0.386589,0.690857,0.0642134,,,,,,,,,,,,,,
1720702092195548876,,,,,,,,,,,,,,,,,,,,,,,,,,,,,,,,,,-24.3884,6.74401,-9.98091,79.5501,52.7278,66.4787,,,,,,,
1720702092197548394,,,,,,,,,,,,,,,,,,,,,,,,,,1380.0,-299.998,1850.0,,,,,,,,,,,,,,,,,,
1720702092197614883,,,,,,,,,,,,,,,,,,,,,,,,,,,,,0.60757,0.386589,0.690857,0.0642134,,,,,,,,,,,,,,
1720702092197674451,,,,,,,,,,,,,,,,,,,,,,,,,,,,,,,,,0.0,,,,,,,,,,,,,
1720702092197876902,,,,,,,,,,,,,,,,,,,,,,,,,,,,,,,,,,-24.3884,6.74401,-9.98091,79.5501,52.7278,66.4787,,,,,,,
1720702092198130177,1720702092.0,198052959.0,,,,,,,,-0.2674223825355204,0.5400410441100401,1.473230431137118,1.591718242413806,-0.0001434859819083,0.0005670878545277,-0.0011286461220993,0.0012712273324181,,,,,,,,,,,,,,,,,,,,,,,,,,,,,
1720702092198141866,1720702092.0,197958283.0,229.077208886541,119.59618757319488,1906.3693662303556,0.0013480067149297,0.0027309880023301,0.0210715719038058,0.9997733310305544,,,,,,,,,,,,,,,,,,,,,,,,,,,,,,,,,,,,,
1720702092198153208,1720702092.0,198069447.0,,,,,,,,,,,,,,,,-0.0282277420546317,-0.0001139705618768,0.0444617050177065,0.0526655639281812,-0.0017211922849873,0.0020014179628703,-0.0017675918347515,0.003176878599865,,,,,,,,,,,,,,,,,,,,,
1720702092199283105,,,,,,,,,,,,,,,,,,,,,,,,,,1380.0,-299.998,1850.0,,,,,,,,,,,,,,,,,,
1720702092199369494,,,,,,,,,,,,,,,,,,,,,,,,,,,,,0.60757,0.38659,0.690857,0.0642145,,,,,,,,,,,,,,
1720702092199643393,,,,,,,,,,,,,,,,,,,,,,,,,,,,,,,,,,-24.3884,6.74393,-9.98091,79.5501,52.7278,66.4785,,,,,,,
1720702092201766008,,,,,,,,,,,,,,,,,,,,,,,,,,1380.0,-299.998,1850.0,,,,,,,,,,,,,,,,,,
1720702092201939301,,,,,,,,,,,,,,,,,,,,,,,,,,,,,0.60757,0.38659,0.690857,0.0642145,,,,,,,,,,,,,,
1720702092203337117,,,,,,,,,,,,,,,,,,,,,,,,,,1380.0,-299.999,1850.0,,,,,,,,,,,,,,,,,,
1720702092203439410,,,,,,,,,,,,,,,,,,,,,,,,,,,,,0.607569,0.386589,0.690858,0.0642139,,,,,,,,,,,,,,
1720702092205683314,,,,,,,,,,,,,,,,,,,,,,,,,,1380.0,-299.999,1850.0,,,,,,,,,,,,,,,,,,
1720702092205824311,,,,,,,,,,,,,,,,,,,,,,,,,,,,,0.607569,0.386589,0.690858,0.0642139,,,,,,,,,,,,,,
1720702092205920673,,,,,,,,,,,,,,,,,,,,,,,,,,,,,,,,,0.0,,,,,,,,,,,,,
1720702092206206120,,,,,,,,,,,,,,,,,,,,,,,,,,,,,,,,,,-24.3884,6.7438,-9.98087,79.5504,52.7278,66.4785,,,,,,,
1720702092207320242,,,,,,,,,,,,,,,,,,,,,,,,,,1380.0,-299.998,1850.0,,,,,,,,,,,,,,,,,,
1720702092207379668,,,,,,,,,,,,,,,,,,,,,,,,,,,,,0.60757,0.386591,0.690856,0.0642147,,,,,,,,,,,,,,
1720702092207578144,,,,,,,,,,,,,,,,,,,,,,,,,,,,,,,,,,-24.3884,6.7438,-9.98091,79.5499,52.7279,66.4786,,,,,,,
1720702092208040696,1720702092.0,207927749.0,229.074438842558,119.6002667007679,1906.3778240851807,0.0013353487442509,0.0027350399617531,0.0210654487634641,0.9997734659754344,,,,,,,,,,,,,,,,,,,,,,,,,,,,,,,,,,,,,
1720702092208065160,1720702092.0,207985124.0,,,,,,,,-0.2770043982996961,0.4079127573011765,0.8457854825394406,0.979018557904241,-0.0025514773587712,0.000758440626349,-0.0012169130164255,0.0029267979406793,,,,,,,,,,,,,,,,,,,,,,,,,,,,,
1720702092208071113,1720702092.0,207994466.0,,,,,,,,,,,,,,,,-0.0009582015764175,-0.0132128286808863,-0.0627444948597677,0.0641277523948791,-0.0024079905472228,0.0001913662973734,-8.826020395771866e-05,0.0024171945306259,,,,,,,,,,,,,,,,,,,,,
1720702092209170223,,,,,,,,,,,,,,,,,,,,,,,,,,1380.0,-299.998,1850.0,,,,,,,,,,,,,,,,,,
1720702092209585504,,,,,,,,,,,,,,,,,,,,,,,,,,,,,,,,,0.0,,,,,,,,,,,,,
1720702092209747856,,,,,,,,,,,,,,,,,,,,,,,,,,,,,,,,,,-24.3884,6.7438,-9.98091,79.5499,52.7279,66.4786,,,,,,,
1720702092211294257,,,,,,,,,,,,,,,,,,,,,,,,,,1380.0,-299.999,1850.0,,,,,,,,,,,,,,,,,,
1720702092211349650,,,,,,,,,,,,,,,,,,,,,,,,,,,,,0.607571,0.386587,0.690857,0.0642122,,,,,,,,,,,,,,
1720702092211416519,,,,,,,,,,,,,,,,,,,,,,,,,,,,,,,,,0.0,,,,,,,,,,,,,
1720702092211671101,,,,,,,,,,,,,,,,,,,,,,,,,,,,,,,,,,-24.3884,6.7438,-9.98091,79.5501,52.7278,66.479,,,,,,,
1720702092213238654,,,,,,,,,,,,,,,,,,,,,,,,,,1380.0,-299.999,1850.0,,,,,,,,,,,,,,,,,,
1720702092213264383,,,,,,,,,,,,,,,,,,,,,,,,,,,,,0.607571,0.386587,0.690857,0.0642122,,,,,,,,,,,,,,
1720702092213666784,,,,,,,,,,,,,,,,,,,,,,,,,,,,,,,,,0.0,,,,,,,,,,,,,
1720702092213863053,,,,,,,,,,,,,,,,,,,,,,,,,,,,,,,,,,-24.3884,6.7438,-9.98091,79.5501,52.7278,66.479,,,,,,,
1720702092215374989,,,,,,,,,,,,,,,,,,,,,,,,,,1380.0,-300.001,1850.0,,,,,,,,,,,,,,,,,,
1720702092215476506,,,,,,,,,,,,,,,,,,,,,,,,,,,,,0.60757,0.38659,0.690857,0.0642149,,,,,,,,,,,,,,
1720702092215721645,,,,,,,,,,,,,,,,,,,,,,,,,,,,,,,,,,-24.3886,6.7438,-9.981,79.5501,52.7279,66.4786,,,,,,,
1720702092217270554,,,,,,,,,,,,,,,,,,,,,,,,,,1380.0,-300.001,1850.0,,,,,,,,,,,,,,,,,,
1720702092217345587,,,,,,,,,,,,,,,,,,,,,,,,,,,,,0.60757,0.38659,0.690857,0.0642149,,,,,,,,,,,,,,
1720702092217897631,,,,,,,,,,,,,,,,,,,,,,,,,,,,,,,,,,-24.3886,6.7438,-9.981,79.5501,52.7279,66.4786,,,,,,,
1720702092218021648,1720702092.0,217951007.0,,,,,,,,-0.5351255240371167,0.7655727630853648,0.4188501201873862,1.0236681128349885,0.0005718581625688,-0.0006799452803384,0.0009588545457837,0.0013071914099784,,,,,,,,,,,,,,,,,,,,,,,,,,,,,
1720702092218033596,1720702092.0,217862939.0,229.06908758731765,119.60792242839877,1906.3820125863824,0.0013381226580187,0.0027315871752286,0.0210702543097722,0.9997733704408104,,,,,,,,,,,,,,,,,,,,,,,,,,,,,,,,,,,,,
1720702092218040959,1720702092.0,217966488.0,,,,,,,,,,,,,,,,-0.025812112573742,0.0357660005784188,-0.0426935362352054,0.0613857474432118,0.0031233350203446,-0.0014383771536957,0.002175774067903,0.0040691698514739,,,,,,,,,,,,,,,,,,,,,
1720702092219339306,,,,,,,,,,,,,,,,,,,,,,,,,,1380.0,-300.002,1850.0,,,,,,,,,,,,,,,,,,
1720702092219484643,,,,,,,,,,,,,,,,,,,,,,,,,,,,,0.607571,0.386589,0.690857,0.0642155,,,,,,,,,,,,,,
1720702092219721759,,,,,,,,,,,,,,,,,,,,,,,,,,,,,,,,,,-24.3886,6.7438,-9.98087,79.5501,52.7278,66.4785,,,,,,,
1720702092221281860,,,,,,,,,,,,,,,,,,,,,,,,,,1380.0,-300.002,1850.0,,,,,,,,,,,,,,,,,,
1720702092221381997,,,,,,,,,,,,,,,,,,,,,,,,,,,,,0.607571,0.386589,0.690857,0.0642155,,,,,,,,,,,,,,
1720702092223354977,,,,,,,,,,,,,,,,,,,,,,,,,,1380.0,-300.003,1850.0,,,,,,,,,,,,,,,,,,
1720702092223473021,,,,,,,,,,,,,,,,,,,,,,,,,,,,,0.607572,0.386589,0.690856,0.0642141,,,,,,,,,,,,,,
1720702092223753381,,,,,,,,,,,,,,,,,,,,,,,,,,,,,,,,,,-24.3886,6.74401,-9.98087,79.5499,52.7279,66.4788,,,,,,,
1720702092225329523,,,,,,,,,,,,,,,,,,,,,,,,,,1380.0,-300.003,1850.0,,,,,,,,,,,,,,,,,,
1720702092225417800,,,,,,,,,,,,,,,,,,,,,,,,,,,,,0.607572,0.386589,0.690856,0.0642141,,,,,,,,,,,,,,
1720702092227536557,,,,,,,,,,,,,,,,,,,,,,,,,,1380.0,-299.997,1850.0,,,,,,,,,,,,,,,,,,
1720702092227666655,,,,,,,,,,,,,,,,,,,,,,,,,,,,,0.60757,0.386588,0.690858,0.064209,,,,,,,,,,,,,,
1720702092227981528,1720702092.0,227853810.0,229.07120495111369,119.6069072297383,1906.3758153822016,0.0013515540853249,0.0027263905380118,0.0210741605652487,0.9997732842263084,,,,,,,,,,,,,,,,,,,,,,,,,,,,,,,,,,,,,
1720702092227996033,,,,,,,,,,,,,,,,,,,,,,,,,,,,,,,,,,-24.3884,6.74393,-9.98087,79.5504,52.7281,66.4789,,,,,,,
1720702092228030604,1720702092.0,227935696.0,,,,,,,,0.2117363796044769,-0.1015198660456184,-0.6197204180713456,0.662715605840435,0.0027097326917725,-0.0009834894925746,0.000772708782528,0.0029844566851374,,,,,,,,,,,,,,,,,,,,,,,,,,,,,
1720702092228039780,1720702092.0,227951736.0,,,,,,,,,,,,,,,,0.0746861903641593,-0.0867092629130983,-0.1038570538258731,0.1545406449301755,0.0021378766172732,-0.0003035334304666,-0.0001861393629236,0.0021673248110341,,,,,,,,,,,,,,,,,,,,,
1720702092229307012,,,,,,,,,,,,,,,,,,,,,,,,,,1380.0,-299.997,1850.0,,,,,,,,,,,,,,,,,,
1720702092229428034,,,,,,,,,,,,,,,,,,,,,,,,,,,,,0.60757,0.386588,0.690858,0.064209,,,,,,,,,,,,,,
1720702092231412825,,,,,,,,,,,,,,,,,,,,,,,,,,1380.0,-299.999,1850.0,,,,,,,,,,,,,,,,,,
1720702092231530061,,,,,,,,,,,,,,,,,,,,,,,,,,,,,0.60757,0.386587,0.690859,0.0642122,,,,,,,,,,,,,,
1720702092231824741,,,,,,,,,,,,,,,,,,,,,,,,,,,,,,,,,,-24.3884,6.7438,-9.98087,79.5504,52.7278,66.4787,,,,,,,
1720702092233294813,,,,,,,,,,,,,,,,,,,,,,,,,,1380.0,-299.999,1850.0,,,,,,,,,,,,,,,,,,
1720702092233405571,,,,,,,,,,,,,,,,,,,,,,,,,,,,,0.60757,0.386587,0.690859,0.0642122,,,,,,,,,,,,,,
1720702092234765806,,,,,,,,,,,,,,,,,,,,,,,,,,1380.0,-299.998,1850.0,,,,,,,,,,,,,,,,,,
1720702092234887397,,,,,,,,,,,,,,,,,,,,,,,,,,,,,0.607571,0.386585,0.690859,0.0642115,,,,,,,,,,,,,,
1720702092235176177,,,,,,,,,,,,,,,,,,,,,,,,,,,,,,,,,,-24.3884,6.7438,-9.98079,79.5504,52.7276,66.4789,,,,,,,
1720702092236498189,,,,,,,,,,,,,,,,,,,,,,,,,,1380.0,-299.998,1850.0,,,,,,,,,,,,,,,,,,
1720702092236605084,,,,,,,,,,,,,,,,,,,,,,,,,,,,,0.607571,0.386585,0.690859,0.0642115,,,,,,,,,,,,,,
1720702092238225448,1720702092.0,237959886.0,,,,,,,,0.4861041748155381,-0.8414787910138166,-1.6126658534343363,1.8828369497469144,-0.0012967746681177,0.0013372011324412,-0.0012735903196022,0.002256493676184,,,,,,,,,,,,,,,,,,,,,,,,,,,,,
1720702092238262540,1720702092.0,237862828.0,229.07606599286183,119.59849244182816,1906.359688723668,0.0013452299453746,0.0027332030632342,0.0210677673419554,0.9997734088965532,,,,,,,,,,,,,,,,,,,,,,,,,,,,,,,,,,,,,
1720702092238270870,1720702092.0,237976535.0,,,,,,,,,,,,,,,,0.0274367795211061,-0.0739958924968198,-0.099294543536299,0.1268368059869559,-0.0040065062633949,0.002320702870288,-0.0020462873616352,0.0050621187478342,,,,,,,,,,,,,,,,,,,,,
1720702092238757716,,,,,,,,,,,,,,,,,,,,,,,,,,1380.0,-299.999,1850.0,,,,,,,,,,,,,,,,,,
1720702092238795296,,,,,,,,,,,,,,,,,,,,,,,,,,,,,0.60757,0.38659,0.690857,0.0642136,,,,,,,,,,,,,,
1720702092239130787,,,,,,,,,,,,,,,,,,,,,,,,,,,,,,,,,,-24.3884,6.74401,-9.98091,79.5501,52.7279,66.4786,,,,,,,
1720702092240398312,,,,,,,,,,,,,,,,,,,,,,,,,,1380.0,-299.999,1850.0,,,,,,,,,,,,,,,,,,
1720702092240432707,,,,,,,,,,,,,,,,,,,,,,,,,,,,,0.60757,0.38659,0.690857,0.0642136,,,,,,,,,,,,,,
1720702092240518530,,,,,,,,,,,,,,,,,,,,,,,,,,,,,,,,,,-24.3884,6.74401,-9.98091,79.5501,52.7279,66.4786,,,,,,,
1720702092242798073,,,,,,,,,,,,,,,,,,,,,,,,,,1380.0,-300.003,1850.0,,,,,,,,,,,,,,,,,,
1720702092242834007,,,,,,,,,,,,,,,,,,,,,,,,,,,,,0.607569,0.386589,0.690858,0.0642191,,,,,,,,,,,,,,
1720702092243175978,,,,,,,,,,,,,,,,,,,,,,,,,,,,,,,,,,-24.3886,6.7438,-9.98108,79.5501,52.7276,66.4783,,,,,,,
1720702092244395205,,,,,,,,,,,,,,,,,,,,,,,,,,1380.0,-300.003,1850.0,,,,,,,,,,,,,,,,,,
1720702092244431013,,,,,,,,,,,,,,,,,,,,,,,,,,,,,0.607569,0.386589,0.690858,0.0642191,,,,,,,,,,,,,,
1720702092244488973,,,,,,,,,,,,,,,,,,,,,,,,,,,,,,,,,,-24.3886,6.7438,-9.98108,79.5501,52.7276,66.4783,,,,,,,
1720702092246824318,,,,,,,,,,,,,,,,,,,,,,,,,,1380.0,-299.998,1850.0,,,,,,,,,,,,,,,,,,
1720702092246861610,,,,,,,,,,,,,,,,,,,,,,,,,,,,,0.60757,0.38659,0.690857,0.0642136,,,,,,,,,,,,,,
1720702092247066238,,,,,,,,,,,,,,,,,,,,,,,,,,,,,,,,,,-24.3884,6.7438,-9.98091,79.5501,52.7279,66.4786,,,,,,,
1720702092248283807,1720702092.0,247997850.0,,,,,,,,0.2165129958958678,-0.8827739154185221,-1.125795943779373,1.4469223096508124,-0.000628306779186,0.0005754454591944,0.0020179934555574,0.0021904804203533,,,,,,,,,,,,,,,,,,,,,,,,,,,,,
1720702092248320112,1720702092.0,247910611.0,229.0782311228208,119.58966470267396,1906.3484307642295,0.0013421221620675,0.0027361593968435,0.0210778425646902,0.9997731926255452,,,,,,,,,,,,,,,,,,,,,,,,,,,,,,,,,,,,,
1720702092248329700,1720702092.0,248013881.0,,,,,,,,,,,,,,,,-0.026959117891967,-0.0041295124404705,0.0486869909654963,0.0558056448738234,0.0006684850456365,-0.0007617385877829,0.0032915842447974,0.0034440738628774,,,,,,,,,,,,,,,,,,,,,
1720702092248395340,,,,,,,,,,,,,,,,,,,,,,,,,,1380.0,-299.998,1850.0,,,,,,,,,,,,,,,,,,
1720702092248404013,,,,,,,,,,,,,,,,,,,,,,,,,,,,,0.60757,0.38659,0.690857,0.0642136,,,,,,,,,,,,,,
1720702092248464426,,,,,,,,,,,,,,,,,,,,,,,,,,,,,,,,,0.0,,,,,,,,,,,,,
1720702092248771393,,,,,,,,,,,,,,,,,,,,,,,,,,,,,,,,,,-24.3884,6.7438,-9.98091,79.5501,52.7279,66.4786,,,,,,,
1720702092251299295,,,,,,,,,,,,,,,,,,,,,,,,,,1380.0,-299.996,1850.0,,,,,,,,,,,,,,,,,,
1720702092251337439,,,,,,,,,,,,,,,,,,,,,,,,,,,,,0.60757,0.386588,0.690858,0.064209,,,,,,,,,,,,,,
1720702092251434772,,,,,,,,,,,,,,,,,,,,,,,,,,,,,,,,,,-24.3884,6.74372,-9.98087,79.5504,52.7281,66.4789,,,,,,,
1720702092252468787,,,,,,,,,,,,,,,,,,,,,,,,,,1380.0,-299.996,1850.0,,,,,,,,,,,,,,,,,,
1720702092252830811,,,,,,,,,,,,,,,,,,,,,,,,,,,,,0.60757,0.386588,0.690858,0.064209,,,,,,,,,,,,,,
1720702092253354915,,,,,,,,,,,,,,,,,,,,,,,,,,,,,,,,,,-24.3884,6.74372,-9.98087,79.5504,52.7281,66.4789,,,,,,,
1720702092254947573,,,,,,,,,,,,,,,,,,,,,,,,,,1380.0,-299.999,1850.0,,,,,,,,,,,,,,,,,,
1720702092254984829,,,,,,,,,,,,,,,,,,,,,,,,,,,,,0.607569,0.38659,0.690858,0.0642136,,,,,,,,,,,,,,
1720702092256418388,,,,,,,,,,,,,,,,,,,,,,,,,,1380.0,-299.999,1850.0,,,,,,,,,,,,,,,,,,
1720702092256453987,,,,,,,,,,,,,,,,,,,,,,,,,,,,,0.607569,0.38659,0.690858,0.0642136,,,,,,,,,,,,,,
1720702092256848102,,,,,,,,,,,,,,,,,,,,,,,,,,,,,,,,,,-24.3884,6.74401,-9.98112,79.5501,52.7279,66.4788,,,,,,,
1720702092258160927,1720702092.0,257910304.0,,,,,,,,0.4343313052712627,-0.8119153427452175,-0.5578207108225541,1.0765751956766894,0.0005274938982664,-0.0007344062431077,-0.0010535104251622,0.0013883394968629,,,,,,,,,,,,,,,,,,,,,,,,,,,,,
1720702092258197744,1720702092.0,257847954.0,229.0825744358735,119.58154554924651,1906.3428525571217,0.0013446960476953,0.0027324255365406,0.0210725883516277,0.999773310137548,,,,,,,,,,,,,,,,,,,,,,,,,,,,,,,,,,,,,
1720702092258207982,1720702092.0,257931229.0,,,,,,,,,,,,,,,,0.0217818309375394,0.0070858572673304,0.0567975232956818,0.0612422744901596,0.001155805056395,-0.0013098496895375,-0.0030715030912766,0.0035335142248605,,,,,,,,,,,,,,,,,,,,,
1720702092258836264,,,,,,,,,,,,,,,,,,,,,,,,,,1380.0,-300.003,1850.0,,,,,,,,,,,,,,,,,,
1720702092258874628,,,,,,,,,,,,,,,,,,,,,,,,,,,,,0.607571,0.386588,0.690857,0.0642144,,,,,,,,,,,,,,
1720702092260412252,,,,,,,,,,,,,,,,,,,,,,,,,,1380.0,-300.003,1850.0,,,,,,,,,,,,,,,,,,
1720702092260448753,,,,,,,,,,,,,,,,,,,,,,,,,,,,,0.607571,0.386588,0.690857,0.0642144,,,,,,,,,,,,,,
1720702092260798290,,,,,,,,,,,,,,,,,,,,,,,,,,,,,,,,,,-24.3886,6.74393,-9.98087,79.5501,52.7278,66.4787,,,,,,,
1720702092262911271,,,,,,,,,,,,,,,,,,,,,,,,,,1380.0,-300.003,1850.0,,,,,,,,,,,,,,,,,,
1720702092262948573,,,,,,,,,,,,,,,,,,,,,,,,,,,,,,,,,0.0,,,,,,,,,,,,,
1720702092264424857,,,,,,,,,,,,,,,,,,,,,,,,,,1380.0,-300.003,1850.0,,,,,,,,,,,,,,,,,,
1720702092264462679,,,,,,,,,,,,,,,,,,,,,,,,,,,,,0.60757,0.386589,0.690857,0.0642165,,,,,,,,,,,,,,
1720702092264526829,,,,,,,,,,,,,,,,,,,,,,,,,,,,,,,,,0.0,,,,,,,,,,,,,
1720702092266770239,,,,,,,,,,,,,,,,,,,,,,,,,,1380.0,-300.003,1850.0,,,,,,,,,,,,,,,,,,
1720702092266809264,,,,,,,,,,,,,,,,,,,,,,,,,,,,,0.607569,0.386591,0.690857,0.0642147,,,,,,,,,,,,,,
1720702092266872572,,,,,,,,,,,,,,,,,,,,,,,,,,,,,,,,,0.0,,,,,,,,,,,,,
1720702092268152746,1720702092.0,267900784.0,,,,,,,,-0.5790875825278929,0.6072798525574852,1.1535641538662489,1.4264787080939538,0.0004215142909928,0.0005449210961063,0.0009577693460864,0.0011798031271343,,,,,,,,,,,,,,,,,,,,,,,,,,,,,
1720702092268190388,1720702092.0,267844767.0,229.07678356004823,119.58761834777208,1906.35438819866,0.0013468474706844,0.0027351115518908,0.0210773782074243,0.999773198927932,,,,,,,,,,,,,,,,,,,,,,,,,,,,,,,,,,,,,
1720702092268199765,1720702092.0,267914413.0,,,,,,,,,,,,,,,,-0.1013418887799155,0.1419195195302702,0.1711384864688803,0.2443352410030994,-0.0001059802538339,0.0012793225927735,0.0020112827562674,0.0023860336200989,,,,,,,,,,,,,,,,,,,,,
1720702092268301259,,,,,,,,,,,,,,,,,,,,,,,,,,1380.0,-299.998,1850.0,,,,,,,,,,,,,,,,,,
1720702092268804159,,,,,,,,,,,,,,,,,,,,,,,,,,,,,0.607569,0.386591,0.690857,0.0642147,,,,,,,,,,,,,,
1720702092269288763,,,,,,,,,,,,,,,,,,,,,,,,,,,,,,,,,,-24.3884,6.7438,-9.981,79.5501,52.7279,66.4785,,,,,,,
1720702092271125655,,,,,,,,,,,,,,,,,,,,,,,,,,1380.0,-299.998,1850.0,,,,,,,,,,,,,,,,,,
1720702092271474225,,,,,,,,,,,,,,,,,,,,,,,,,,,,,,,,,,-24.3884,6.7438,-9.981,79.5501,52.7279,66.4785,,,,,,,
1720702092272549937,,,,,,,,,,,,,,,,,,,,,,,,,,1380.0,-299.997,1850.0,,,,,,,,,,,,,,,,,,
1720702092272845388,,,,,,,,,,,,,,,,,,,,,,,,,,,,,,,,,,-24.3884,6.7438,-9.98087,79.5501,52.7278,66.479,,,,,,,
1720702092273416701,,,,,,,,,,,,,,,,,,,,,,,,,,1380.0,-299.997,1850.0,,,,,,,,,,,,,,,,,,
1720702092273453824,,,,,,,,,,,,,,,,,,,,,,,,,,,,,,,,,0.0,,,,,,,,,,,,,
1720702092273460225,,,,,,,,,,,,,,,,,,,,,,,,,,,,,0.607571,0.386588,0.690857,0.0642115,,,,,,,,,,,,,,
1720702092273608654,,,,,,,,,,,,,,,,,,,,,,,,,,,,,,,,,,-24.3884,6.7438,-9.98087,79.5501,52.7278,66.479,,,,,,,
1720702092275385642,,,,,,,,,,,,,,,,,,,,,,,,,,1380.0,-299.998,1850.0,,,,,,,,,,,,,,,,,,
1720702092275417762,,,,,,,,,,,,,,,,,,,,,,,,,,,,,0.607569,0.386591,0.690857,0.0642147,,,,,,,,,,,,,,
1720702092275459635,,,,,,,,,,,,,,,,,,,,,,,,,,,,,,,,,0.0,,,,,,,,,,,,,
1720702092275690667,,,,,,,,,,,,,,,,,,,,,,,,,,,,,,,,,,-24.3884,6.7438,-9.981,79.5501,52.7279,66.4785,,,,,,,
1720702092277301629,,,,,,,,,,,,,,,,,,,,,,,,,,1380.0,-299.998,1850.0,,,,,,,,,,,,,,,,,,
1720702092277312411,,,,,,,,,,,,,,,,,,,,,,,,,,,,,0.607569,0.386591,0.690857,0.0642147,,,,,,,,,,,,,,
1720702092277552828,,,,,,,,,,,,,,,,,,,,,,,,,,,,,,,,,,-24.3884,6.7438,-9.981,79.5501,52.7279,66.4785,,,,,,,
1720702092277985198,1720702092.0,277887165.0,,,,,,,,-0.1772034130209654,1.54200638323998,1.9595323931032027,2.4997903782437216,-0.0013271459496678,-0.0010453640609415,-0.0033371109262755,0.0037403758802954,,,,,,,,,,,,,,,,,,,,,,,,,,,,,
1720702092277995930,1720702092.0,277829898.0,229.07501152591803,119.6030384116045,1906.3739835225915,0.0013401487148764,0.002730003307445,0.0210606853236782,0.9997735736740898,,,,,,,,,,,,,,,,,,,,,,,,,,,,,,,,,,,,,
1720702092278006496,1720702092.0,277907655.0,,,,,,,,,,,,,,,,0.0401884169506927,0.0934726530682494,0.0805968239236953,0.1298002070692,-0.0017486643268816,-0.0015902844793283,-0.0042948788595967,0.0049023276177661,,,,,,,,,,,,,,,,,,,,,
1720702092279421824,,,,,,,,,,,,,,,,,,,,,,,,,,1380.0,-300.004,1850.0,,,,,,,,,,,,,,,,,,
1720702092279499586,,,,,,,,,,,,,,,,,,,,,,,,,,,,,0.60757,0.386589,0.690857,0.0642182,,,,,,,,,,,,,,
1720702092281227687,,,,,,,,,,,,,,,,,,,,,,,,,,1380.0,-300.004,1850.0,,,,,,,,,,,,,,,,,,
1720702092281264082,,,,,,,,,,,,,,,,,,,,,,,,,,,,,0.60757,0.386589,0.690857,0.0642182,,,,,,,,,,,,,,
1720702092281643136,,,,,,,,,,,,,,,,,,,,,,,,,,,,,,,,,,-24.3886,6.74393,-9.98091,79.5501,52.7276,66.4783,,,,,,,
1720702092283370312,,,,,,,,,,,,,,,,,,,,,,,,,,1380.0,-299.998,1850.0,,,,,,,,,,,,,,,,,,
1720702092283403985,,,,,,,,,,,,,,,,,,,,,,,,,,,,,0.607571,0.386589,0.690857,0.0642123,,,,,,,,,,,,,,
1720702092283488978,,,,,,,,,,,,,,,,,,,,,,,,,,,,,,,,,0.0,,,,,,,,,,,,,
1720702092285217746,,,,,,,,,,,,,,,,,,,,,,,,,,1380.0,-299.998,1850.0,,,,,,,,,,,,,,,,,,
1720702092285255191,,,,,,,,,,,,,,,,,,,,,,,,,,,,,0.607571,0.386589,0.690857,0.0642123,,,,,,,,,,,,,,
1720702092285546644,,,,,,,,,,,,,,,,,,,,,,,,,,,,,,,,,,-24.3884,6.7438,-9.98087,79.5501,52.7279,66.4788,,,,,,,
1720702092287389323,,,,,,,,,,,,,,,,,,,,,,,,,,1380.0,-299.999,1850.0,,,,,,,,,,,,,,,,,,
1720702092287454456,,,,,,,,,,,,,,,,,,,,,,,,,,,,,0.607571,0.386588,0.690858,0.0642117,,,,,,,,,,,,,,
1720702092287736314,,,,,,,,,,,,,,,,,,,,,,,,,,,,,,,,,,-24.3884,6.74409,-9.98091,79.5501,52.7278,66.479,,,,,,,
1720702092288187643,1720702092.0,288065543.0,,,,,,,,-0.7070301600464735,1.1025066109365822,1.8792959484592584,2.2906692769296915,0.0006801409953739,-0.0008466013996411,0.0028427694364814,0.0030431338735677,,,,,,,,,,,,,,,,,,,,,,,,,,,,,
1720702092288200769,1720702092.0,287969218.0,229.0679412243176,119.61406347771386,1906.392776482076,0.0013434206958107,0.0027257186860868,0.0210749109068276,0.9997732812036676,,,,,,,,,,,,,,,,,,,,,,,,,,,,,,,,,,,,,
1720702092288216398,1720702092.0,288082636.0,,,,,,,,,,,,,,,,-0.0529826747025508,-0.0439499772303397,-0.0080236444643944,0.069304712593551,0.00200725796036,0.0001987701766542,0.0061798895354503,0.0065007406326452,,,,,,,,,,,,,,,,,,,,,
1720702092289388888,,,,,,,,,,,,,,,,,,,,,,,,,,1380.0,-299.999,1850.0,,,,,,,,,,,,,,,,,,
1720702092289646740,,,,,,,,,,,,,,,,,,,,,,,,,,,,,,,,,,-24.3884,6.74409,-9.98091,79.5501,52.7278,66.479,,,,,,,
1720702092290734433,,,,,,,,,,,,,,,,,,,,,,,,,,1380.0,-299.999,1850.0,,,,,,,,,,,,,,,,,,
1720702092290822301,,,,,,,,,,,,,,,,,,,,,,,,,,,,,0.607572,0.386589,0.690856,0.0642161,,,,,,,,,,,,,,
1720702092291099917,,,,,,,,,,,,,,,,,,,,,,,,,,,,,,,,,,-24.3884,6.74409,-9.98091,79.5501,52.7278,66.479,,,,,,,
1720702092292270885,,,,,,,,,,,,,,,,,,,,,,,,,,1380.0,-300.001,1850.0,,,,,,,,,,,,,,,,,,
1720702092292334353,,,,,,,,,,,,,,,,,,,,,,,,,,,,,0.607572,0.386589,0.690856,0.0642161,,,,,,,,,,,,,,
1720702092292443830,,,,,,,,,,,,,,,,,,,,,,,,,,,,,,,,,0.0,,,,,,,,,,,,,
1720702092294723248,,,,,,,,,,,,,,,,,,,,,,,,,,1380.0,-300.001,1850.0,,,,,,,,,,,,,,,,,,
1720702092294764137,,,,,,,,,,,,,,,,,,,,,,,,,,,,,,,,,0.0,,,,,,,,,,,,,
1720702092296334710,,,,,,,,,,,,,,,,,,,,,,,,,,1380.0,-299.998,1850.0,,,,,,,,,,,,,,,,,,
1720702092296402978,,,,,,,,,,,,,,,,,,,,,,,,,,,,,0.607571,0.386588,0.690857,0.0642123,,,,,,,,,,,,,,
1720702092297196689,,,,,,,,,,,,,,,,,,,,,,,,,,,,,,,,,,-24.3884,6.74393,-9.98091,79.5501,52.7278,66.4789,,,,,,,
1720702092298082260,1720702092.0,297958283.0,,,,,,,,0.135151003402556,-0.3151653425306766,0.070317829847788,0.3500565440720954,0.0009811686166563,0.0014455620116949,-0.0022678541222787,0.002862779017651,,,,,,,,,,,,,,,,,,,,,,,,,,,,,
1720702092298097986,1720702092.0,297868525.0,229.0692927343516,119.61091182428856,1906.3934796603744,0.0013485086596242,0.0027328262335687,0.0210635778668419,0.9997734937837768,,,,,,,,,,,,,,,,,,,,,,,,,,,,,,,,,,,,,
1720702092298106445,1720702092.0,297973819.0,,,,,,,,,,,,,,,,0.0842181163449029,-0.1417671953467258,-0.180897811861147,0.2447746864635134,0.0003010166741155,0.002292185069784,-0.0051106144894657,0.0056091981505535,,,,,,,,,,,,,,,,,,,,,
1720702092299331653,,,,,,,,,,,,,,,,,,,,,,,,,,1380.0,-300.0,1850.0,,,,,,,,,,,,,,,,,,
1720702092299367503,,,,,,,,,,,,,,,,,,,,,,,,,,,,,0.607571,0.38659,0.690856,0.0642148,,,,,,,,,,,,,,
1720702092300453096,,,,,,,,,,,,,,,,,,,,,,,,,,1380.0,-300.0,1850.0,,,,,,,,,,,,,,,,,,
1720702092300543685,,,,,,,,,,,,,,,,,,,,,,,,,,,,,,,,,0.0,,,,,,,,,,,,,
1720702092300558356,,,,,,,,,,,,,,,,,,,,,,,,,,,,,0.607571,0.38659,0.690856,0.0642148,,,,,,,,,,,,,,
1720702092302850796,,,,,,,,,,,,,,,,,,,,,,,,,,1380.0,-300.0,1850.0,,,,,,,,,,,,,,,,,,
1720702092302888314,,,,,,,,,,,,,,,,,,,,,,,,,,,,,,,,,0.0,,,,,,,,,,,,,
1720702092302898379,,,,,,,,,,,,,,,,,,,,,,,,,,,,,0.607571,0.38659,0.690856,0.0642148,,,,,,,,,,,,,,
1720702092303255914,,,,,,,,,,,,,,,,,,,,,,,,,,,,,,,,,,-24.3884,6.74393,-9.98091,79.5499,52.7277,66.4787,,,,,,,
1720702092304415323,,,,,,,,,,,,,,,,,,,,,,,,,,1380.0,-300.0,1850.0,,,,,,,,,,,,,,,,,,
1720702092304449513,,,,,,,,,,,,,,,,,,,,,,,,,,,,,0.607568,0.386591,0.690857,0.0642171,,,,,,,,,,,,,,
1720702092304535049,,,,,,,,,,,,,,,,,,,,,,,,,,,,,,,,,,-24.3884,6.74393,-9.981,79.5501,52.7278,66.4783,,,,,,,
1720702092306685588,,,,,,,,,,,,,,,,,,,,,,,,,,1380.0,-300.0,1850.0,,,,,,,,,,,,,,,,,,
1720702092306720746,,,,,,,,,,,,,,,,,,,,,,,,,,,,,0.607568,0.386591,0.690857,0.0642171,,,,,,,,,,,,,,
1720702092306782770,,,,,,,,,,,,,,,,,,,,,,,,,,,,,,,,,0.0,,,,,,,,,,,,,
1720702092306877221,,,,,,,,,,,,,,,,,,,,,,,,,,,,,,,,,,-24.3884,6.74393,-9.981,79.5501,52.7278,66.4783,,,,,,,
1720702092308213189,1720702092.0,308055380.0,,,,,,,,0.4082377585812313,-0.9556187263837224,-1.8485067848184045,2.1205759951641325,-0.0027477861933053,-0.0018587410247344,0.0002216581763528,0.0033248127027389,,,,,,,,,,,,,,,,,,,,,,,,,,,,,
1720702092308256139,1720702092.0,307960848.0,229.0733751119374,119.60135563702472,1906.374994592526,0.0013345740529773,0.0027238255187319,0.0210646608903092,0.9997735142262058,,,,,,,,,,,,,,,,,,,,,,,,,,,,,,,,,,,,,
1720702092308265177,1720702092.0,308072587.0,,,,,,,,,,,,,,,,0.0273086755178675,-0.0640453383853045,-0.1918824614666192,0.2041236099668947,-0.0037289742845308,-0.0033042729658603,0.0024895230403145,0.0055696673164439,,,,,,,,,,,,,,,,,,,,,
1720702092308324848,,,,,,,,,,,,,,,,,,,,,,,,,,1380.0,-300.003,1850.0,,,,,,,,,,,,,,,,,,
1720702092308332556,,,,,,,,,,,,,,,,,,,,,,,,,,,,,0.607571,0.386587,0.690857,0.0642165,,,,,,,,,,,,,,
1720702092308375503,,,,,,,,,,,,,,,,,,,,,,,,,,,,,,,,,0.0,,,,,,,,,,,,,
1720702092308576756,,,,,,,,,,,,,,,,,,,,,,,,,,,,,,,,,,-24.3886,6.7438,-9.98091,79.5501,52.7276,66.4786,,,,,,,
1720702092310717840,,,,,,,,,,,,,,,,,,,,,,,,,,1380.0,-300.003,1850.0,,,,,,,,,,,,,,,,,,
1720702092310900953,,,,,,,,,,,,,,,,,,,,,,,,,,,,,,,,,,-24.3886,6.7438,-9.98091,79.5501,52.7276,66.4786,,,,,,,
1720702092312297930,,,,,,,,,,,,,,,,,,,,,,,,,,1380.0,-300.004,1850.0,,,,,,,,,,,,,,,,,,
1720702092312390852,,,,,,,,,,,,,,,,,,,,,,,,,,,,,0.607571,0.386587,0.690857,0.0642165,,,,,,,,,,,,,,
1720702092312455165,,,,,,,,,,,,,,,,,,,,,,,,,,,,,,,,,0.0,,,,,,,,,,,,,
1720702092312673052,,,,,,,,,,,,,,,,,,,,,,,,,,,,,,,,,,-24.3886,6.74393,-9.98091,79.5501,52.7276,66.4786,,,,,,,
1720702092314604181,,,,,,,,,,,,,,,,,,,,,,,,,,1380.0,-300.004,1850.0,,,,,,,,,,,,,,,,,,
1720702092314685311,,,,,,,,,,,,,,,,,,,,,,,,,,,,,0.607571,0.386587,0.690857,0.0642165,,,,,,,,,,,,,,
1720702092314797973,,,,,,,,,,,,,,,,,,,,,,,,,,,,,,,,,0.0,,,,,,,,,,,,,
1720702092316263123,,,,,,,,,,,,,,,,,,,,,,,,,,1380.0,-300.002,1850.0,,,,,,,,,,,,,,,,,,
1720702092316332333,,,,,,,,,,,,,,,,,,,,,,,,,,,,,0.607569,0.386591,0.690857,0.0642179,,,,,,,,,,,,,,
1720702092316545792,,,,,,,,,,,,,,,,,,,,,,,,,,,,,,,,,,-24.3886,6.7438,-9.981,79.5501,52.7278,66.4783,,,,,,,
1720702092318169471,1720702092.0,318054999.0,,,,,,,,0.4402306413936463,-1.1200808129441242,-1.678227587520453,2.065146939242376,0.0014909740801763,0.0016182056525955,0.0009230106688301,0.0023861144014116,,,,,,,,,,,,,,,,,,,,,,,,,,,,,
1720702092318181712,1720702092.0,317960961.0,229.07777741835133,119.59015482889528,1906.358212316651,0.0013421850990274,0.0027317638391115,0.0210692844046,0.9997733849528928,,,,,,,,,,,,,,,,,,,,,,,,,,,,,,,,,,,,,
1720702092318189813,1720702092.0,318071927.0,,,,,,,,,,,,,,,,0.0031992882812414,-0.0164462086560401,0.0170279197297951,0.0238885595000796,0.0042387499018261,0.0034769610109055,0.0007013441167007,0.00552703737744,,,,,,,,,,,,,,,,,,,,,
1720702092318461008,,,,,,,,,,,,,,,,,,,,,,,,,,1380.0,-300.002,1850.0,,,,,,,,,,,,,,,,,,
1720702092318546976,,,,,,,,,,,,,,,,,,,,,,,,,,,,,0.607569,0.386591,0.690857,0.0642179,,,,,,,,,,,,,,
1720702092318647579,,,,,,,,,,,,,,,,,,,,,,,,,,,,,,,,,0.0,,,,,,,,,,,,,
1720702092318846418,,,,,,,,,,,,,,,,,,,,,,,,,,,,,,,,,,-24.3886,6.7438,-9.981,79.5501,52.7278,66.4783,,,,,,,
1720702092320211677,,,,,,,,,,,,,,,,,,,,,,,,,,1380.0,-299.999,1850.0,,,,,,,,,,,,,,,,,,
1720702092320314295,,,,,,,,,,,,,,,,,,,,,,,,,,,,,0.60757,0.386589,0.690857,0.0642125,,,,,,,,,,,,,,
1720702092320565017,,,,,,,,,,,,,,,,,,,,,,,,,,,,,,,,,,-24.3884,6.74393,-9.98091,79.5501,52.7279,66.4788,,,,,,,
1720702092323005790,,,,,,,,,,,,,,,,,,,,,,,,,,1380.0,-299.999,1850.0,,,,,,,,,,,,,,,,,,
1720702092323070302,,,,,,,,,,,,,,,,,,,,,,,,,,,,,0.607572,0.386587,0.690858,0.0642098,,,,,,,,,,,,,,
1720702092323133003,,,,,,,,,,,,,,,,,,,,,,,,,,,,,,,,,0.0,,,,,,,,,,,,,
1720702092323318706,,,,,,,,,,,,,,,,,,,,,,,,,,,,,,,,,,-24.3884,6.74393,-9.98091,79.5501,52.7279,66.4788,,,,,,,
1720702092324257231,,,,,,,,,,,,,,,,,,,,,,,,,,1380.0,-299.998,1850.0,,,,,,,,,,,,,,,,,,
1720702092324344437,,,,,,,,,,,,,,,,,,,,,,,,,,,,,0.607572,0.386587,0.690858,0.0642098,,,,,,,,,,,,,,
1720702092324408570,,,,,,,,,,,,,,,,,,,,,,,,,,,,,,,,,0.0,,,,,,,,,,,,,
1720702092324622952,,,,,,,,,,,,,,,,,,,,,,,,,,,,,,,,,,-24.3884,6.7438,-9.98091,79.5501,52.7279,66.4792,,,,,,,
1720702092326163072,,,,,,,,,,,,,,,,,,,,,,,,,,1380.0,-299.998,1850.0,,,,,,,,,,,,,,,,,,
1720702092326677059,,,,,,,,,,,,,,,,,,,,,,,,,,,,,0.607572,0.386587,0.690858,0.0642098,,,,,,,,,,,,,,
1720702092326736697,,,,,,,,,,,,,,,,,,,,,,,,,,,,,,,,,0.0,,,,,,,,,,,,,
1720702092328144048,1720702092.0,328062075.0,,,,,,,,0.3868915764676517,-0.1883189265819429,-0.8971494974030492,0.9950006687139178,0.0002989660106894,0.0006559624778397,0.0004238354141252,0.0008362439274207,,,,,,,,,,,,,,,,,,,,,,,,,,,,,
1720702092328158358,1720702092.0,327967836.0,229.081646334116,119.58827163962944,1906.3492408216769,0.0013437429045269,0.0027350142575503,0.0210714027826564,0.9997733293285976,,,,,,,,,,,,,,,,,,,,,,,,,,,,,,,,,,,,,
1720702092328168907,1720702092.0,328079438.0,,,,,,,,,,,,,,,,-0.0053339064925994,0.0931761886362181,0.0781078090117404,0.1217007909417946,-0.0011920076675109,-0.0009622449546562,-0.0004991727835388,0.0016112017564514,,,,,,,,,,,,,,,,,,,,,
1720702092328289217,,,,,,,,,,,,,,,,,,,,,,,,,,1380.0,-300.001,1850.0,,,,,,,,,,,,,,,,,,
1720702092328402552,,,,,,,,,,,,,,,,,,,,,,,,,,,,,0.60757,0.38659,0.690857,0.064215,,,,,,,,,,,,,,
1720702092328605142,,,,,,,,,,,,,,,,,,,,,,,,,,,,,,,,,,-24.3884,6.74409,-9.98091,79.5501,52.7278,66.4785,,,,,,,
1720702092330450958,,,,,,,,,,,,,,,,,,,,,,,,,,1380.0,-300.001,1850.0,,,,,,,,,,,,,,,,,,
1720702092330729275,,,,,,,,,,,,,,,,,,,,,,,,,,,,,,,,,0.0,,,,,,,,,,,,,
1720702092330743380,,,,,,,,,,,,,,,,,,,,,,,,,,,,,0.60757,0.38659,0.690857,0.064215,,,,,,,,,,,,,,
1720702092330969339,,,,,,,,,,,,,,,,,,,,,,,,,,,,,,,,,,-24.3884,6.74409,-9.98091,79.5501,52.7278,66.4785,,,,,,,
1720702092332490072,,,,,,,,,,,,,,,,,,,,,,,,,,1380.0,-299.999,1850.0,,,,,,,,,,,,,,,,,,
1720702092332503283,,,,,,,,,,,,,,,,,,,,,,,,,,,,,0.60757,0.386591,0.690857,0.0642142,,,,,,,,,,,,,,
1720702092332536486,,,,,,,,,,,,,,,,,,,,,,,,,,,,,,,,,0.0,,,,,,,,,,,,,
1720702092334294341,,,,,,,,,,,,,,,,,,,,,,,,,,1380.0,-299.999,1850.0,,,,,,,,,,,,,,,,,,
1720702092334307829,,,,,,,,,,,,,,,,,,,,,,,,,,,,,0.60757,0.386591,0.690857,0.0642142,,,,,,,,,,,,,,
1720702092334754913,,,,,,,,,,,,,,,,,,,,,,,,,,,,,,,,,0.0,,,,,,,,,,,,,
1720702092335005743,,,,,,,,,,,,,,,,,,,,,,,,,,,,,,,,,,-24.3884,6.74393,-9.98091,79.5501,52.7279,66.4785,,,,,,,
1720702092336427060,,,,,,,,,,,,,,,,,,,,,,,,,,1380.0,-300.003,1850.0,,,,,,,,,,,,,,,,,,
1720702092336467256,,,,,,,,,,,,,,,,,,,,,,,,,,,,,,,,,0.0,,,,,,,,,,,,,
1720702092336476869,,,,,,,,,,,,,,,,,,,,,,,,,,,,,0.60757,0.386589,0.690857,0.0642165,,,,,,,,,,,,,,
1720702092338279553,1720702092.0,338055323.0,,,,,,,,-0.0077235038170586,-0.0562561960279484,0.4243086794586403,0.428091424308736,0.0005630250850397,-0.000452804151188,-0.000672821519008,0.0009872778951022,,,,,,,,,,,,,,,,,,,,,,,,,,,,,
1720702092338327756,1720702092.0,337958226.0,229.08156909907785,119.58770907766916,1906.3534839084716,0.0013465188866183,0.0027326869108107,0.0210680501790192,0.9997734026122068,,,,,,,,,,,,,,,,,,,,,,,,,,,,,,,,,,,,,
1720702092338349519,1720702092.0,338071675.0,,,,,,,,,,,,,,,,-0.039461508028471,0.0132062730553994,0.1321458176861689,0.1385428937038672,0.0002640578271941,-0.00110876443012,-0.0010966594566116,0.0015816912029147,,,,,,,,,,,,,,,,,,,,,
1720702092338371759,,,,,,,,,,,,,,,,,,,,,,,,,,1380.0,-300.003,1850.0,,,,,,,,,,,,,,,,,,
1720702092338393606,,,,,,,,,,,,,,,,,,,,,,,,,,,,,0.60757,0.386589,0.690857,0.0642165,,,,,,,,,,,,,,
1720702092338911631,,,,,,,,,,,,,,,,,,,,,,,,,,,,,,,,,,-24.3886,6.74393,-9.98108,79.5499,52.7277,66.4787,,,,,,,
1720702092340402171,,,,,,,,,,,,,,,,,,,,,,,,,,1380.0,-300.001,1850.0,,,,,,,,,,,,,,,,,,
1720702092340439151,,,,,,,,,,,,,,,,,,,,,,,,,,,,,0.60757,0.386587,0.690859,0.0642132,,,,,,,,,,,,,,
1720702092340695955,,,,,,,,,,,,,,,,,,,,,,,,,,,,,,,,,,-24.3886,6.7438,-9.98091,79.5504,52.7278,66.4787,,,,,,,
1720702092342266590,,,,,,,,,,,,,,,,,,,,,,,,,,1380.0,-300.001,1850.0,,,,,,,,,,,,,,,,,,
1720702092342354643,,,,,,,,,,,,,,,,,,,,,,,,,,,,,0.60757,0.386587,0.690859,0.0642132,,,,,,,,,,,,,,
1720702092342960314,,,,,,,,,,,,,,,,,,,,,,,,,,,,,,,,,,-24.3886,6.7438,-9.98091,79.5504,52.7278,66.4787,,,,,,,
1720702092344417494,,,,,,,,,,,,,,,,,,,,,,,,,,1380.0,-300.003,1850.0,,,,,,,,,,,,,,,,,,
1720702092344456479,,,,,,,,,,,,,,,,,,,,,,,,,,,,,0.607571,0.386587,0.690857,0.0642165,,,,,,,,,,,,,,
1720702092344530745,,,,,,,,,,,,,,,,,,,,,,,,,,,,,,,,,0.0,,,,,,,,,,,,,
1720702092344691071,,,,,,,,,,,,,,,,,,,,,,,,,,,,,,,,,,-24.3886,6.7438,-9.98091,79.5501,52.7276,66.4786,,,,,,,
1720702092346258527,,,,,,,,,,,,,,,,,,,,,,,,,,1380.0,-300.003,1850.0,,,,,,,,,,,,,,,,,,
1720702092346297585,,,,,,,,,,,,,,,,,,,,,,,,,,,,,0.607571,0.386587,0.690857,0.0642165,,,,,,,,,,,,,,
1720702092347137901,,,,,,,,,,,,,,,,,,,,,,,,,,,,,,,,,,-24.3886,6.7438,-9.98091,79.5501,52.7276,66.4786,,,,,,,
1720702092348339078,1720702092.0,348058644.0,,,,,,,,-0.5047383553224982,0.3864232532624356,0.8970786516959706,1.0994698019155622,-0.0009776283384135,-1.423503492555693e-05,0.0016987451300181,0.0019600241888938,,,,,,,,,,,,,,,,,,,,,,,,,,,,,
1720702092348397538,1720702092.0,347965378.0,229.07652171552465,119.5915733102018,1906.3624546949884,0.0013416071422868,0.0027327301722094,0.0210765287170793,0.9997732303944328,,,,,,,,,,,,,,,,,,,,,,,,,,,,,,,,,,,,,
1720702092348411603,1720702092.0,348076098.0,,,,,,,,,,,,,,,,-0.0497014851505439,0.0442679449290384,0.047276997223733,0.0816394698715209,-0.0015406573173314,0.0004385676229205,0.00237156439558,0.0028618672596233,,,,,,,,,,,,,,,,,,,,,
1720702092348494500,,,,,,,,,,,,,,,,,,,,,,,,,,1380.0,-300.0,1850.0,,,,,,,,,,,,,,,,,,
1720702092348511620,,,,,,,,,,,,,,,,,,,,,,,,,,,,,,,,,0.0,,,,,,,,,,,,,
1720702092348522419,,,,,,,,,,,,,,,,,,,,,,,,,,,,,0.607569,0.38659,0.690857,0.0642154,,,,,,,,,,,,,,
1720702092348684726,,,,,,,,,,,,,,,,,,,,,,,,,,,,,,,,,,-24.3886,6.74372,-9.981,79.5501,52.7279,66.4785,,,,,,,
1720702092350315033,,,,,,,,,,,,,,,,,,,,,,,,,,1380.0,-300.0,1850.0,,,,,,,,,,,,,,,,,,
1720702092350352039,,,,,,,,,,,,,,,,,,,,,,,,,,,,,0.607569,0.38659,0.690857,0.0642154,,,,,,,,,,,,,,
1720702092350441765,,,,,,,,,,,,,,,,,,,,,,,,,,,,,,,,,,-24.3886,6.74372,-9.981,79.5501,52.7279,66.4785,,,,,,,
1720702092352460796,,,,,,,,,,,,,,,,,,,,,,,,,,1380.0,-300.0,1850.0,,,,,,,,,,,,,,,,,,
1720702092352497114,,,,,,,,,,,,,,,,,,,,,,,,,,,,,0.607571,0.386589,0.690857,0.0642143,,,,,,,,,,,,,,
1720702092352559786,,,,,,,,,,,,,,,,,,,,,,,,,,,,,,,,,0.0,,,,,,,,,,,,,
1720702092352849496,,,,,,,,,,,,,,,,,,,,,,,,,,,,,,,,,,-24.3884,6.74393,-9.98079,79.5501,52.7278,66.4785,,,,,,,
1720702092354334090,,,,,,,,,,,,,,,,,,,,,,,,,,1380.0,-300.0,1850.0,,,,,,,,,,,,,,,,,,
1720702092354370009,,,,,,,,,,,,,,,,,,,,,,,,,,,,,0.607571,0.386589,0.690857,0.0642143,,,,,,,,,,,,,,
1720702092354457668,,,,,,,,,,,,,,,,,,,,,,,,,,,,,,,,,,-24.3884,6.74393,-9.98079,79.5501,52.7278,66.4785,,,,,,,
1720702092356463950,,,,,,,,,,,,,,,,,,,,,,,,,,1380.0,-299.999,1850.0,,,,,,,,,,,,,,,,,,
1720702092356916608,,,,,,,,,,,,,,,,,,,,,,,,,,,,,0.607571,0.38659,0.690856,0.0642135,,,,,,,,,,,,,,
1720702092357004000,,,,,,,,,,,,,,,,,,,,,,,,,,,,,,,,,0.0,,,,,,,,,,,,,
1720702092358132759,1720702092.0,357939527.0,,,,,,,,-0.30284030863581,0.6583931688744493,1.0603091507688234,1.2843088851827178,-0.0001597749795989,-0.000996904746537,-0.001060837277987,0.0014644872304465,,,,,,,,,,,,,,,,,,,,,,,,,,,,,
1720702092358171845,1720702092.0,357852046.0,229.07349331243825,119.59815724189056,1906.373057786496,0.0013407178869659,0.0027277565001174,0.0210712302371157,0.9997733568546016,,,,,,,,,,,,,,,,,,,,,,,,,,,,,,,,,,,,,
1720702092358194610,1720702092.0,357955947.0,,,,,,,,,,,,,,,,0.0201898046686688,0.0271969915612013,0.0163230499072852,0.0375998207550885,0.000817861901754,-0.0009826762542009,-0.0027595775463388,0.0030413514997725,,,,,,,,,,,,,,,,,,,,,
1720702092358595781,,,,,,,,,,,,,,,,,,,,,,,,,,1380.0,-299.999,1850.0,,,,,,,,,,,,,,,,,,
1720702092359028946,,,,,,,,,,,,,,,,,,,,,,,,,,,,,,,,,,-24.3884,6.74393,-9.98091,79.5499,52.7279,66.4788,,,,,,,
1720702092360051706,,,,,,,,,,,,,,,,,,,,,,,,,,1380.0,-300.002,1850.0,,,,,,,,,,,,,,,,,,
1720702092360132238,,,,,,,,,,,,,,,,,,,,,,,,,,,,,,,,,0.0,,,,,,,,,,,,,
1720702092361551511,,,,,,,,,,,,,,,,,,,,,,,,,,1380.0,-300.002,1850.0,,,,,,,,,,,,,,,,,,
1720702092361840572,,,,,,,,,,,,,,,,,,,,,,,,,,,,,,,,,,-24.3886,6.7438,-9.98091,79.5499,52.7277,66.4789,,,,,,,
1720702092362579477,,,,,,,,,,,,,,,,,,,,,,,,,,1380.0,-300.002,1850.0,,,,,,,,,,,,,,,,,,
1720702092362903581,,,,,,,,,,,,,,,,,,,,,,,,,,,,,,,,,,-24.3886,6.7438,-9.98091,79.5499,52.7277,66.4789,,,,,,,
1720702092364784523,,,,,,,,,,,,,,,,,,,,,,,,,,1380.0,-299.998,1850.0,,,,,,,,,,,,,,,,,,
1720702092364863761,,,,,,,,,,,,,,,,,,,,,,,,,,,,,,,,,0.0,,,,,,,,,,,,,
1720702092366566838,,,,,,,,,,,,,,,,,,,,,,,,,,1380.0,-299.998,1850.0,,,,,,,,,,,,,,,,,,
1720702092366921888,,,,,,,,,,,,,,,,,,,,,,,,,,,,,,,,,,-24.3884,6.7438,-9.98091,79.5501,52.7279,66.4788,,,,,,,
1720702092368001396,,,,,,,,,,,,,,,,,,,,,,,,,,1380.0,-299.997,1850.0,,,,,,,,,,,,,,,,,,
1720702092368077712,1720702092.0,367958123.0,229.07062617187276,119.60390041284298,1906.381994757489,0.0013434015384117,0.0027293428276366,0.0210632490074203,0.9997735171033926,,,,,,,,,,,,,,,,,,,,,,,,,,,,,,,,,,,,,
1720702092368138217,1720702092.0,368044270.0,,,,,,,,-0.2867140565521175,0.5743170952435261,0.8936970993023152,1.1003361220167702,0.0005255263285263,0.0003305558568302,-0.0015975981947368,0.0017139909825566,,,,,,,,,,,,,,,,,,,,,,,,,,,,,
1720702092368163499,1720702092.0,368063035.0,,,,,,,,,,,,,,,,0.0016126252083692,-0.0084076073630923,-0.0166612051466508,0.018731902694958,0.0006853110247006,0.0013274565395521,-0.0005367585613157,0.0015874198619525,,,,,,,,,,,,,,,,,,,,,
1720702092368408251,,,,,,,,,,,,,,,,,,,,,,,,,,,,,,,,,,-24.3884,6.74393,-9.981,79.5504,52.7281,66.4792,,,,,,,
1720702092369565053,,,,,,,,,,,,,,,,,,,,,,,,,,1380.0,-299.997,1850.0,,,,,,,,,,,,,,,,,,
1720702092369925086,,,,,,,,,,,,,,,,,,,,,,,,,,,,,,,,,,-24.3884,6.74393,-9.981,79.5504,52.7281,66.4792,,,,,,,
1720702092370590499,,,,,,,,,,,,,,,,,,,,,,,,,,1380.0,-299.997,1850.0,,,,,,,,,,,,,,,,,,
1720702092370670869,,,,,,,,,,,,,,,,,,,,,,,,,,,,,,,,,0.0,,,,,,,,,,,,,
1720702092372771454,,,,,,,,,,,,,,,,,,,,,,,,,,1380.0,-299.998,1850.0,,,,,,,,,,,,,,,,,,
1720702092373132993,,,,,,,,,,,,,,,,,,,,,,,,,,,,,,,,,,-24.3884,6.74401,-9.98087,79.5501,52.7278,66.4785,,,,,,,
1720702092374749335,,,,,,,,,,,,,,,,,,,,,,,,,,1380.0,-299.998,1850.0,,,,,,,,,,,,,,,,,,
1720702092376804419,,,,,,,,,,,,,,,,,,,,,,,,,,1380.0,-300.0,1850.0,,,,,,,,,,,,,,,,,,
1720702092377202885,,,,,,,,,,,,,,,,,,,,,,,,,,,,,,,,,,-24.3884,6.74401,-9.98091,79.5501,52.7278,66.4784,,,,,,,
1720702092378150957,1720702092.0,378058799.0,,,,,,,,0.288283160995717,0.0135269131382176,-0.3516395655323023,0.4549071799174836,-0.0006799230775735,0.0009128797010226,0.0010508528823187,0.001549172850341,,,,,,,,,,,,,,,,,,,,,,,,,,,,,
1720702092378179513,1720702092.0,377966054.0,229.07350900348268,119.60403568197437,1906.378478361834,0.0013400844933117,0.0027339848578339,0.021068486670663,0.9997733985107607,,,,,,,,,,,,,,,,,,,,,,,,,,,,,,,,,,,,,
1720702092378200186,1720702092.0,378075757.0,,,,,,,,,,,,,,,,0.0574997217547834,-0.0560790182105308,-0.1245336664834617,0.1481880844506354,-0.0012054403771874,0.0005823265141502,0.0026484545995104,0.0029675751781049,,,,,,,,,,,,,,,,,,,,,
1720702092378554265,,,,,,,,,,,,,,,,,,,,,,,,,,1380.0,-300.0,1850.0,,,,,,,,,,,,,,,,,,
1720702092378960953,,,,,,,,,,,,,,,,,,,,,,,,,,,,,,,,,,-24.3884,6.74401,-9.98091,79.5501,52.7278,66.4784,,,,,,,
1720702092380723267,,,,,,,,,,,,,,,,,,,,,,,,,,1380.0,-299.999,1850.0,,,,,,,,,,,,,,,,,,
1720702092381131362,,,,,,,,,,,,,,,,,,,,,,,,,,,,,,,,,,-24.3884,6.74393,-9.98091,79.5501,52.7279,66.4788,,,,,,,
1720702092382555161,,,,,,,,,,,,,,,,,,,,,,,,,,1380.0,-299.999,1850.0,,,,,,,,,,,,,,,,,,
1720702092382973916,,,,,,,,,,,,,,,,,,,,,,,,,,,,,,,,,,-24.3884,6.74393,-9.98091,79.5501,52.7279,66.4788,,,,,,,
1720702092383965160,,,,,,,,,,,,,,,,,,,,,,,,,,1380.0,-300.005,1850.0,,,,,,,,,,,,,,,,,,
1720702092384416387,,,,,,,,,,,,,,,,,,,,,,,,,,,,,,,,,,-24.3884,6.74393,-9.98091,79.5501,52.7279,66.4788,,,,,,,
1720702092385570692,,,,,,,,,,,,,,,,,,,,,,,,,,1380.0,-300.005,1850.0,,,,,,,,,,,,,,,,,,
1720702092385932875,,,,,,,,,,,,,,,,,,,,,,,,,,,,,,,,,,-24.3887,6.74401,-9.98091,79.5501,52.7278,66.4787,,,,,,,
1720702092386558515,,,,,,,,,,,,,,,,,,,,,,,,,,1380.0,-300.005,1850.0,,,,,,,,,,,,,,,,,,
1720702092386696370,,,,,,,,,,,,,,,,,,,,,,,,,,,,,,,,,0.0,,,,,,,,,,,,,
1720702092388158352,1720702092.0,388062862.0,,,,,,,,0.0308480787247766,-0.2357731215485436,-0.9889389163131312,1.0171237628746783,0.0004425217308767,0.0005074140283902,0.0011399064442686,0.0013238886585323,,,,,,,,,,,,,,,,,,,,,,,,,,,,,
1720702092388185374,1720702092.0,387971411.0,229.07381748426997,119.60167795075888,1906.3685889726708,0.00134233447035,0.0027364823745509,0.0210741875602505,0.9997732685069444,,,,,,,,,,,,,,,,,,,,,,,,,,,,,,,,,,,,,
1720702092388205995,1720702092.0,388079229.0,,,,,,,,,,,,,,,,-0.025743508227094,-0.0249300034686761,-0.0637299350780828,0.0731145533655463,0.0011224473453186,-0.000405459472255,8.904981708344757e-05,0.0011967519778871,,,,,,,,,,,,,,,,,,,,,
1720702092388670729,,,,,,,,,,,,,,,,,,,,,,,,,,1380.0,-299.999,1850.0,,,,,,,,,,,,,,,,,,
1720702092389070101,,,,,,,,,,,,,,,,,,,,,,,,,,,,,,,,,,-24.3884,6.74393,-9.98091,79.5499,52.7279,66.4788,,,,,,,
1720702092390519269,,,,,,,,,,,,,,,,,,,,,,,,,,1380.0,-299.999,1850.0,,,,,,,,,,,,,,,,,,
1720702092390927092,,,,,,,,,,,,,,,,,,,,,,,,,,,,,,,,,,-24.3884,6.74393,-9.98091,79.5499,52.7279,66.4788,,,,,,,
1720702092392045246,,,,,,,,,,,,,,,,,,,,,,,,,,1380.0,-299.999,1850.0,,,,,,,,,,,,,,,,,,
1720702092392484414,,,,,,,,,,,,,,,,,,,,,,,,,,,,,,,,,,-24.3884,6.74393,-9.98091,79.5499,52.7279,66.4788,,,,,,,
1720702092393592472,,,,,,,,,,,,,,,,,,,,,,,,,,1380.0,-299.999,1850.0,,,,,,,,,,,,,,,,,,
1720702092393993913,,,,,,,,,,,,,,,,,,,,,,,,,,,,,,,,,,-24.3884,6.74393,-9.981,79.5501,52.7279,66.4785,,,,,,,
1720702092396514001,,,,,,,,,,,,,,,,,,,,,,,,,,1380.0,-299.998,1850.0,,,,,,,,,,,,,,,,,,
1720702092396898359,,,,,,,,,,,,,,,,,,,,,,,,,,,,,,,,,,-24.3884,6.7438,-9.98087,79.5499,52.7279,66.4786,,,,,,,
1720702092397628698,,,,,,,,,,,,,,,,,,,,,,,,,,1380.0,-299.998,1850.0,,,,,,,,,,,,,,,,,,
1720702092398042496,,,,,,,,,,,,,,,,,,,,,,,,,,,,,,,,,,-24.3884,6.7438,-9.98087,79.5499,52.7279,66.4786,,,,,,,
1720702092398106516,1720702092.0,397970487.0,229.07593159926049,119.59819539451134,1906.361398609775,0.0013504827036978,0.0027327389403467,0.0210680490119467,0.9997733971481644,,,,,,,,,,,,,,,,,,,,,,,,,,,,,,,,,,,,,
1720702092398167029,1720702092.0,398060521.0,,,,,,,,0.2114114990514615,-0.3482556247547119,-0.7190362895537206,0.8264320829927059,0.001641661002526,-0.0007125960182871,-0.0012334379897189,0.0021735255248041,,,,,,,,,,,,,,,,,,,,,,,,,,,,,
1720702092398190686,1720702092.0,398081356.0,,,,,,,,,,,,,,,,0.0180563420326684,-0.0112482503206168,0.026990262675941,0.0343661010618351,0.0011991402037983,-0.0012199979608421,-0.0023733501756505,0.0029255979404362,,,,,,,,,,,,,,,,,,,,,
1720702092399965718,,,,,,,,,,,,,,,,,,,,,,,,,,1380.0,-299.998,1850.0,,,,,,,,,,,,,,,,,,
1720702092400388387,,,,,,,,,,,,,,,,,,,,,,,,,,,,,,,,,,-24.3884,6.7438,-9.98087,79.5499,52.7279,66.4786,,,,,,,
1720702092401567931,,,,,,,,,,,,,,,,,,,,,,,,,,1380.0,-299.999,1850.0,,,,,,,,,,,,,,,,,,
1720702092401953582,,,,,,,,,,,,,,,,,,,,,,,,,,,,,,,,,,-24.3884,6.74393,-9.98087,79.5501,52.7279,66.4786,,,,,,,
1720702092403906149,,,,,,,,,,,,,,,,,,,,,,,,,,1380.0,-299.999,1850.0,,,,,,,,,,,,,,,,,,
1720702092404349916,,,,,,,,,,,,,,,,,,,,,,,,,,,,,,,,,,-24.3884,6.74393,-9.98087,79.5501,52.7279,66.4786,,,,,,,
1720702092405582129,,,,,,,,,,,,,,,,,,,,,,,,,,1380.0,-300.0,1850.0,,,,,,,,,,,,,,,,,,
1720702092405713344,,,,,,,,,,,,,,,,,,,,,,,,,,,,,,,,,0.0,,,,,,,,,,,,,
1720702092407783777,,,,,,,,,,,,,,,,,,,,,,,,,,1380.0,-300.0,1850.0,,,,,,,,,,,,,,,,,,
1720702092408036735,1720702092.0,407924125.0,,,,,,,,0.08912053675314,-0.7321171737267873,-0.6151778021212806,0.96040707742063,-0.0012162803574602,8.902651847975425e-05,-0.0005180267339518,0.0013249963494383,,,,,,,,,,,,,,,,,,,,,,,,,,,,,
1720702092408063720,1720702092.0,407850402.0,229.076822804628,119.59087422277406,1906.355246831754,0.0013444191361783,0.002733308597351,0.0210654422447189,0.999773458691684,,,,,,,,,,,,,,,,,,,,,,,,,,,,,,,,,,,,,
1720702092408079262,1720702092.0,407937198.0,,,,,,,,,,,,,,,,-0.0122290962298321,-0.0383861548972075,0.0103858487432439,0.0416042490198831,-0.0028579389651858,0.0008016342899158,0.0007154076529519,0.0030532344773041,,,,,,,,,,,,,,,,,,,,,
1720702092408134144,,,,,,,,,,,,,,,,,,,,,,,,,,,,,,,,,,-24.3884,6.74401,-9.981,79.5505,52.7276,66.4787,,,,,,,
1720702092409471348,,,,,,,,,,,,,,,,,,,,,,,,,,1380.0,-299.997,1850.0,,,,,,,,,,,,,,,,,,
1720702092409677289,,,,,,,,,,,,,,,,,,,,,,,,,,,,,,,,,,-24.3884,6.74393,-9.98087,79.5504,52.7279,66.4788,,,,,,,
1720702092410562876,,,,,,,,,,,,,,,,,,,,,,,,,,1380.0,-299.997,1850.0,,,,,,,,,,,,,,,,,,
1720702092412633771,,,,,,,,,,,,,,,,,,,,,,,,,,1380.0,-300.003,1850.0,,,,,,,,,,,,,,,,,,
1720702092412869476,,,,,,,,,,,,,,,,,,,,,,,,,,,,,,,,,,-24.3886,6.74393,-9.98087,79.5501,52.7278,66.4784,,,,,,,
1720702092414534733,,,,,,,,,,,,,,,,,,,,,,,,,,1380.0,-300.003,1850.0,,,,,,,,,,,,,,,,,,
1720702092414839234,,,,,,,,,,,,,,,,,,,,,,,,,,,,,,,,,,-24.3886,6.74393,-9.98087,79.5501,52.7278,66.4784,,,,,,,
1720702092416803997,,,,,,,,,,,,,,,,,,,,,,,,,,1380.0,-300.003,1850.0,,,,,,,,,,,,,,,,,,
1720702092417127950,,,,,,,,,,,,,,,,,,,,,,,,,,,,,,,,,,-24.3886,6.74393,-9.98108,79.5504,52.7276,66.4786,,,,,,,
1720702092417996668,1720702092.0,417843623.0,,,,,,,,-0.0092715865485093,0.2476204906814993,0.5741505647138823,0.625340499794906,0.000191503624578,0.0006281876159241,0.0006400207236527,0.0009170168186745,,,,,,,,,,,,,,,,,,,,,,,,,,,,,
1720702092418020621,1720702092.0,417817518.0,229.0767300887625,119.59335042768087,1906.360988337401,0.0013454338557487,0.0027364329555875,0.0210686400176154,0.9997733813971184,,,,,,,,,,,,,,,,,,,,,,,,,,,,,,,,,,,,,
1720702092418038313,1720702092.0,417851880.0,,,,,,,,,,,,,,,,-0.0098392123301649,0.0979737664408286,0.1189328366835162,0.1544043025678626,0.0014077858940168,0.0005391644936412,0.0011580435520907,0.0019009535352383,,,,,,,,,,,,,,,,,,,,,
1720702092418521267,,,,,,,,,,,,,,,,,,,,,,,,,,1380.0,-300.003,1850.0,,,,,,,,,,,,,,,,,,
1720702092418636313,,,,,,,,,,,,,,,,,,,,,,,,,,,,,0.607569,0.386586,0.690859,0.0642159,,,,,,,,,,,,,,
1720702092420416449,,,,,,,,,,,,,,,,,,,,,,,,,,1380.0,-300.001,1850.0,,,,,,,,,,,,,,,,,,
1720702092420766548,,,,,,,,,,,,,,,,,,,,,,,,,,,,,,,,,,-24.3886,6.7438,-9.98087,79.5499,52.7279,66.4792,,,,,,,
1720702092421593143,,,,,,,,,,,,,,,,,,,,,,,,,,1380.0,-300.001,1850.0,,,,,,,,,,,,,,,,,,
1720702092421917536,,,,,,,,,,,,,,,,,,,,,,,,,,,,,,,,,,-24.3886,6.7438,-9.98087,79.5499,52.7279,66.4792,,,,,,,
1720702092423806615,,,,,,,,,,,,,,,,,,,,,,,,,,1380.0,-300.001,1850.0,,,,,,,,,,,,,,,,,,
1720702092423960585,,,,,,,,,,,,,,,,,,,,,,,,,,,,,0.607573,0.386587,0.690856,0.0642113,,,,,,,,,,,,,,
1720702092425341177,,,,,,,,,,,,,,,,,,,,,,,,,,1380.0,-300.001,1850.0,,,,,,,,,,,,,,,,,,
1720702092425394786,,,,,,,,,,,,,,,,,,,,,,,,,,,,,0.607571,0.386588,0.690857,0.0642158,,,,,,,,,,,,,,
1720702092427499690,,,,,,,,,,,,,,,,,,,,,,,,,,1380.0,-300.001,1850.0,,,,,,,,,,,,,,,,,,
1720702092427545150,,,,,,,,,,,,,,,,,,,,,,,,,,,,,0.607571,0.386588,0.690857,0.0642158,,,,,,,,,,,,,,
1720702092427858193,1720702092.0,427798436.0,229.07434842083308,119.59878158903508,1906.3700175590948,0.0013436408364511,0.0027345236885769,0.0210698892104636,0.9997733627068476,,,,,,,,,,,,,,,,,,,,,,,,,,,,,,,,,,,,,
1720702092427876543,,,,,,,,,,,,,,,,,,,,,,,,,,,,,,,,,,-24.3884,6.74393,-9.98091,79.5501,52.7276,66.4786,,,,,,,
1720702092427915345,1720702092.0,427811479.0,,,,,,,,-0.2381667929429731,0.5431161354194081,0.9029221693657165,1.0802624689147289,-0.0003497887655374,-0.0003896480749866,0.0002503282442174,0.0005803809375659,,,,,,,,,,,,,,,,,,,,,,,,,,,,,
1720702092427928942,1720702092.0,427816418.0,,,,,,,,,,,,,,,,-0.0228895206394463,0.0295495644737908,0.0328771604651834,0.0497796604643682,-0.0005412903569334,-0.0010178370499616,-0.000389691753866,0.0012169006425402,,,,,,,,,,,,,,,,,,,,,
1720702092429394341,,,,,,,,,,,,,,,,,,,,,,,,,,1380.0,-300.0,1850.0,,,,,,,,,,,,,,,,,,
1720702092431505929,,,,,,,,,,,,,,,,,,,,,,,,,,1380.0,-300.0,1850.0,,,,,,,,,,,,,,,,,,
1720702092431536623,,,,,,,,,,,,,,,,,,,,,,,,,,,,,0.60757,0.386587,0.690858,0.0642155,,,,,,,,,,,,,,
1720702092431580573,,,,,,,,,,,,,,,,,,,,,,,,,,,,,,,,,0.0,,,,,,,,,,,,,
1720702092431806225,,,,,,,,,,,,,,,,,,,,,,,,,,,,,,,,,,-24.3884,6.7438,-9.98108,79.5501,52.7276,66.4788,,,,,,,
1720702092433217525,,,,,,,,,,,,,,,,,,,,,,,,,,1380.0,-299.999,1849.99,,,,,,,,,,,,,,,,,,
1720702092433231830,,,,,,,,,,,,,,,,,,,,,,,,,,,,,0.607571,0.386591,0.690855,0.0642117,,,,,,,,,,,,,,
1720702092433276736,,,,,,,,,,,,,,,,,,,,,,,,,,,,,,,,,0.0,,,,,,,,,,,,,
1720702092433454777,,,,,,,,,,,,,,,,,,,,,,,,,,,,,,,,,,-24.3884,6.74401,-9.98071,79.5499,52.7281,66.4787,,,,,,,
1720702092435517365,,,,,,,,,,,,,,,,,,,,,,,,,,1380.0,-299.999,1849.99,,,,,,,,,,,,,,,,,,
1720702092435550836,,,,,,,,,,,,,,,,,,,,,,,,,,,,,0.607571,0.386591,0.690855,0.0642117,,,,,,,,,,,,,,
1720702092435591623,,,,,,,,,,,,,,,,,,,,,,,,,,,,,,,,,0.0,,,,,,,,,,,,,
1720702092435660032,,,,,,,,,,,,,,,,,,,,,,,,,,,,,,,,,,-24.3884,6.74401,-9.98071,79.5499,52.7281,66.4787,,,,,,,
1720702092437238547,,,,,,,,,,,,,,,,,,,,,,,,,,1380.0,-300.0,1850.0,,,,,,,,,,,,,,,,,,
1720702092437295782,,,,,,,,,,,,,,,,,,,,,,,,,,,,,0.607569,0.38659,0.690858,0.0642145,,,,,,,,,,,,,,
1720702092437353152,,,,,,,,,,,,,,,,,,,,,,,,,,,,,,,,,0.0,,,,,,,,,,,,,
1720702092437523177,,,,,,,,,,,,,,,,,,,,,,,,,,,,,,,,,,-24.3884,6.74409,-9.98108,79.5501,52.7279,66.4786,,,,,,,
1720702092438038410,1720702092.0,437962759.0,,,,,,,,-0.2049003799409199,0.6864936563807933,0.6518209017647436,0.9685701801771556,-0.0001430822580949,-0.0018517936980273,-0.0007010966295373,0.0019852327109394,,,,,,,,,,,,,,,,,,,,,,,,,,,,,
1720702092438051163,1720702092.0,437915947.0,229.0722994170337,119.60564652559889,1906.3765357681125,0.0013427400876198,0.0027252771819061,0.0210663950051702,0.9997734627978604,,,,,,,,,,,,,,,,,,,,,,,,,,,,,,,,,,,,,
1720702092438076781,1720702092.0,437970402.0,,,,,,,,,,,,,,,,0.0033266413002053,0.0143377520961385,-0.0251101267600972,0.0291059468737697,0.0002067101911164,-0.0014621470283073,-0.0009514219138153,0.0017566464338583,,,,,,,,,,,,,,,,,,,,,
1720702092439442161,,,,,,,,,,,,,,,,,,,,,,,,,,1380.0,-300.0,1850.0,,,,,,,,,,,,,,,,,,
1720702092439470495,,,,,,,,,,,,,,,,,,,,,,,,,,,,,0.607569,0.38659,0.690858,0.0642145,,,,,,,,,,,,,,
1720702092439504091,,,,,,,,,,,,,,,,,,,,,,,,,,,,,,,,,0.0,,,,,,,,,,,,,
1720702092439684002,,,,,,,,,,,,,,,,,,,,,,,,,,,,,,,,,,-24.3884,6.74409,-9.98108,79.5501,52.7279,66.4786,,,,,,,
1720702092441317131,,,,,,,,,,,,,,,,,,,,,,,,,,1380.0,-300.002,1850.0,,,,,,,,,,,,,,,,,,
1720702092441347031,,,,,,,,,,,,,,,,,,,,,,,,,,,,,0.60757,0.386588,0.690858,0.0642141,,,,,,,,,,,,,,
1720702092444039558,,,,,,,,,,,,,,,,,,,,,,,,,,1380.0,-300.002,1850.0,,,,,,,,,,,,,,,,,,
1720702092444069729,,,,,,,,,,,,,,,,,,,,,,,,,,,,,0.60757,0.386589,0.690857,0.0642134,,,,,,,,,,,,,,
1720702092444325168,,,,,,,,,,,,,,,,,,,,,,,,,,,,,,,,,,-24.3886,6.74393,-9.98087,79.5504,52.7278,66.4786,,,,,,,
1720702092445142561,,,,,,,,,,,,,,,,,,,,,,,,,,1380.0,-299.997,1850.0,,,,,,,,,,,,,,,,,,
1720702092445176293,,,,,,,,,,,,,,,,,,,,,,,,,,,,,0.60757,0.386589,0.690857,0.0642134,,,,,,,,,,,,,,
1720702092445240391,,,,,,,,,,,,,,,,,,,,,,,,,,,,,,,,,0.0,,,,,,,,,,,,,
1720702092445401048,,,,,,,,,,,,,,,,,,,,,,,,,,,,,,,,,,-24.3884,6.7438,-9.98091,79.5501,52.7278,66.4787,,,,,,,
1720702092447558879,,,,,,,,,,,,,,,,,,,,,,,,,,1380.0,-299.997,1850.0,,,,,,,,,,,,,,,,,,
1720702092447590980,,,,,,,,,,,,,,,,,,,,,,,,,,,,,0.60757,0.386589,0.690857,0.0642134,,,,,,,,,,,,,,
1720702092447815337,,,,,,,,,,,,,,,,,,,,,,,,,,,,,,,,,,-24.3884,6.7438,-9.98091,79.5501,52.7278,66.4787,,,,,,,
1720702092447920662,1720702092.0,447876168.0,,,,,,,,-0.0457721442581604,-0.2507144829216878,0.031111829934538,0.2567504373872706,0.0005834113025138,0.0017144000992126,0.0009111713170305,0.0020272566727132,,,,,,,,,,,,,,,,,,,,,,,,,,,,,
1720702092447935187,1720702092.0,447832370.0,229.07184169559108,119.60313938076966,1906.376846886412,0.0013458246484179,0.0027337919058515,0.0210709462684209,0.9997733394930997,,,,,,,,,,,,,,,,,,,,,,,,,,,,,,,,,,,,,
1720702092447945896,1720702092.0,447885070.0,,,,,,,,,,,,,,,,0.0159128235682759,-0.0937208139302481,-0.0620709071830205,0.113532402582639,0.0007264911339024,0.0035661924039598,0.001612272121852,0.0039805701883777,,,,,,,,,,,,,,,,,,,,,
1720702092449223621,,,,,,,,,,,,,,,,,,,,,,,,,,1380.0,-299.996,1850.0,,,,,,,,,,,,,,,,,,
1720702092449261947,,,,,,,,,,,,,,,,,,,,,,,,,,,,,0.607571,0.386587,0.690858,0.0642115,,,,,,,,,,,,,,
1720702092449326201,,,,,,,,,,,,,,,,,,,,,,,,,,,,,,,,,0.0,,,,,,,,,,,,,
1720702092449560484,,,,,,,,,,,,,,,,,,,,,,,,,,,,,,,,,,-24.3884,6.74372,-9.98108,79.5501,52.7278,66.4792,,,,,,,
1720702092451495201,,,,,,,,,,,,,,,,,,,,,,,,,,1380.0,-299.996,1850.0,,,,,,,,,,,,,,,,,,
1720702092451558014,,,,,,,,,,,,,,,,,,,,,,,,,,,,,0.607571,0.386587,0.690858,0.0642115,,,,,,,,,,,,,,
1720702092451654102,,,,,,,,,,,,,,,,,,,,,,,,,,,,,,,,,0.0,,,,,,,,,,,,,
1720702092451864560,,,,,,,,,,,,,,,,,,,,,,,,,,,,,,,,,,-24.3884,6.74372,-9.98108,79.5501,52.7278,66.4792,,,,,,,
1720702092453276646,,,,,,,,,,,,,,,,,,,,,,,,,,1380.0,-299.998,1850.0,,,,,,,,,,,,,,,,,,
1720702092453343260,,,,,,,,,,,,,,,,,,,,,,,,,,,,,0.607569,0.38659,0.690857,0.0642141,,,,,,,,,,,,,,
1720702092453597476,,,,,,,,,,,,,,,,,,,,,,,,,,,,,,,,,,-24.3884,6.7438,-9.981,79.5501,52.7279,66.4786,,,,,,,
1720702092455192956,,,,,,,,,,,,,,,,,,,,,,,,,,1380.0,-299.998,1850.0,,,,,,,,,,,,,,,,,,
1720702092455278400,,,,,,,,,,,,,,,,,,,,,,,,,,,,,0.607569,0.38659,0.690857,0.0642141,,,,,,,,,,,,,,
1720702092455633196,,,,,,,,,,,,,,,,,,,,,,,,,,,,,,,,,0.0,,,,,,,,,,,,,
1720702092455949570,,,,,,,,,,,,,,,,,,,,,,,,,,,,,,,,,,-24.3884,6.7438,-9.981,79.5501,52.7279,66.4786,,,,,,,
1720702092457321629,,,,,,,,,,,,,,,,,,,,,,,,,,1380.0,-300.003,1850.0,,,,,,,,,,,,,,,,,,
1720702092457403506,,,,,,,,,,,,,,,,,,,,,,,,,,,,,0.60757,0.386589,0.690857,0.0642158,,,,,,,,,,,,,,
1720702092457716338,,,,,,,,,,,,,,,,,,,,,,,,,,,,,,,,,,-24.3886,6.74401,-9.98091,79.5501,52.7278,66.4785,,,,,,,
1720702092457883626,1720702092.0,457822579.0,,,,,,,,-0.1020622935415938,-0.1795875879256891,-0.3662854951125283,0.4205157279219977,-0.0001419380708273,-0.0005686310798617,0.0005840185639174,0.0008273846771212,,,,,,,,,,,,,,,,,,,,,,,,,,,,,
1720702092457907637,1720702092.0,457806208.0,229.0708210726557,119.6013435048904,1906.3731840314608,0.0013450472280103,0.0027309682786401,0.0210738675854333,0.9997732866831396,,,,,,,,,,,,,,,,,,,,,,,,,,,,,,,,,,,,,
